/* XPM */
static const char *bitcoin256[] = {
/* columns rows colors chars-per-pixel */
"256 256 254 2 ",
"   c #020302",
".  c #0B0303",
"X  c #01030B",
"o  c #0B040C",
"O  c #06090A",
"+  c #100507",
"@  c #020312",
"#  c #0C0614",
"$  c #050814",
"%  c #0B0915",
"&  c #08061A",
"*  c #0D0A1B",
"=  c #12061C",
"-  c #110A1D",
";  c #0C0727",
":  c #0D0A21",
">  c #110A21",
",  c #190827",
"<  c #160836",
"1  c #0E1035",
"2  c #2A0B30",
"3  c #47113C",
"4  c #100C4F",
"5  c #2E0E4F",
"6  c #152555",
"7  c #140C6C",
"8  c #2D0B70",
"9  c #193471",
"0  c #203A76",
"q  c #531348",
"w  c #741955",
"e  c #4D1472",
"r  c #961D68",
"t  c #B41E76",
"y  c #9C226D",
"u  c #C1217A",
"i  c #10098E",
"p  c #010394",
"a  c #06079A",
"s  c #05069C",
"d  c #07089D",
"f  c #08099D",
"g  c #280987",
"h  c #26049C",
"j  c #32039D",
"k  c #173090",
"l  c #0708A4",
"z  c #1B04A6",
"x  c #0D0DB3",
"c  c #160AB7",
"v  c #2503A4",
"b  c #2804A9",
"n  c #3402A3",
"m  c #3B04A5",
"M  c #3607AA",
"N  c #3E05AA",
"B  c #2A04B4",
"V  c #3907B5",
"C  c #3B11BE",
"Z  c #0825AE",
"A  c #55178A",
"S  c #711C9D",
"D  c #4006AB",
"F  c #4308AA",
"G  c #4708B8",
"H  c #550FB5",
"J  c #710DB4",
"K  c #264893",
"L  c #2854B0",
"P  c #2E60BA",
"I  c #555BAE",
"U  c #041BCC",
"Y  c #380BC8",
"T  c #2910C9",
"R  c #3E0CDB",
"E  c #3916D8",
"W  c #0327CA",
"Q  c #0224D4",
"!  c #032BD6",
"~  c #032BD9",
"^  c #0835D9",
"/  c #3D1CE3",
"(  c #022DE6",
")  c #0431EA",
"_  c #062FF1",
"`  c #0439F7",
"'  c #4D07C6",
"]  c #5509C6",
"[  c #560ACB",
"{  c #590BCB",
"}  c #440FD7",
"|  c #410DDE",
" . c #5B0BD1",
".. c #630CCD",
"X. c #660DD3",
"o. c #690DD4",
"O. c #6A0EDA",
"+. c #700FD3",
"@. c #6911D6",
"#. c #5D20C9",
"$. c #702CD6",
"%. c #430EE2",
"&. c #480DE9",
"*. c #4713E8",
"=. c #4A0EF5",
"-. c #4C15F7",
";. c #5219FB",
":. c #740DE8",
">. c #7314EC",
",. c #4E23FA",
"<. c #5427FA",
"1. c #5423FC",
"2. c #5B25FE",
"3. c #5D2AFF",
"4. c #5332F1",
"5. c #6827F9",
"6. c #2F68D0",
"7. c #0B4BE5",
"8. c #0C4AE7",
"9. c #144FED",
"0. c #1857EF",
"q. c #0A48F6",
"w. c #0543FB",
"e. c #0A46FC",
"r. c #054BFF",
"t. c #0A49FC",
"y. c #1859F8",
"u. c #3273E8",
"i. c #276BF9",
"p. c #2D75FA",
"a. c #2E74FC",
"s. c #3176FC",
"d. c #337AFD",
"f. c #3879F8",
"g. c #6353F7",
"h. c #6973F7",
"j. c #B51694",
"k. c #8B06B0",
"l. c #9703B7",
"z. c #9B13BC",
"x. c #A10FBD",
"c. c #A211BE",
"v. c #AB13BB",
"b. c #B917B8",
"n. c #8A26B5",
"m. c #C50D96",
"M. c #CA149C",
"N. c #D3149D",
"B. c #D9169C",
"V. c #EF0C8F",
"C. c #E81C9C",
"Z. c #F61B97",
"A. c #FB1D95",
"S. c #FD1F99",
"D. c #CF2788",
"F. c #E72794",
"G. c #FC2296",
"H. c #FC2299",
"J. c #F9279B",
"K. c #C717A4",
"L. c #CC16A2",
"P. c #CC18A2",
"I. c #D519A4",
"U. c #CB18B5",
"Y. c #EE1CA6",
"T. c #D725AC",
"R. c #FF25A4",
"E. c #FC28A5",
"W. c #FF2BAC",
"Q. c #FC34AC",
"!. c #F32EB1",
"~. c #FB4ABC",
"^. c #E857BB",
"/. c #E853BC",
"(. c #F850BC",
"). c #980DC4",
"_. c #9C11C3",
"`. c #8E0ED3",
"'. c #9A0ED6",
"]. c #A20EC1",
"[. c #A311C1",
"{. c #AA13C3",
"}. c #B412CA",
"|. c #A50ED7",
" X c #A411D3",
".X c #A914D9",
"XX c #962CC9",
"oX c #A931D7",
"OX c #9F08E3",
"+X c #881CF7",
"@X c #8D1DFD",
"#X c #931DF6",
"$X c #921EFB",
"%X c #9A1EFD",
"&X c #AD0DE7",
"*X c #AA15E8",
"=X c #8937ED",
"-X c #8B24FA",
";X c #9220FC",
":X c #9924FD",
">X c #9338F8",
",X c #AB2AE8",
"<X c #B32AE8",
"1X c #B52DEC",
"2X c #B732EC",
"3X c #B829F3",
"4X c #B430F5",
"5X c #F539C5",
"6X c #C928E6",
"7X c #C838E2",
"8X c #C52EFD",
"9X c #C934FF",
"0X c #B661DA",
"qX c #9B48EE",
"wX c #9749FA",
"eX c #9E4BFA",
"rX c #B44EEA",
"tX c #A94AF4",
"yX c #A14CFA",
"uX c #A854FE",
"iX c #F647C7",
"pX c #FC44C6",
"aX c #FC4EC3",
"sX c #FB46CA",
"dX c #FE4ACC",
"fX c #FD51C4",
"gX c #FF53CC",
"hX c #FD59C9",
"jX c #F24AD4",
"kX c #F865CD",
"lX c #CC5BE1",
"zX c #3A84FF",
"xX c #3887FF",
"cX c #3D90FF",
"vX c #4888FC",
"bX c #558EFA",
"nX c #6E88F9",
"mX c #6496FA",
"MX c #6A96FC",
"NX c #6C99FC",
"BX c #7296F9",
"VX c #729DFD",
"CX c #73A2FD",
"ZX c #72A9FD",
"AX c #76A9FD",
"SX c #9A9FCB",
"DX c #CD90EE",
"FX c #DEA5E9",
"GX c #D7ACEC",
"HX c #DFC3F3",
"JX c #ECD2F4",
"KX c #F5E7F7",
"LX c #FAF6F9",
"PX c #FEFDFD",
/* pixels */
"* * * * * * * * * * * * * * * * * * * * * * * * * * * * * * * * * * * * * * * * * * * * * * * * * * * * * * * * * * * * * * * * * * * * * * * * * * * * * * * * * * * * * * * * * * * * * * * * * * * * * * * * * * * * * * * * * * * * * * * * * * * * * * * * * * * * * * * * * * * * * * * * * * * * * * * * * * * * * * * * * * * * * * * * * * * * * * * * * * * * * * * * * * * * * * * * * * * * * * * * * * * * * * * * * * * * * * * * * * * * * * * * * * * * * * * * * * * * * * * * * * * * * * * * * * * * * * * * ",
"* * * * * * * * * * * * * * * * * * * * * * * * * * * * * * * * * * * * * * * * * * * * * * * * * * * * * * * * * * * * * * * * * * * * * * * * * * * * * * * * * * & * * * * * * * * * * * * * * * * * * * * * * * * * * * * * * * * * * * * * * * * * * * * * * * * * * * * * * * * * * * * * * * * * * * * * * * * * * * * * * * * * * * * * * * * * * * * * * * * * * * * * * * * * * * * * * * * * * * * * * * * * * * * * * * * * * * * * * * * * * * * * * * * * * * * * * * * * * * * * * * * * * * * * * * * * * * * * ",
"* * * * * * * * * * * * * * * * * * * * * * * * * * * * * * * * * * * * * * * * * * * * * * * * * * * * * * * * * * * * * * * * * * * * * * * * * * * * * * * * * * * * * * * * * * * * * * * * * * * * * * * * * * * * * * * * * * * * * * * * * * * * * * * * * * * * * * * * * * * * * * * * * * * * * * * * * * * * * * * * * * * * * * * * * * * * * * * * * * * * * * * * * * * * * * * * * * * * * * * * * * * * * * * * * * * * * * * * * * * * * * * * * * * * * * * * * * * * * * * * * * * * * * * * * * * * * * * * ",
"* * * * * * * * * * * * * * * * * * * * * * * * * * * * * * * * * * * * * * * * * * * * * * * * * * * * * * * * * * * * * * * * * * * * * * * * * * * * * * * * * * * * * * * * * * * * * * * * * * * * * * * * * * * * * * * * * * * * * * * * * * * * * * * * * * * * * * * * * * * * * * * * * * * * * * * * * * * * * * * * * * * * * * * * * * * * * * * * * * * * * * * * * * * * * * * * * * * * * * * * * * * * * * * * * * * * * * * * * * * * * * * * * * * * * * * * * * * * * * * * * * * * * * * * * * * * * * * * ",
"* * * * * * * * * * * * * * * * * * * * * * * * * * * * * * * * * * * * * * * * * * * * * * * * * * * * * * * * * * * * * * * * * * * * * * * * * * * * * * * * * * * * * * * * * * * * * * * * * * * * * * * * * * * * * * * * * * * * * * * * * * * * * * * * * * * * * * * * * * * * * * * * * * * * * * * * * * * * * * * * * * * * * * * * * * * * * * * * * * * * * * * * * * * * * * * * * * * * * * * * * * * * * * * * * * * * * * * * * * * * * * * * * * * * * * * * * * * * * * * * * * * * * * * * * * * * * * * * ",
"* * * * * * * * * * * * * * * * * * * * * * * * * * * * * * * * * * * * * * * * * * * * * * * * * * * * * * * * * * * * * * * * * * * * * * * * * * * * * * * * * * * * * * * * * * * * * * * * * * * * * * * * * * * * * * * * * * * * * * * * * * * * * * * * * * * * * * * * * * * * * * * * * * * * * * * * * * * * * * * * * * * * * * * * * * * * * * * * * * * * * * * * * * * * * * * * * * * * * * * * * * * * * * * * * * * * * * * * * * * * * * * * * * * * * * * * * * * * * * * * * * * * * * * * * * * * * * * * ",
"* * * * * * * * * * * * * * * * * * * * * * * * * * * * * * * * * * * * * * * * * * * * * * * * * * * * * * * * * * * * * * * * * * * * * * * * * * * * * * * * * * * * * * * * * * * * * * * * * * * * * * * * * * * * * * * * * * * * * * * * * * * * * * * * * * * * * * * * * * * * * * * * * * * * * * * * * * * * * * * * * * * * * * * * * * * * * * * * * * * * * * * * * * * * * * * * * * * * * * * * * * * * * * * * * * * * & * * * * * * * * * * * * * * * * * * * * * * * * * * * * * * * * * * * * * * * * * * * ",
"* * * * * * * * * * * * * * * * * * * * * * * * * * * * * * * * * * * * * * * * * * * * * * * * * * * * * * * * * * * * * * * * * * * * * * * * * * * * * * * * * * * * * * * * * * * * * * * * * * * * * * * * * * * * * * * * * * * * * * * * * * * * * * * * * * * * * * * * * * * * * * * * * * * * * * * * * * * * * * * * * * * * * * * * * * * * * * * * * * * * * * * * * * * * * * * * * * * * * * * * * * * * * * * * * * * * & * * * * * * * * * * * * * * * * * * * * * * * * * * * * * * * * * * * * * * * * * * * ",
"* * * * * * * * * * * * * * * * * * * * * * * * * * * * * * * * * * * * * * * * * * * * * * * * * * * * * * * * * * * * * * * * * * * * * * * * * * * * * * * * * * * * * * * * * * * * * * * * * * * * * * * * * * * * * * * * * * * * * * * * * * * * * * * * * * * * * * * * * * * * * * * * * * * * * * * * * * * * * * * * * * * * * * * * * * * * * * * * * * * * * * * * * * * * * * * * * * * * * * * * * * * * * * * * * * * * * * * * * * * * * * * * * * * * * * * * * * * * * * * * * * * * * * * * * * * * * * * * ",
"* * * * * * * * * * * * * * * * * * * * * * * * * * * * * * * * * * * * * * * * * * * * * * * * * * * * * * * * * * * * * * * * * * * * * * * * * * * * * * * * * * * * * * * * * * * * * * * * * * * * * * * * * * * * * * * * * * * * * * * * * * * * * * * * * * * * * * * * * * * * * * * * * * * * * * * * * * * * * * * * * * * * * * * * * * * * * * * * * * * * * * * * * * * * * * * * * * * * * * * * * * * * * * * * * * * * * * * * * * * * * * * * * * * & * * * * * * * * * * * * * * * * * * * * * * * * * * * * ",
"* * * * * * * * * * * * * * * * * * * * * * * * * * * * * * * * * * * * * * * * * * * * * * * * * * * * * * * * * * * * * * * * * * * * * * * * * * * * * * * * * * * * * * * * * * * * * * * * * * * * * * * * * * * * * * * * * * * * * * * * * * * * * * * * * * * * * * * * * * * * * * * * * * * * * * * * * * * * * * * * * * * * * * * * * * * * * * * * * * * * * * * * * * * * * * * * * * * * * * * * * * * * * * * * * * * * * * * * * * * * * * * * * * * * * * * * * * * * * * * * * * * * * * * * * * * * * * * * ",
"* * * * * * * * * * * * * * * * * * * * * * * * * * * * * * * * * * * * * * * * * * * * * * * * * * * * * * * * * * * * * * * * * * * * * * * * * * * * * * * * * * * * * * * * * * * * * * * * * * * * * * * * * * * * * * * * * * * * * * * * * * * * * * * * * * * * * * * * * * * * * * * * * * * * * * * * * * * * * * * * * * * * * * * * * * * * * * * * * * * * * * * * * * * * * * * * * * * * * * * * * * * * * * * * * * * * * * * * * * * * * * * * * * * * * * * * * * * * * * * * * * * * * * * * * * * * * * * * ",
"* * * * * * * * * * * * * * * * * * * * * * * * * * * * * * * * * * * * * * * * * * * * * * * * * * * * * * * * * * * * * * * * * * * * * * * * * * * * * * * * * * * * * * * * * * * * * * * * * * * * * * * * * * * * * * * * * * * * * * * * * * * * * * * * * * * * * * * * * * * * * * * * * * * * * * * * * * * * * * * * * * * * * * * * * * * * * * * * * * * * * * * * * * * * * * * * * * * * * * * * * * * * * * * * * * * * * * * * * * * * * * * * * * * * * * * * * * * * * * * * * * * * * * * * * * * * * * * * ",
"* * * * * * * * * * * * * * * * * * * * * * * * * * * * * * * * * * * * * * * * * * * * * * * * * * * * * * * * * * * * * * * * * * * * * * * * * * * * * * * * * * * * * * * * * * * * * * * * * * * * * * * * * * * * * * * * * * * * * * * * * * * * * * * * * * * * * * * * * * * * * * * * * * * * * * * * * * * * * * * * * * * * * * * * * * * * * * * * * * * * * * * * * * * * * * * * * * * * * * * * * * * * * * * * * * * * * * * * * * * * * * * * * * * * * * * * * * * * * * * * * * * * * * * * * * * * * * * * ",
"* * * * * * * * * * * * * * * * * * * * * * * * * * * * * * * * * * * * * * * * * * * * * * * * * * * * * * * * * * * * * * * * * * * * * * * * * * * * * * * * * * * * * * * * * * * * * * * * * * * * * * * * * * * * * * * * * * * * * * * * * * * * * * * * * * * * * * * * * * * * * * * * * * * * * * * * * * * * * * * * * * * * * * * * * * * * * * * * * * * * * * * * * * * * * * * * * * * * * * * * * * * * * * * * * * * * * * * * * * * * * * * * * * * * * * * * * * * * * * * * * * * * * * * * * * * * * * * * ",
"* * * * * * * * * * * * * * * * * * * * * * * * * * * * * * * * * * * * * * * * * * * * * * * * * * * * * * * * * * * * * * * * * * * * * * * * * * * * * * * * * * * * * * * * * * * * * * * * * * * * * * * * * * * * * * * * * * * * * * * * * * * * * * * * * * * * * * * * * * * * * * * * * * * * * * * * * * * * * * * * * * * * * * * * * * * * * * * * * * * * * * * * * * * * * * * * * * * * * * * * * * * * * * * * * * * * * * * * * * * * * * * * * * * * * * * * * * * * * * * * * * * * * * * * * * * * * * * * ",
"* * * * * * * * * * * * * * * * * * * * * * * * * * * * * * * * * * * * * * * * * * * * * * * * * * * * * * * * * * * * * * * * * * * * * * * * * * * * * * * * * * * * * * * * * * * * * * * * * * * * * * * * * * * * * * * * * * * * * * * * * * * * * * * * * * * * * * * * * * & * * * * * * * * * * * * * * * * * * * * * * * * * * * * * * * * * * * * * * * * * * * * * * * * * * * * * * * * * * * * * * * * * * * * * * * * * * * * * * * * * * * * * * * * * * * * * * * * * * * * * * * * * * * * * * * * * * * * * ",
"* * * * * * * * * * * * * * * * * * * * * * * * * * * * * * * * * * * * * * * * * * * * * * * * * * * * * * * * * * * * * * * * * * * * * * * * * * * * * * * * * * * * * * * * * * * * * * * * * * * * * * * * * * * * * * * * * * * * * * * * * * * * * * * * * * * * * * * * * * * * * * * * * * * * * * * * * * * * * * * * * * * * * * * * * * * * * * * * * * * * * * * * * * * * * * * * * * * * * * * * * * * * * * * * * * * * * * * * * * * * * * * * * * * * * * * * * * * * * * * * * * * * * * * * * * * * * * * * ",
"* * * * * * * * * * * * * * * * * * * * * * * * * * * * * * * * * * * * * * * * * * * * * * * * * * * * * * * * * * * * * * * * * * * * * * * * * * * * * * * * * * * * * * * * * * * * * * * * * * * * * * * * * * * * * * * * * * * * * * * * * * * * * * * * * * * * * * * * * * * * * * * * * * * * * * * * * * * * * * * * * * * * * * * * * * * * * * * * * * * * * * * * * * * * * * * * * * * * * * * * * * * * * * * * * * * * * * * * * * * * * * * * * * * * * * * * * * * * * * * * * * * * * * * * * * * * * * * * ",
"* * * * * * * * * * * * * * * * * * * * * * * * * * * * * * * * * * * * * * * * * * * * * * * * * * * * * * * * * * * * * * * * * * * * * * * * * * * * * * * * * * * * * * * * * * * * * * * * * * * * * * * * * * * * * * * * * * * * * * * * * * * * * * * * * * * * * * * * * * * * * * * * * * * * * * * * * * * * * * * * * * * * * * * * * * * * * * * * * * * * * * * * * * * * * * * * * * * * * * * * * * * * * * * * * * * * * * * * * * * * * * * * * * * * * * * * * * * * * * * * * * * * * * * * * * * * * * * * ",
"* * * * * * * * * * * * * * * * * * * * * * * * * * * * * * * * * * * * * * * * * * * * * * * * * * * * * * * * * * * * * * * * * * * * * * * * * * * * * * * * * * * * * * * * * * * * * * * * * * * * * * * * * * * * * * * * * * * * * * * * * * * * * * * * * * * * * * * * * * * * * * * * * * * * * * * * * * * * * * * * * * * * * * * * * * * * * * * * * * * * * * * * * * * * * * * * * * * * * * * * * * * * * * * * * * * * * * * * * * * * * * * * * * * * * * * * * * * * * * * * * * * * * * * * * * * * * * * * ",
"* * * * * * * * * * * * * * * * * * * * * * * * * * * * * * * * * * * * * * * * * * * * * * * * * * * * * * * * * * * * * * * * * * * * * * * * * * * * * * * * * * * * * * * * * * * * * * * * * * * * * * * * * * * * * * * * * * * * * * * * * * * * * * * * * * * * * * * * * * * * * * * * * * * * * * * * * * * * * * * * * * * * * * * * * * * * * * * * * * * * * * * * * * * * * * * * * * * * * * * * * * * * * * * * * * * * * * * * * * * * * * * * * * * * * * * * * * * * * * * * * * * * * * * * * * * * * * * * ",
"* * * * * * * * * * * * * * * * * * * * * * * * * * * * * * * * * * * * * * * * * * * * * * * * * * * * * * * * * * * * * * * * * * * * * * * * * * * * * * * * * * * * * * * * * * * * * * * * * * * * * * * * * * * * * * * * * * * * * * * * * * * * * * * * * * * * * * * * * * * * * * * * * * * * * * * * * * * * * * * * * * * * * * * * * * * * * * * * * * * * * * * * * & * * * * * * * * * * * * * * * * * * * * * * * * * * * * * * * * * * * * * * * * * * * * * * * * * * * * * * * * * * * * * * * * * * * * * * ",
"* * * * * * * * * * * * * * * * * * * * * * * * * * * * * * * * * * * * * * * * * * * * * * * * * * * * * * * * * * * * * * * * * * * * * * * * * * * * * * * * * * * * * * * * * * * * * * * * * * * * * * * * * * * * * * * * * * * * * * * * * * * * * * * * * * * * * * * * * * * * * * * * * * * * * * * * * * * * * * * * * * * * * * * * * * * * * * * * * * * * * * * * * * * * * * * * & * * * * * * * * * * * * * * * * * * * * * * * * * * * * * * * * * * * * * * * * * * * * * * * * * * * * * * * * * * * * * * * ",
"* * * * * * * * * * * * * * * * * * * * * * * * * * * * * * * * * * * * * * * * * * * * * * * * * * * * * * * * * * * * * * * * * * * * * * * * * * * * * * * * * * * * * * * * * * * * * * * * * * * * * * * * * * * * * * * * * * * * * * * * * * * * * * * * * * * * * * * * * * * * * * * * * * * * * * * * * * * * * * * * * * * * * * * * * * * * * * * * * * * * * * * * * * * * * & * * & * * * * * * * * * * * * * * * * * * * * * * * * * * * * * * * * * * * * * * * * * * * * * * * * * * * * * * * * * * * * * * * ",
"* * * * * * * * * * * * * * * * * * * * * * * * * * * * * * * * * * * * * * * * * * * * * * * * * * * * * * * * * * * * * * * * * * * * * * * * * * * * * * * * * * * * * * * * * * * * * * * * * * * * * * * * * * * * * * * * * * * * * * * * * * * * * * * * * * * * * * * * * * * * * * * * * * * * * * * * * * * * * * * * * * * * * * * * * * * * * * * * * * * * * * * * * * * * * * * * * * * * * * * * * * * * * * * * * * * * * * * * * * * * * * * * * * * * * * * * * * * * * * * * * * * * * * * * * * * * * * * * ",
"* * * * * * * * * * * * * * * * * * * * * * * * * * * * * * * * * * * * * * * * * * * * * * * * * * * * * * * * * * * * * * * * * * * * * * * * * * * * * * * * * * * * * * * * * * * * * * * * * * * * * * * * * * * * * * * * * * * * * * * * * * * * * * * * * * * * * * * * * * * * * * * * * * * * * * * * * * * * * * * * * * * * * * * * * * * * * * * * * * * * * * * * * * * & * * * * & * * * * * * * * * * * * * * * * * * * * * * * * * * * * * * * * * * * * * * * * * * * * * * * * * * * * * * * * * * * * * * * ",
"* * * * * * * * * * * * * * * * * * * * * * * * * * * * * * * * * * * * * * * * * * * * * * * * * * * * * * * * * * * * * * * * * * * * * * * * * * * * * * * * * * * * * * * * * * * * * * * * * * * * * * * * * * * * * * * * * * * * * * * * * * * * * * * * * * * * * * * * * * * * * * * * * * * * & * * * * * * * * * * * * * * * * * * * * * * * * * * * * * * * * * * * * * * * * * * * * * * * * * * * * * * * * * * * * * * * * * * * * * * * * * * * * * * * * * * * * * * * * * * * * * * * * * * * * * * * * * * * ",
"* * * * * * * * * * * * * * * * * * * * * * * * * * * * * * * * * * * * * * * * * * * * * * * * * * * * * * * * * * * * * * * * * * * * * * * * * * * * * * * * * * * * * * * * * * * * * * * * * * * * * * * * * * * * * * * * * * * * * * * * * * * * * * * * * * * * * * * * * * * * * * * * * * * * * * * * * * * * * * * * * * * * * * * * * * * * * * * * * * * * * * * * * * * * * * * * * * * * * * * * * * * * * * * * * * * * * * * * * * * * * * * * * * * * * * * * * * * * * * * * * * * * * * * * * * * * * * * * ",
"* * * * * * * * * * * * * * * * * * * * * * * * * * * * * * * * * * * * * * * * * * * * * * * * * * * * * * * * * * * * * * * * * * * * * * * * * * * * * * * * * * * * * * * * * * * * * * * * * * * * * * * * * * * * * * * * * * * * * * * * * * * * * * * * * * * * * * * * * * * * * * * * * * * & * * * * * * * * * * * * * * * * * * * * * * * * * * * * * * * * * * * * * * * * * * * * * * * * * * * * * * * * * * * * * * * * * * * * * * * * * * * * * * * * * * * * * * * * * * * * * * * * * * * * * * * * * * * * ",
"* * * * * * * * * * * * * * * * * * * * * * * * * * * * * * * * * * * * * * * * * * * * * * * * * * * * * * * * * * * * * * * * * * * * * * * * * * * * * * * * * * * * * * * * * * * * * * * * * * * * * * * * * * * * * * * * * * * * * * * * * * * * * * * * * * * * * * * * * * * * * * * * * * * * * * * * * * * * * * * * * * * * * * * * * * * * * * * * * * * * * * * * * * * * * * * * * * * * * * * * * * * * * * * * * * * * * * * * * * * * * * * * * * * * * * * * * * * * * * * * * * * * * * * * * * * * * * * * ",
"* * * * * * * * * * * * * * * * * * * * * * * * * * * * * * * * * * * * * * * * * * * * * * * * * * * * * * * * * * * * * * * * * * * * * * * * * * * * * * * * * * * * * * * * * * * * * * * * * * * * * * * * * * * * * * * * * * * * * * * * * * * * * * * * * * * * * * * * * * * * * * * * * * * * * * * * * * * * * * * * * * * * * * * * * * * * * * * * * * * * * * * * * * * * * * * * * * * * * * * * * * * * * * * * * * * * * * * * * * * * * * * * * * * * * * * * * * * * * * * * * * * * * * * * * * * * * * * * ",
"* * * * * * * * * * * * * * * * * * * * * * * * * * * * * * * * * * * * * * * * * * * * * * * * * * * * * * * * * * * * * * * * * * * * * * * * * * * * * * * * * * * * * * * * * * * * * * * * * * * * * * * * * * * * * * * * * * * * * * * * * * * * * * * * * * * * * * * * * * * * * * * * * * * * * * * * * * * * * * * * * * * * * * * * * * * * * * * * * * * * * * * * * * * * * * * * * * * * * * * * * * * * * * * * * * * * * * * * * * * * * * * * * * * * * * * * * * * * * * * * * * * * * * * * * * * * * * * * ",
"* * * * * * * * * * * * * * * * * * * * * * * * * * * * * * * * * * * * * * * * * * * * * * * * * * * * * * * * * * * * * * * * * * * * * * * * * * * * * * * * * * * * * * * * * * * * * * * * * * * * * * * * * * * * * * * * * * * * * * * * * * * * * * * * * * * * * * * * * * * * * * * * * * * * * * * * * * * * * * * * * * * * * * * * * * * * * * * * * * * * * * * * * * * * * * * * * * * * * * * * * * * * * * * * * * * * * * * * * * * * * * * * * * * * * * * * * * * * * * * * * * * * * * * * * * * * * * * * ",
"* * * * * * * * * * * * * * * * * * * * * * * * * * * * * * * * * * * * * * * * * * * * * * * * * * * * * * * * * * * * * * * * * * * * * * * * * * * * * * * * * * * * * * * * * * * * * * * * * * * * * * * * * * * * * * * * * * * * * * * * * * * * * * * * * * * * * * & * * * * * * * * * * * * * * * * * * * * * * * * * * * * * * * * * * * * * * * * * * * * * * * * * * * * * * * * * * * * * * * * * * * * * * * * * * * * * * * * * * * * * * * * * * * * * * * * * * * * * * * * * * * * * * * * * * * * * * * * * ",
"* * * * * * * * * * * * * * * * * * * * * * * * * * * * * * * * * * * * * * * * * * * * * * * * * * * * * * * * * * * * * * * * * * * * * * * * * * * * * * * * * * * * * * * * * * * * * * * * * * * * * * * * * * * * * * * * * * * * * * * * * * * * * * * * * * * * * * & * * * * * * * * * * * * * * * * * * * * * * * * * * * * * * * * * * * * * * * * * * * * * * * * * * * * * * * * * * * * * * * * * * * * * * * * * * * * * * * * * * * * * * * * * * * * * * * * * * * * * * * * * * * * * * * * * * * * * * * * * ",
"* * * * * * * * * * * * * * * * * * * * * * * * * * * * * * * * * * * * * * * * * * * * * * * * * * * * * * * * * * * * * * * * * * * * * * * * * * * * * * * * * * * * * * * * * * * * * * * * * * * * * * * * * * * * * * * * * * * * * * * * * * * * * * * * * * * * * * * * * * * * * * * * * * * * * * * * * * * * * * * * * * * * * * * * * * * & * * * * * * * * * * * * * * * * * * * * * * * * * * * * * * * * * * * * * * * * * * * * * * * * * * * * * * * * * * * * * * * * * * * * * * * * * * * * * * * * * * * * ",
"* * * * * * * * * * * * * * * * * * * * * * * * * * * * * * * * * * * * * * * * * * * * * * * * * * * * * * * * * * * * * * * * * * * * * * * * * * * * * * * * * * * * * * * * * * * * * * * * * * * * * * * * * * * * * * * * * * * * * * * * * * * * * * * * * * * * * * * * * * * * * * * * * * * * * * * * * * * * * * * * * * * * * * * * * * * * * * * * * * * * * * * * * * * * * * * * * * * * * * * * * * * * * * * * * * * * * * * * * * * * * * * * * * * * * * * * * * * * * * * * * * * * * * * * * * * * * * * * ",
"* * * * * * * * * * & * * * * * * * * * * * * * * * * * * * * * * * * * * * * * * * * * * * * * * * * * * * * * * * * * * * * * * * * * * * * * * * * * * * * * * * * * * * * * * * * * * * * * * * * * * * * * * * * * * * * * * * * * * * * * * * * * * * * * * * * * * * * * * * * * * * * * * * * * * * * * * * * * * * * * * * * * * * * * * * * * * * * * * * * * * * * * * * * * * * * * * * * * * * * * * * * * * * * * * * * * * * * * * * * * * * * * * * * * * * * * * * * * * * * * * * * * * * * * * * * * * * * * ",
"* * * * * * * * * * * * * * * * * * * * * * * * * * * * * * * * * * * * * * * * * * * * * * * * * * * * * * * * * * * * * * * * * * * * * * * * * * * * * * * * * * * * * * * * * * * * * * * * * * * * * * * * * * * * * * * * * * * * * * * * * * * * * * * * * * * * * * * * * * * * * * * * * * * * * * * * * * * * * * * * * * * * * * * * * * * * * * * * * * * * * * * * * & * & * * * * * * * * * * * * * * * * * * * * * * * * * * * * * * * * * * * * * * * * * * * * * * * * * * * * * * * * * * * * * * * * * * * * ",
"* * * * * * * * * * * * * * * * * * * * * * * * * * * * * * * * * * * * * * * * * * * * * * * * * * * * * * * * * * * * * * * * * * * * * * * * * * * * * * * * * * * * * * * * * * * * * * * * * * * & * * * * * * * * * * * * * * * * * * * * * * * * & & * * * * * * * * * * * * * * * * * * * * * * * * * * * * * * * * * * * * * * * * * * * * * * * * * * * * * * * * * * * * * & * * * * * * * * * * * * * * * * * * * * * * * * * * * * * * * * * * * * * * * * * * * * * * * * * * * * * * * * * * * * * * * * * * * * ",
"* * * * * * * * * * * * * * * * * * * * * * * * * * * * * * * * * * * * * * * * * * * * * * * * & * * * * * * * * * * * * * * * * * * * * * * * * * * * * * * * * * * * * * * * * * * * * * * & * * * * * * * * * * * * * * * * * * * * * * * * * * * * * * * * * * * * * * * * * * * * * * * * * * * * * * * * * * * * * * * * * * * * * * * * * * * * * * * * * * * * * * * * * * * * * * * * * * * * * * * * * * * * * * * * * * * * * * * * * * * * * * * * * * * * * * * * * * * * * * * * * * * * * * * * * * * * * * * * ",
"* * * * * * * * * * * * * * * * * * * * * * * * * * * * * * * * * * * * * * * * * * * * * * * * * * * * * * * * * * * * * * * * * * * * * * * * * * * * * * * * * * * * * * * * * * * * * * & & * * * * * * & * * * * * * * * * * * * * * * * * * * * * * * * * * * * * * * * * * * * * * * * * * * * * * * * * * * * * * * * * * * * * * * * * * * * * * * * * * * * * * * * * * * * * * * * * * * * * * * * * * * * * * * * * * * * * * * * * * * * * * * * * * * * * * * * * * * * * * * * * * * * * * * * * * * * * * * * * ",
"* * * * * * * * * * * * * * * * * * * * * * * * * * * * * * * * * * * * * * * * * * * * * * * * * * * * * * * * * * * * * * * * * * * * * * * * * * * * * * * * * * * * * * * * * * * * * * * * & * * * * * * * * * * * * * * * * * * * * * * * * * * * * * * * * * * * * * * * * * * * * * * * * * * * * * * * * * * * * * * * * * * * * * * * * * * * * * * * * * * * * * * * * * * * * * * * * * * * * * & * * * * * * * * * * * * * * * * * * * * * * * * * * * * * * * * * * * * * * * * * * * * * * * * * * * * * * * * * ",
"* * * * * * * * * * * * * * * * * * * * * * * * * * * * % * & * * * * * * * * * * * * * * * * * * * * * * * * * * * * * * * * * * * * * * * * * * * * * * * * * * * * * * * * * * * * * * * * * * * * & * * * * * * * * * * * * * * * * * * * * * * * * * * * * * * * * * * * * * * * * * * * * * * * * * * * * * * * * * * * * * * * * * * * * * * * * * * * * * & * * * * * * & & & * * * * * * * * * * * & * * & * * * * * * * * * * * * * * * * * * * * * & * * * * * * * * * * * * * * * * * * * * * * * * * * * * * * * * ",
"* * * * * * * * * * * * * * * * * * * * * * * * * * * * * * * * * * * * * * * * * * * * * * * * * * * * * * * * * * * * * * * * * * * * * * * * * * * * * * * * * * * * * * * * * * * * * * * * * * * * * * & * * * * * * * * * * * * * * * * * * * * * * * * * * * * * * * * * * * * * * * * * * * * * * * * * * * * * * * * * * * * * * * * * * * * * * * * * * * * * * * * * * * * * * * * * * * * * * * * * * * * * * * * * * * * * * * * * * * * * * * * * * * * * * * * * * * * * * * * * * * * * * * * * * * * * * * * * ",
"* * * * * * * * * * * * * * * * * * * * * * * * * * * * & # # # # # # # # # # # # # # # # # # # # # # # # # # # # # # # # # # # # # # # # # # # * # # # * # # # # # # * * # # # * * * * * * * * * * * * * * * * * * * * * * * * * * * * * * * * * * * * * * * * * * * * * * * * * * * * * * * * * * * * * * * * * * * * * * * * * * * * * * * * & % % % % & & & & & & & % % % % % % & % # # % % % % % % & % % % % & & % & & & % & & & & & & % & & & & & $ $ & & % $ $ * * * * * * * * * * * * * * * * * * * * * * * * * * * * * ",
"* * * * * * * * * * * * * * * * * * * * * * * * * * * * % * # @ * o o o # # # # # # # # # # # # # # # # # # # # # # # # # # # # # # # # # # # # # # # # # # # # # # # # # # # % # * * & * * * * * * * * * * * * * * * * * * * * * * * * * * * * * * * * * * * * * * * * * * * * * * * * * * * * * * * * * * * * * * * * * * * * * * * * * * & $ @ X @ @ @ @ @ @ @ @ @ X @ @ @ @ @ @ @ @ @ @ @ @ @ @ @ @ @ @ X X X X @ @ @ @ @ @ @ @ @ @ @ @ @ @ @ @ @ @ @ X @ @ @ $ - & * * * * * * * * * * * * * * * * * * * * * * * * * * * * ",
"* * * * * * * * * * * * * * * * * * * * * * * * * * * * o 4 p.i.8.7.7.7.9.8.8.7.7.7.7.7.7.8.8.8.7.7.7.7.7.8.8.8.7.7.7.7.7.7.8.8.8.8.7.7.7.7.8.8.7.7.7.7.8.7.7.7.7.7.7.7.7.7.9.y.L . & * * * & & * * * * * * * * * * * * * * * * * * * * * * * * * * * * * * * * * * * * * * * * * * * * * * * * * * * * * * * * * * * * * * * * * * * * * *   e kX^.^./././././././././././././././././././././././././././././././././././.^.^.^./.^.^.^.^.^.^.^.^.^.^.^.^.^.kXkXkXr X * * * * * * * * * * * * * * * * * * * * * * * * * * * * ",
"* * * * * * * * * * * * * * * * * * * * * * * * * * * * * # Z i.d.y.r.r.r.r.r.r.r.r.r.r.r.r.r.r.r.r.r.r.r.r.r.r.r.r.r.r.r.r.r.r.r.r.r.r.r.r.r.r.r.r.r.r.r.r.r.r.r.r.r.r.r.r.t.r.zX6   * * * * * * * * * * * * * * * * * * * * * * * * * * * * * * * * * * * * * * * * * * * * * * * * * * * * * * * * * & * * * * * * * * * * * * * * * * $ $ ,X9XkXgXdXaXdXdXgXfXgXdXfXgXgXgXgXgXgXgXgXgXgXgXgXgXgXgXgXgXgXgXgXgXgXgXgXgXgXgXhXhXgXgXgXgXgXgXgXgXhXhXhXhXkXhXfXQ.W., $ * * * * * * * * * * * * * * * * * * * * * * * * * * * * ",
"* * * * * * * * * * * & & * * * * * * * * * * * * * * * * o 4 Q ^ zXvXa.y.w.` w.e.e.e.e.e.e.e.e.e.e.e.e.e.e.e.e.e.e.e.e.e.e.q.e.t.r.e.e.e.e.e.e.e.e.e.e.t.t.e.e.e.e.e.q.q.q.e.q.xX6.  * * * * * * * * * * * * * * * * * * * * * * * * * * * * * * * * * * * * * * * * * * * * * * * * * * * * * * * * * * * * * * * * * * * * * * * * * :   S 9X,XjX(.~.aXaXaXaX~.~.~.aXaXaXaXaXaXaXaXaXaXaXaXaXaXaXaXaXaXaXaXaXaXaXaXaXaXaXaXaXaXaXfXfXfXfXfXfXfXfXfXhXhXfXQ.V.S.w X - * * * * * * * * * * * * * * * * * * * * * * * * * * * * ",
"* * * * * * * * * * * * * * * * * * * * * * * * * * * * * * . k ( ! p.vXd.a.y.q.w.w.e.t.r.e.t.t.e.e.e.e.e.e.r.r.r.r.e.e.t.t.t.t.t.t.t.w.e.r.r.r.r.t.t.t.t.t.t.t.t.t.t.q.r.t.w.y.a.zX6 . * * * * * * * * * * * * * * * * * * * * * * * * * * * * * * * * * * * * * * * * * * * * * * * * * * * * * * * * * * * * * * * * * * * * * * * * X , 4X1X<X<XaX~.aXaX(.aXaXaXaXaXaXaXaXaXaXaXaXaXaXaXaXaXaXaXaXaXaXaXaXaXaXaXaXaXaXfXfXfXfXfXfXfXfXfXfXfXfXfXhXfXQ.G.A.S.F.X & * * * * * * * * * * * * * * * * * * * * * * * * * * * * * ",
"* * * * * * * * * * * * * * * * * * * * * * * * * * * * * * o & ) ( Q 9.d.d.d.d.i.q.w.` e.r.e.t.r.e.e.e.r.e.e.e.e.e.e.e.t.t.r.r.r.t.t.r.e.w.r.r.r.t.t.t.t.r.r.r.r.t.t.t.t.t.w.i.p.zXu.  # * * * * * * * * * * * * * * * * * * * * * * * * * * * * * * * * * * * * * * * * * * * * * * * * * * * * * * * * * * * * * * * * * * * * * * *   S 9X<X<X,X7X(.aXfXfXaXaXaXaXaXaXaXaXaXaXaXaXaXaXaXaXaXaXaXaXaXaXaXaXaXaXaXaXaXaXfXfXfXfXfXfXfXfXfXfXfXhXfXQ.H.A.H.H.W.q   > * * * * * * * * * * * * * * * * * * * * * * * * * * * * * ",
"* * * * * * * * * * * * * * * * * * * * * * * * * * * * * * * . i ` ! U ^ s.d.s.d.d.a.y.e.` w.r.t.e.e.e.e.e.e.e.e.e.t.e.e.e.t.r.t.r.r.t.e.e.r.t.t.t.t.e.e.t.t.t.r.t.t.q.t.e.t.s.a.s.cX6   * * * * * * * * * * * * * * * * * * * * * * * * * * * * * * * * * * * * * * * * * * * * * * * * * * * * * * * * * * * * * * * * * * * * * :   5 9X<X1X<X1X3XjX(.aXaXaXaXaXaXaXaXaXaXfXfXfXfXfXfXaXaXaXaXaXaXaXaXaXaXaXaXaXaXaXaXaXfXfXfXfXfXfXfXfXhXfXQ.H.A.H.H.G.R.D.@ * * * * * * * * * * * * * * * * * * * * * * * * * * * * * * * ",
"* * * * * * * * * * * * * * * * * * * * * * * * * * * * * * * # * ! ~ ! Q ! i.zXa.s.d.d.s.i.t.w.w.e.e.e.e.e.e.e.e.e.e.e.e.e.t.t.t.r.r.e.e.r.r.t.t.t.t.e.e.t.r.r.r.t.r.r.t.w.i.d.a.s.d.u.X # & * * * * * * * * * * * * * * * * * * * * * * * * * * * * * * * * * * * * * * * * * * * * * * * * * * * * * * * * * * * * * * * * * * * *   XX8X<X1X1X2X1X1XfX~.aXaXaXaXaXaXaXfXaXfXfXfXfXfXfXaXaXaXaXaXaXaXaXaXaXaXaXaXaXfXfXaXfXfXfXfXfXfXhXfXQ.J.A.S.J.J.J.G.E.2 $ - * * * * * * * * * * * * * * * * * * * * * * * * * * * * * * ",
"* * * * * * * * * * * * * * * * * * * * * * * * * * * * * * * * . 4 ) ! ~ ~ Q 9.zXd.s.a.s.d.d.i.y.e.` w.e.r.e.e.e.e.e.e.e.e.e.e.e.r.t.e.e.r.r.t.t.r.r.e.e.t.r.r.r.t.r.t.r.t.a.d.s.d.a.cX0   * * * * * * * * * * * * * * * * * * * * * * * * * * * * * * * * * * * * * * * * * * * * * * * * * * * * * * * * * * * * * * * * * * * -   5 9X1X1X1X1X1X2X,X7X(.aXaXaXfXfXfXfXfXfXfXfXfXfXfXfXfXfXfXfXaXfXfXaXfXfXaXaXfXfXaXaXaXfXfXfXfXhXhX~.E.A.G.J.G.H.J.G.W.r X - * * * * * * * * * * * * * * * * * * * * * * * * * * * * * * * ",
"* * * * * * * * * * * * * * * * * * * * * * * * * * * * * * * * # . Z ( ~ ~ ~ Q ^ d.zXs.s.a.a.d.d.a.y.q.` w.r.e.e.e.e.e.e.e.r.e.e.t.q.e.e.r.r.t.t.r.e.e.e.t.r.t.r.t.r.t.w.y.d.a.s.d.s.d.u.X # * * * * * * * * * * * * * * * * * * * * * * * * * * * * * * * * * * * * * * * * * * * * * * * * * * * * * * * * * * * * * * * * * * % X oX3X1X1X1X1X1X1X1X,XjX(.aXfXfXfXfXfXfXfXfXfXfXfXfXfXfXfXfXfXaXaXaXaXaXfXaXaXfXfXaXfXaXaXfXfXhX~.J.A.A.J.J.J.G.H.H.J.J.- $ * * * * * * * * * * * * * * * * * * * * * * * * * * * * * * * * ",
"* * * * * * * * * * * * * * * * * * * * * * * * * * * * * * * * : . 4 ) ! ! ! ! Q ! i.zXp.a.s.a.a.s.d.d.i.9.w.` w.e.e.e.e.e.e.r.t.e.e.e.e.e.e.t.t.r.r.e.t.r.r.t.t.t.t.t.w.i.d.a.s.a.s.p.zX0   * * * * * * * * * * * * * * * * * * * * * * * * * * * * * * * * * * * * * * * * * * * * * * * * * * * * * * * * * * * * * * * * * -   e 9X<X1X1X1X1X1X1X1X,X1XhXfXfXfXfXfXfXfXfXfXfXfXfXfXfXfXfXfXfXfXfXfXfXfXfXfXfXfXfXfXaXfXfXhX~.E.A.A.H.H.G.G.H.H.H.G.W.w   * * * * * * * * * * * * * * * * * * * * * * * * * * * * * * * * * ",
"* * * * * * * * * * * * * * * * * * * * * * * * * * * * * * * * * * . Z _ ! ! ! ~ Q W 9.zXd.a.s.a.a.a.a.d.d.i.y.e.` w.e.e.e.e.r.t.e.e.e.e.e.e.q.t.r.r.t.r.r.t.t.t.q.t.r.t.d.d.s.s.s.s.s.s.f.# # * * * & * * * * * & * * * * * * * * * * * * * * * * * * * * * * * * * * * * * * * * * * * * * * * * * * * * * * * * * * * * * * $ & ,X3X<X1X1X1X1X1X1X1X1X,X7XfXfXfXfXfXfXfXfXfXfXfXfXfXfXfXfXfXfXfXfXfXfXaXfXfXfXfXfXaXfXhX~.E.Z.A.H.H.G.H.G.H.H.H.G.R.F.@ $ * * * * * * * * * * * * * * * * * * * * * * * * * * * * * * * * * ",
"* * * * * * * * * * * * * * * * * * * * * * * * * * * * * * * * * * o 1 ) ~ ! ! ! ! ! U ^ f.d.a.s.a.a.a.a.s.d.d.s.i.q.` w.e.e.r.q.e.e.r.t.e.e.q.t.t.t.q.r.t.r.r.t.t.t.w.y.d.s.d.s.s.s.s.p.zXK   : * * * * * * * * & * * * * * * * * * * * * * * * * * * * * * * * * * * * * * * * * * * * * * * * * * * * * * * * * * * * * * -   A 9X<X1X1X1X1X1X1X1X1X1X1X,XjXfXfXfXfXfXfXfXfXfXfXfXfXfXfXfXfXfXfXfXfXfXaXfXfXfXfXfXhXfXQ.S.A.G.G.G.H.H.H.H.H.J.J.H.W.q @ - # * * & * * * * * * * * * * * * * * * * * * * * * * * * * * * * * ",
"* * * * * * * * * * * * * * * * * * * * * * * * * * * * * * * * * * * . i _ ! ! ! ! ! ~ Q ! i.zXs.s.a.a.s.s.s.a.s.d.d.i.y.e.` e.t.r.r.r.t.e.e.q.r.t.t.r.t.q.e.q.t.r.t.w.i.d.s.s.s.s.s.s.a.s.zX: o * * & * * * * * * * * * * * * * * * * * * * * * * * * * * * * * * * * * * * * * * * * * * * * * * * * * * * * * * * * * * * X > 2X3X1X1X1X1X1X1X1X1X1X1X1X1X2XhXfXfXfXfXfXfXfXfXfXfXfXfXfXfXfXfXfXfXfXfXfXfXfXfXhXfXQ.Z.A.G.J.G.G.H.H.H.H.H.H.J.G.R.D.X * * * * * * * * * * * * * * * * * * * * * * * * * * * * * * * * * * * ",
"* * * * * * * * * * * * * * * * * * * * * * * * * * * * * * * * * * * % # W ~ ! ! ! ! ! ! ! Q 0.zXd.a.s.s.s.s.s.s.a.a.d.d.a.i.q.w.w.e.t.t.q.t.t.e.r.t.r.e.e.q.q.t.r.e.q.d.s.s.d.s.s.a.a.s.a.zXL   * * * * * * * * * * * * & * * * * * * * * * * * * * * * * * * * * * * * * * * * * * * * * * * * * * * * * * * * * * * * * *   S 9X<X1X1X1X1X1X1X1X1X1X1X1X2X,X7XfXaXfXfXfXfXfXfXfXfXfXfXfXfXfXfXfXfXfXfXaXfXhXhXQ.H.Z.G.H.G.G.H.H.G.H.H.H.J.J.J.H.E.2 @ - & & * * * * * * * * * * * * * * * * * * * * * * * * * * * * * * * * ",
"* * * * * * * * * * * * * * * * * * * * * * * * * * * * * * * * * * * * . 7 ) ! ! ~ ~ ! ! ! ~ U 8.d.d.p.s.s.s.s.s.s.s.a.a.a.d.d.i.y.q.w.e.q.t.t.e.r.r.t.t.t.t.t.t.t.w.y.d.a.s.s.s.s.s.a.a.s.a.zX1 o * * * * * * * * * * * & * * * * * * & * * * * * * * * * * * * * * * * * * * * * * * * * * * * * * * * * * * * * * * * * X < 9X1X1X1X1X1X1X1X1X1X1X1X1X1X1X1X,XjXfXfXfXfXfXfXfXfXfXfXfXfXfXfXfXfXfXfXfXhXfX~.H.A.A.H.H.H.H.J.G.H.H.J.H.H.J.H.H.W.r   - * * & * * * * * * * * * * * * * * * * * * * * * * * * * * * * * * * * ",
"* * * * * * * * * * * * * * * * * * * * * * * * * * * * * * * * * * * * # o W ( ! ~ ~ ~ ~ ! ! ! Q ~ i.zXa.s.s.s.s.s.a.s.s.a.a.a.d.d.s.y.q.w.w.e.t.q.t.r.t.t.q.t.r.t.e.a.d.a.a.a.a.s.a.a.a.s.p.zXP   * * * * * * * * * * * * * * * * * * * * * * * * * * * * * * * * * * * * * * * * * * * * * * * * * * * * * * * * * * * *   n.9X<X1X1X1X1X1X1X1X1X1X1X1X1X1X1X,X2XhXfXfXfXfXfXfXfXfXfXfXfXfXfXfXfXfXhXhX~.J.A.A.H.H.H.H.H.H.J.J.J.H.J.J.J.J.H.R.E.= @ * & * * * * * * * * * * * * * * * * * * * * * * * * * * * * * * * * * * ",
"* * * * * * * * * * * * * * * * * * * * * * * * * * * * * * * * * * * & * . 4 _ ~ ~ ! ! ! ! ~ ! ~ Q W 0.zXd.s.s.s.s.a.a.s.a.a.a.a.a.d.d.d.i.y.w.w.e.t.t.t.t.r.r.t.e.t.d.s.s.s.s.s.s.s.s.a.s.s.a.zX4 . * * * * * * * * * * * * * * * * * * * * * * * * * * * * * * * * * * * * * * * * * * * * * * * * * * * * * * * * * *   5 9X<X1X1X1X1X1X1X1X1X1X1X1X1X1X1X1X<X,X7XfXaXfXfXfXfXfXfXfXfXfXfXfXfXhXhX~.E.A.A.H.H.H.H.H.H.H.J.J.H.J.J.H.J.H.H.G.W.w   - * & * * * * * * * * * * * * * * * * * * * * * * * * * * * * * * * * * * ",
"* * * * * * * * * * * * * * * * * * * * * * * * * * * * * * * * * * * & * * . Z _ ! ! ! ~ ~ ~ ~ ~ ! ! U 8.d.d.a.s.a.a.a.s.s.s.a.a.a.a.a.s.d.d.a.y.t.w.w.e.r.t.e.t.w.y.d.a.s.s.s.s.s.d.s.s.s.s.p.zX6.  * & * * * * * * * * * * * * * * * * * * * * * * * * * * * * * * * * * * * * * * * * * * * * * * * * * * * * * * * & X XX8X<X1X1X1X1X1X1X1X1X1X1X1X1X1X1X1X<X1X,XjXfXaXaXfXfXfXfXfXfXfXfXhXhX~.E.Z.A.H.H.H.G.A.H.H.H.J.H.J.H.H.H.J.J.H.G.R.F.$ & * * * * * * * * * * * * * * * * * * * * * * * * * * * * * * * * * * * * * ",
"* * * * * * * * * * * * * * * * * * * * * * * * * * * * * * * * * * * * * * o 1 ( ~ ! ! ! ! ~ ~ ~ ~ ! ! Q ! a.zXa.a.a.a.s.s.a.a.a.a.a.s.a.a.a.d.d.s.i.y.w.w.e.t.t.e.a.d.a.s.s.s.s.s.s.s.s.a.s.s.p.cX6 . * * * * * * * * * * * * * * * * * * * * * * * * * * * * * * * * * * * * * * * * * * * * * * * * * * * * * * * >   5 9X<X1X1X1X1X1X1X1X1X1X1X1X1X1X1X1X1X1X1X1X7XfXaXaXfXfXfXfXfXfXfXhX~.E.A.A.G.H.H.H.H.H.H.H.H.H.J.J.H.H.H.H.J.J.J.G.W.q X - * * * * * * * * * * * * * * * * * * * * * * * * * * * * * * * * * * * * * ",
"* * * * * * * * * * * * * * * * * * * * * * * * * * * * * * * * * * * * * * * . i _ ! ! ~ ~ ~ ~ ~ ~ ~ ~ ~ Q Q 0.zXs.a.a.s.a.s.a.a.a.a.a.a.a.a.a.a.s.d.d.p.y.t.w.w.9.d.s.a.s.s.s.s.s.s.s.s.a.a.s.p.d.6.. # * * * * * * * * * * * * * * * * * * * * * * * * * * * * * * * * * * * * * * * * * * * * * * * * * * * * * * & X oX8X1X1X1X1X1X1X1X1X1X1X1X1X1X1X1X1X1X1X1X2X,X7XfXaXfXfXfXfXfXhX(.Q.A.A.H.J.H.H.G.H.H.H.H.H.H.H.J.J.H.H.H.H.J.J.G.R.D.X * * * * * * * * * * * * * * * * * * * * * * * * * * * * * * * * * * * * * * * ",
"* * * * * * * * * * * * * * * * * * * * * * * * * * * * * * * * * * * * * * * # & ~ ( ! ~ ~ ~ ~ ! ! ! ! ! ~ ! U 9.d.s.p.s.s.s.a.a.a.a.a.a.a.a.a.s.s.s.a.s.d.s.i.q.y.d.s.s.s.s.s.s.s.s.s.s.a.s.s.s.p.zX9   * * * * * * * * * * * * * * * * * * * * * * * * * * * * * * * * * * * * * * * * * * * * * * * * * * * * * >   e 9X<X1X1X1X1X1X1X1X1X1X1X1X1X1X1X1X1X1X1X1X1X<X,XgXfXfXfXfXhX~.Q.Z.A.S.H.H.H.H.H.H.H.H.H.H.H.H.H.J.H.H.H.H.H.J.J.H.W.2 @ - * * * * * * * * * * * * * * * * * * * * * * * * * * * * * * * * * * * * * * ",
"* * * * * * * * * * * * * * * * * * * * * * * * * * * * * * * * * * * * * * * * . 7 _ ! ! ! ~ ~ ! ! ! ! ! ~ ! ~ U ^ s.d.p.a.s.s.s.a.p.a.a.a.a.a.s.s.s.a.a.p.s.d.d.bXa.a.s.s.s.s.s.s.s.s.s.s.s.s.s.s.d.u.X # * * * * * * * * * * * * * * * * * * * * * * * * * * * * * * * * * * * * * * * * * * * * * * * * * * * * $ $ ,X3X1X1X1X1X1X1X1X1X1X1X1X1X1X1X1X1X1X1X1X1X1X1X,X7XhXfXhXfXQ.A.A.S.H.H.H.J.J.J.H.H.H.H.H.H.H.H.H.H.H.H.H.J.J.J.G.W.y X - * * * * * * * * * * * * * * * * * * * * * * * * * * * * * * * * * * * * * * * ",
"* * * * * * * * * * * * * * * * * * * * * * * * * * * * * * * * * * * * * * * & % o W ( ! ! ! ! ! ! ! ! ! ! ! ! ! Q Q i.zXa.a.s.s.a.a.a.a.a.a.a.a.a.a.a.s.s.s.p.f.AXbXp.d.d.d.d.s.s.s.s.s.s.s.s.s.d.a.cX0   * * * * * * * * * * * * * * * * * * * * * * * * * * * * * * * * * * * * * * * * * * * * * * * * * * * -   A 9X,X1X1X1X1X1X1X1X1X1X1X1X1X1X1X1X1X1X1X1X1X1X1X1X,XjX(.Q.S.A.A.H.H.S.H.H.H.H.J.H.H.H.H.H.H.H.H.H.H.H.H.H.H.H.H.H.E., $ * & & * * * * * * * * * * * * * * * * * * * * * * * * * * * * * * * * * * * * * ",
"* * * * * * * & & * * * * * * * * * * * * * * * * * * * * * * * * * * * * * * * & . 4 ) ! ! ! ! ~ ~ ! ! ! ! ! ! ! ~ Q U 9.zXs.p.a.s.s.a.a.a.s.s.a.a.a.a.s.s.s.i.mXCXCXbXi.s.d.s.d.d.d.d.d.d.s.s.a.a.s.d.f.@ # * * * * * * * * * * * * * * * * * * * * * * * * * * * * * * * * * * * * * * * * * * * * * * * * * * X , 4X3X1X1X1X1X1X1X1X1X1X1X1X1X1X1X2X2X1X1X1X1X1X1X1X<X*XlXZ.V.A.H.H.G.H.H.H.H.H.H.J.J.J.J.J.H.H.H.H.H.J.H.H.H.S.H.H.W.w X > & & * * * * * * * * * * * * * * * * * * * * * * * * * * * * * * * * * * * * * * ",
"* * * * * * * * * * * * * * * * * & * * * * * * * * * * * * * * * * * * * * * * * * . Z ) ! ! ! ! ! ! ! ! ! ! ! ! ! ! ~ U ^ a.d.p.s.s.a.a.a.s.s.a.a.a.a.a.a.p.a.BXNXNXCXvXi.d.s.d.s.s.s.d.d.s.s.s.s.d.p.xX0   * * * * * * * * * * * * * * * * * * * * * * * * * * * * * * * * * * * * * * * * * * * * * * * * * *   S 9X<X1X1X1X1X1X1X1X1X1X1X1X1X1X1X1X1X1X1X1X1X1X2X3X'.HX0XV.H.S.A.A.H.H.H.H.H.H.H.J.J.J.J.J.H.H.H.H.H.J.H.H.H.H.H.H.F.@ & * * * * * * * * * * * * * * * * * * * * * * * * * * * * * * * * * * * * * * * * * ",
"* * * & & * * * * * * * * * * * * * * * * * * * * * * * * * * * * * * * * * * * * * o 1 ) ~ ! ! ! ! ! ! ! ! ! ! ! ! ! ! ~ Q ! i.zXa.a.a.s.s.s.a.s.s.s.a.a.a.i.vXVXNXNXVXCXf.a.d.s.d.d.s.d.d.s.s.s.s.d.a.d.zX; # * * * * * * * * * * * * * * * * * * * * * * * * * * * * * * * * * * * * * * * * * * * * * * * * X < 4X<X1X1X1X1X1X1X1X1X1X1X1X1X1X1X1X1X1X1X1X1X1X2X*X.XKXLXJ T.G.A.S.A.H.H.H.H.H.H.H.H.H.H.H.J.H.H.H.H.H.J.H.H.H.H.H.W.q X - * * * * * * * * * * * * * * * * * * * * * * * * * * * * * * * * * * * * * * * * * ",
"* * * * * * * * * * * * * * * * * * * * * * * * * * * * * * * * * * * * * * * * * * * . i _ ! ! ! ! ! ! ~ ! ! ! ! ! ! ! ! ~ ! W 0.zXd.p.s.s.s.a.s.s.s.a.a.p.p.NXNXNXNXNXNXNXf.p.d.s.s.d.s.d.d.d.s.s.d.d.p.cXK   * * * & * * * * * * * * * * * * * * * * * * * * * * * * * * * * * * * * * * * * * * * * * * * *   n.8X1X1X1X1X1X1X1X1X1X1X1X1X1X1X1X1X1X1X1X1X1X2X*X,XKXPXoX`.U.A.A.S.A.H.H.H.H.H.H.H.H.H.H.H.H.H.H.H.H.H.H.H.H.H.G.W.D.X * * * * * * * * * * * * * * * * * * * * * * * * * * * * * * * * * * * * * * * * * * * ",
"* * * * * * * * * * * * * * * * * * * * * * * * * * * * * * * * * * * * * * * * * * * # & ! ~ ! ! ! ! ! ~ ~ ! ! ! ! ! ! ! ! ! ~ U 8.d.d.p.a.s.s.a.a.a.a.s.i.f.CXMXNXNXNXNXNXCXf.a.d.s.d.s.s.d.s.s.s.d.d.s.d.zX1 o * * * * * * * * * * * * * * * * * * * * * * * * * * * * * * * * * * * * * * * * * * * * * >   5 9X1X1X1X1X1X1X1X1X1X1X1X1X1X1X1X1X1X1X1X1X2X2X*XrXLXPXGXk.).v.S.H.H.H.H.H.H.H.H.H.H.H.H.H.H.H.H.H.H.H.H.H.H.J.H.H.W.2 @ - & * * * * * * * * * * * * * * * * * * * * * * * * * * * * * * * * * * * * * * * * * ",
"* * * * * * * & & * * * * * * * * * * * * * * * * * * * * * * * * * * * * * * * * * * * . 7 ) ! ! ! ~ ~ ! ! ! ! ! ! ! ! ! ! ! ! ~ U ! i.zXa.s.s.a.s.s.a.a.i.mXVXMXNXNXMXNXMXVXNXf.p.d.s.d.d.d.s.s.s.d.d.d.p.zXL   > * * * * * * * * * * * * * * * * * * * * * * * * * * * * * * * * * * * * * * * * * * * * &   XX9X<X1X1X1X1X1X1X1X1X1X1X1X1X1X1X1X2X1X1X1X3XOXlXPXPXPXz.l.).c.J.G.H.H.H.H.H.H.H.H.H.H.H.H.H.H.H.H.H.H.H.H.H.H.G.R.y X * * * * * * * * * * * * * * * * * * * * * * * * * * * * * * * * * * * * * * * * * * * * ",
"* * * * * * * * * * * * * * * * * * * * * * * * * * * * * * * * * * * * * * * * * * * * # . W ( ! ! ~ ~ ! ! ! ! ! ! ! ! ! ! ! ! ! ~ Q Q 0.zXs.s.s.s.s.s.p.f.VXNXNXNXMXMXNXNXNXVXmXs.a.s.s.s.d.d.d.d.s.d.s.p.a.zX1 . * * * * * * * * * * * * * * * * * * * * * * * * * * * * * * * * * * * * * * * * * * * >   5 9X1X1X1X1X1X1X1X1X1X1X1X1X1X1X1X1X1X1X1X2X1XOXlXPXPXPXGXk._.).).E.G.H.H.H.H.H.H.H.H.H.H.H.H.H.H.H.H.H.H.H.H.H.J.H.J.= $ * * * * * * * * * * * * * * * * * * * * * * * * * * * * * * * * * * * * * * * * * * * * ",
"* * * * * * * * * * * * * * * * * * * * * * * * * * * * * * * * * * * * * * * * * * * & * . 4 _ ! ! ! ! ! ! ! ! ! ! ! ! ! ! ! ! ! ! ~ ! U 8.d.d.a.s.s.s.a.bXVXMXNXNXNXNXNXNXMXMXVXmXa.s.d.s.d.s.s.d.d.s.s.d.a.zX6.  * * * * * * * * * * * * * * * * * * * * * * * * * * * * * * * * * * * * * * * * * * * & X oX3X1X1X1X1X1X1X1X1X1X1X1X1X1X1X1X1X1X1X2X1X.XGXPXPXPXPXXX)._.).).Y.G.H.H.H.H.H.H.H.H.H.H.H.H.H.H.H.H.S.S.H.H.H.G.W.w X > * * * * * * * * * * * * * * * * * * * * * * * * * * * * * * * * * * * * * * * * * * * * ",
"* * * * * * * * * * * * * * * * * * * * * * * * * * * * * * * * * * * * * * * * * * * * * * . Z ) ! ! ! ! ! ! ! ! ! ! ! ! ! ! ! ! ! ! ! ! U ^ s.d.p.s.s.d.NXNXMXMXNXMXNXNXNXNXMXMXCXmXp.a.s.d.d.d.d.s.s.s.d.s.d.vX6 . * & * * * * * * * * * * * * * * * * * * * * * * * * * * * * * * * * * * * * * * * >   e 9X<X1X1X1X1X1X1X1X1X1X1X1X1X1X1X1X1X1X2X*X.XJXPXPXLXPXGXl.[._.].).I.G.H.H.H.H.H.H.H.H.H.H.H.H.H.H.H.H.H.H.H.H.H.H.F.$ & * * * * * * * * * * * * * * * * * * * * * * * * * * * * * * * * * * * * * * * * * * * * * ",
"* * * * * * * * * * * * * * * * * * * * * * * * * * * * * * * * * * * * * * * * * * * * * * o 1 ) ~ ! ! ! ~ ! ! ! ! ! ! ! ! ! ! ! ! ! ! ! ! Q W 0.d.f.p.vXVXMXMXMXNXNXNXNXNXNXNXNXNXCXbXi.s.d.d.s.s.s.s.s.s.d.a.zX6.  # * * * * * & * * * * * * * * * * * * * * * * * * * * * * * * * * * * * * * * * * # $ ,X3X<X1X1X1X1X1X1X1X1X1X1X1X1X1X1X1X1X2X*XoXKXPXLXPXPXPXz.l.[.z.c.).b.G.H.H.H.H.H.H.H.H.H.H.H.H.H.H.H.S.H.H.H.H.H.W.q X > * * * * * * * * * * * * * * * * * * * * * * * * * * * * * * * * * * * * * * * * * * * * * ",
"* * * * * * * * * * * * * * * * * * * * * * * * * * * * * * * * * * * * * * * * * * * * * * * + i _ ! ! ! ! ! ! ! ! ! ! ! ! ! ! ! ! ! ! ! ! ! Q W 9.zXzXNXNXMXNXNXMXNXNXNXNXNXNXNXNXNXCXbXp.d.s.s.s.s.s.s.s.s.d.a.zX6   : * * * * * * * * * * * * * * * * * * * * * * * * * * * * * * * * * * * * * * *   A 9X<X1X1X1X1X1X1X1X1X1X1X1X1X1X1X1X1X2X*XrXPXPXLXPXPXPXFXk.z.z.[.[.).v.G.G.H.H.H.H.H.H.H.H.H.H.H.H.H.H.S.H.H.H.A.R.D.X & * = * * * * * * * * * * * * * * * * * * * * * * * * * * * * * * * * * * * * * * * * * * * * ",
"* * * * * * * * * * * * * * * * * * * * * * * * * * * * * * * * * * * * * * * * * * * * * * * # # W ~ ! ~ ! ! ! ~ ~ ! ! ! ! ! ! ! ! ! ! ! ! ~ ~ ~ Q x Z nXZXMXNXNXMXMXNXNXNXNXNXNXNXMXMXCXvXi.s.s.s.d.d.d.d.s.s.s.d.u.X % * * * * * * * * * * * * * * * * * * * * * * * * * * * * * * * * * * * * * * O : 4X3X1X1X1X1X1X1X1X1X1X1X1X1X1X1X1X1X1XOX0XPXPXPXPXPXPXPX{.).c._._.[._.[.H.G.H.H.H.H.H.H.H.H.H.H.H.H.H.H.H.H.H.H.S.E.2 @ - * * * * * * * * * * * * * * * * * * * * * * * * * * * * * * * * * * * * * * * * * * * * * * ",
"* * * * * * * * * * * * * * * * * * * * * * * * * * * * * * * * * * * * * * * * * * * * * * * * . 4 _ ! ~ ~ ! ! ~ ! ! ! ! ! ! ! ! ! ! ! ! ~ ! ~ ~ l p p R h.AXCXMXMXMXNXNXNXNXNXMXNXMXMXNXCXvXi.s.s.s.s.s.s.d.d.s.a.cX9   : * * * * * * * * * * * * * * * * * * * * * * * * * * * * * * * * * * * * >   S 9X<X1X1X1X1X1X1X1X1X1X1X1X1X1X1X2X3XOXDXPXPXPXPXPXLXPXDXl.{.c.[._._.[.).C.G.H.H.H.H.H.H.H.H.H.H.H.H.H.H.H.H.H.G.W.r   - * * * * * * * * * * * * * * * * * * * * * * * * * * * * * * * * * * * * * * * * * * * * * * * ",
"* * * * * * * * * * * * * * * * * * * * * * * * * * * * * * * * * * * * * * * * * * * * * * * * # . Z ( ~ ! ~ ! ! ! ! ! ! ! ! ! ! ! ! ! ~ ~ ~ ~ l d f p c 3.g.MXZXMXNXNXNXNXNXNXNXMXNXNXNXNXCXf.i.s.s.d.d.d.d.s.s.s.d.u.@ # * * * * * * * * * * * * * * * * * * * * * * * * * * * * * * * * * * * * X < 4X1X1X1X1X1X1X1X1X1X1X1X1X1X1X1X2X3X*XGXPXPXPXPXPXPXPXPXl.l.[.[.[.[._.[.).Y.G.H.H.H.H.H.H.H.H.G.H.H.H.H.H.J.H.H.H.J.& $ * * * * * * * & * * * * * * * * * * * * * * * * * * * * * * * * * * * * * * * * * * * * * * * * ",
"* * * * * * * * * * * * * * * * * * * * * * * * * * * * * * * * * * * * * * * * * * * * * * * & * . 4 _ ~ ~ ! ~ ! ! ! ! ! ! ! ! ! ! ! ~ ~ ! ! l a d d l p 4.;.-.h.ZXNXNXNXNXMXNXNXNXNXNXNXNXNXCXf.p.d.s.d.s.s.d.s.s.p.vXK   : * * * * * * * * * * * * * * * * * * * * * * * * * * * * * * * * * * *   n.9X<X1X1X1X1X1X1X1X1X1X1X1X1X1X2X3X,XJXPXPXPXPXPXPXPXPXDXk.c.x.[.[.[.[.[.).U.G.H.H.H.H.H.H.H.H.H.H.H.H.H.H.J.J.H.W.w X * & * * * * * * * * * * * * * * * * * * * * * * * * * * * * * * * * * * * * * * * * * * * * * * * ",
"* * * * * * * * * * * * * * * * * * * * * * * * * * * * * * * * * * * * * * * * * * * * * * * * * * o Z _ ! ! ~ ! ! ! ! ~ ~ ~ ! ! ! ! ~ ~ W l a l d s l p c 3.;.=.g.AXCXMXNXNXNXNXNXNXNXNXNXNXNXNXf.p.d.s.s.d.d.d.d.s.d.f.$ # * * * * * * * * * * * * * * * * * * * * * * * * * * * * * * * * * *   5 9X1X1X1X1X1X1X1X1X1X1X1X1X1X1X2X*X,XKXPXPXPXPXPXPXPXPXPXz.l.c.[.[.[.[.[.[.).b.G.G.H.H.H.H.H.H.H.H.H.H.H.H.H.J.G.E.D.@ * * * * * * * * * * * * * * * * * * * * * * * * * * * * * * * * * * * * * * * * * * * * * * * * * * ",
"* * * * * * * * * * * * * * * * * * * * * * * * * * * * * * * * * * * * * * * * * * * * * * * * * * o ; ( ~ ! ! ! ! ! ! ~ ~ ! ! ! ! ! ~ ! l a d d d s s a p *.2.<.;.4.VXZXMXNXNXNXNXNXNXNXNXNXNXCXNXs.a.d.d.d.d.d.s.s.a.zXK   : * * * * * * * * * * * * * * * * * * * * * * * * * * * * * * * * *   XX8X1X1X1X1X1X1X1X1X1X1X1X1X1X2X&XrXLXPXPXPXPXPXPXPXPXPXDXl.[.[.[.].[.[.[.[.).v.H.G.H.H.H.H.H.H.H.H.H.H.H.H.H.J.H.W.2 X - & * * * * * * * * * * * * * * * * * * * * * * * * * * * * * * * * * * * * * * * * * * * * * * * * ",
"* * * * * * * * * * * * * & * * * * * * * * * * * * * * * * * * * * * * * * * * * * * * * * * * * * * . 7 _ ! ! ~ ~ ~ ~ ~ ! ! ! ~ ! ~ ~ l a l d a d d a d p T 3.<.2.;.-.h.ZXNXNXNXNXNXNXMXNXNXNXMXCXMXs.a.d.s.d.s.d.s.s.s.zX* o * * * * * * * * * * * * * * * * * * * * * * * * * * * * * * * -   5 9X1X1X1X1X1X1X1X1X1X1X1X1X2X1X&XlXPXPXPXPXPXPXPXPXPXPXPXl.l.c.[.[.[.[.[.[.[._._.R.G.H.H.H.H.H.G.G.H.H.H.H.H.H.G.W.t X * * & & * * * * * * * * * * * * * * * * * * * * * * * * * * * * * * * * * * * * * * * * * * * * * * * ",
"* * * * * * * * * * * * * * * * * * * * * * * * * * * * * * * * * * * * * * * * * * * * * * * * * * * # # W ( ! ~ ~ ~ ~ ~ ! ! ! ! ~ ~ l p d d d a a d d d p p <.3.1.<.;.-.g.AXCXMXNXNXNXNXNXNXNXNXMXVXMXp.a.d.d.s.d.s.s.p.zXK   : * * * * * * * * * * * * * * * * * * * * * * * * * * * * * * & X XX8X1X1X1X1X1X1X1X1X1X1X1X2X1XOXDXPXPXPXPXPXPXPXPXPXPXPXDXl.[.].[.[.[.[.[.[.[.[.).Y.G.H.H.H.H.H.H.H.H.H.H.H.H.H.H.W., @ * & # * * * * * * * * * * * * * * * * * * * * * * * * * * * * * * * * * * * * * * * * * * * * * * * * ",
"* * * * * * * * * * * * * * * * * * * * * * * * * * * * * * * * * * * * * * * * * * * * * * * * * * * * . 4 _ ! ~ ~ ~ ~ ~ ! ! ! ~ ~ l p a d d a a a a d d f p T 3.,.1.<.1.-.4.BXZXMXNXNXMXNXNXNXNXNXNXCXmXp.a.d.s.s.s.d.s.a.zX1 o : * * * * * * * * * * * * * * * * * * * * * * * * * * * * >   e 9X<X1X1X1X1X1X1X1X1X1X1X2X3X.XGXPXPXPXPXPXPXPXPXPXPXPXPXl.).[.[.].].].[.[.[.[.[.).I.G.H.H.H.H.H.H.H.H.H.H.H.H.S.W.r X - * * * * * * * * * * * * * * * * * * * * * & * * * * * * * * * * * * * * * * * * * * * * * * * * * * * ",
"* * * * * * * * * * * * * * * * * * * * * * * * * * * * * * * * * * * * * * * * * * * * * * * * * * * * # o W ) ! ~ ~ ~ ~ ! ! ~ ~ l a f a d d d d d d d d d p d 1.1.1.<.1.<.;.;.h.AXNXNXMXNXNXNXNXNXMXMXVXmXp.a.s.s.s.s.s.p.zXP   - * * * * * * * * * * * * * * * * * * * * * * * * * * * * $ @ ,X4X1X1X1X1X1X1X1X1X1X1X2X*X.XJXPXPXPXPXPXPXPXPXPXPXPXPX0Xl.[.].].[.[.[.[.[.[.[.[.).U.G.H.H.H.H.H.H.H.H.H.H.H.H.R.F.$ $ * * * * * * * * * * * * * * * * * * * * * * & & * * * * * * * * * * * * * * * * * * * * * * * * * * * * ",
"* * * * * * * * * * * * * * * * * * * * * * * * * * * * * * * * * * * * * * * * * * * * * * * * * * * * * . 4 _ ~ ~ ! ~ ~ ! ~ ~ l p d l l d s d d d d d d d d p E 2.1.<.1.1.2.;.-.g.ZXCXMXNXNXMXNXNXNXMXMXCXbXi.a.s.s.s.s.s.s.cX1 o * * * * * * * * * * * * * * * * * * * * * * * * * * * >   A 9X<X1X1X1X1X1X1X1X1X1X2X*XoXKXPXPXPXPXPXPXPXPXPXPXPXPXLXl.].c.].].[.[.[.[.[.[.[.[._.b.J.H.H.H.H.H.H.H.H.H.H.H.S.W.q X > * * * * * * * * * * * * * * * * * * * * * * * * * * * * * * * * * * * * * * * * * * * * * * * * * * * * ",
"* * * * * * * * * * * * * * * * * * * * * * * * * * * * * * * * * * * * * * * * * * & * * * * * * * * * * * . Z _ ! ! ! ~ ~ ! l a d d d d d d d d d d d d d d p l 3.1.<.1.1.1.1.1.=.4.BXZXMXMXNXNXMXNXNXMXMXCXvXi.s.s.s.s.d.s.zXP   * * * * * * * * * * * * * * * * * * * * * * * * * * * O ; 4X3X<X1X1X1X1X1X1X1X1X2X&XrXPXPXPXPXPXPXPXPXPXPXPXPXPXPX0Xl.[.x.[.].[.[.[.[.[.[.[.[._.{.J.H.H.H.H.H.H.H.H.H.H.H.R.D.X & * * * * * * * * * * * * * * * * * * * * * * * * * * * * * * * * * * * * * * * * * * * * * * * * * * * * * ",
"* * * * * * * * * * * * * * * * * * * * * * * * * * * * * * * * * * * * * * * * * * & * * * * * * * * * * * o ; ~ ~ ! ! ! ! l a d d d d d d d d d a a d d d d f p / 3.<.1.1.1.1.<.1.-.-.h.ZXNXNXMXMXMXNXNXNXMXCXvXi.s.s.s.s.s.s.zX6 . : * * * * * * * * * * * * * * * * * * * * * * * * *   S 9X<X1X1X1X1X1X1X1X1X2XOX0XPXPXPXPXPXPXPXPXPXPXPXPXPXPXLXl.z.x.].].].[.[.[.[.[.[.[.[.[.[.E.J.H.H.H.H.H.H.H.H.H.H.W.2 X - * * * * * * * * * * * * * * * * * * * * * * * * * * * * * * * * * * * * * * * * * * * * * * * * * * * * * ",
"* * * * * * * * * * * * * * * * * * * * * * * * * * * * * * * * * * * * * * * * * * * * * * * * * * * * * * * . 7 ) ! ~ ~ l p l l d d d d d d d d d d d d d d d a x 3.1.1.1.1.1.1.<.<.;.-.g.ZXCXMXNXNXNXNXNXNXNXCXvXi.s.s.s.s.p.zX6.  * * * * * * * * * * * * * * * * * * * * * * * * * X < 9X1X1X1X1X1X1X1X1X1X1XOXDXPXPXPXPXPXPXPXPXPXPXPXPXPXPXPX0Xl.c.x.x.[.[.[.[.[.[.[.[.[.[.[._.Y.H.H.H.H.H.H.H.H.H.G.W.t X * * * * * * * * * * * * * * * * * * * * * * * * * * * * * * * * * * * * * * * * * * * * * * * * * * * * * * * ",
"* * * * * * * * * * * * * * * * * * * * * * * * * * * * * * * * * * * * * * * * * * * * * * * * * * * * * * * # # ! ) ( x a d l l d d d d d d a a d d d d d d d s p *.2.1.1.1.1.1.1.1.1.2.=.4.BXZXNXNXMXMXNXNXNXNXCXf.i.s.s.s.s.a.zX6   * * * * * * * * * * * * * * * * * * * * * * * *   n.8X,X1X1X1X1X1X1X2X3XOXFXPXPXPXPXPXPXPXPXPXPXPXPXPXPXPXKXl.z.c.c.[.[.[.[.[.[.[.[.[.[.[.[.).U.H.H.H.H.H.H.H.H.J.H.J., $ * & & & * * * * * * * * * * * * * * * * * * * * * * * * * * * * * * * * * * * * * * * * * * * * * * * * * * * ",
"* * * * * * * * * * * * * * * * * * * * * * * * * * * * * * * * * * * * * * * * * * * * * * * * * * * * * * * * . 4 ` x p d f d d d d d d d d d d d d d d d d d l p c 3.1.1.1.1.1.1.1.1.1.<.-.-.h.ZXNXMXNXNXNXNXNXVXCXf.p.d.s.s.s.zXu.X # * * * * * * * * * * * * * * * * * * * * * *   5 8X<X1X1X1X1X1X1X2X<X.XHXPXPXPXPXPXPXPXPXPXPXPXPXPXPXPXPX0Xl.c.c.c.[.[.[.[.c.[.[.[.[.[.[.[._.b.J.H.H.H.H.H.H.H.H.W.w X - * & & * * * * * * * * * * * * * * * * * * * * * * * * * * * * * * * * * * * * * * * * * * * * * * * * * * * * ",
"* * * * * * * * * * * * * * * * * * * * * * * * * * * * * * * * * * * * * * * * * * * * * * * * * * * * * * * * # o f l f d l d d d d d d d d d d d d d d d d d d a p ,.2.1.1.1.1.1.1.1.1.1.<.,.-.g.AXCXMXNXNXNXNXNXNXVXf.p.d.s.s.s.zX9   * * * * * * * * * * * * * * * * * * * * * * X XX4X<X1X1X1X1X1X2X*X,XKXPXPXPXPXPXPXPXPXPXPXPXPXPXPXPXPXKXk.].x.c.c.v.[.[.[.c.[.[.[.[.[.[.[._.v.R.H.H.H.H.H.H.H.R.F.@ & * * * * * * * * * * * * * * * * * * * * * * * * * * * * * * * * * * * * * * * * * * * * * * * * * * * * * * * * ",
"* * * * * * * * * * * * * * * * * * * * * * * * * * * * * * * * * * * * * * * * * * * * * * * * * * * * * * * * * o 1 l d d f d d d d d a d d d d d d a a d d d a d p T 3.1.2.1.1.1.1.1.1.2.<.<.1.-.4.BXZXMXMXNXNXNXNXVXNXs.p.s.a.s.d.u.X # * * * * * * * * * * * * * * * * * * * -   e 9X<X1X1X1X1X<X2X*XoXLXPXPXPXPXPXPXPXPXPXPXPXPXPXPXPXPXPX0Xl.[.x.c.c.[.c.[.[.c.[.[.[.[.[.c.c._.c.E.G.H.H.S.H.H.H.W.q X - * * * * * * * * * * * * * * * * * * * * * * * * * * * * * * * * * * * * * * * * * * * * * * * * * * * * * * * * ",
"* * * * * * * * * * * * * * * * * * * * * * * * * * * * * * * * * * * * * * * * * * * * * * * * * * * * * * * * & * # 7 l a f f f f f d a d d d d d d a a d d d d d a s <.2.1.1.1.<.1.1.1.1.<.<.1.<.;.;.h.ZXNXMXNXNXNXNXCXNXs.p.s.s.s.cX0   * * * * * * * * * * * * * * * * * * * % @ oX8X<X1X1X1X1X1XOXrXPXPXLXPXPXPXPXPXPXPXPXPXPXPXPXPXPXPXJXl.x.x.x.c.c.c.c.c.c.c.[.[.[.[.[.z.z.c.z.Y.G.S.H.H.H.H.R.D.X * * * * * * * * * * * * * * * * * * * * * * * * * * * * * * * * * * * * * * * * * * * * * * * * * * * * * * * * * * ",
"* * * * * * * * * * * * * * * * * * * * * * * * * * * * * * * * * * * * * * * * * * * * * * * * * * * * * * * * * * # ; l l a f d d d d d d d d d a a d d d d d d d d p T 3.1.2.1.1.1.1.1.1.1.1.1.1.1.;.-.g.AXCXMXNXNXNXNXCXMXa.a.s.s.d.f.$ # * * * * * * * * * * * * * * * * * -   e 9X<X1X1X1X1X1XOXlXPXPXPXPXPXPXPXPXPXPXPXPXPXPXPXPXPXPXPX0Xl.c.x.x.c.c.c.c.c.c.[.c.c.c.c.c.c.c.c.).I.G.A.H.H.H.S.W.2 @ - * * * * * * * * * * * * * * * * * * * * * * * * * * * * * * * * * * * * * * * * * * * * * * * * * * * * * * * * * ",
"* * * * * * * * * * * * * * * * * * * * * * * * * * * * * * * * * * * * * * * * * * * * * * * * * * * * * * * * * * * O 7 x f d f d f f f d d d d a a d d d d d d d d p l 2.1.2.1.1.1.1.1.1.1.1.1.1.1.1.1.-.4.BXZXMXNXNXNXNXVXmXp.a.s.s.zXK   * * * * * * * * * * * * * * * * * $ $ 2X4X<X1X1X2X<XOXFXPXPXPXPXPXPXPXPXPXPXPXPXPXPXPXPXPXPXPXJXl.x.x.x.x.c.c.c.c.c.c.c.c.c.c.c.[.c.c.v.).b.G.H.H.J.G.W.y X - * * * * * * * * * * * * * * * * * * * * * * * * * * * * * * * * * * * * * * * * * * * * * * * * * * * * * * * * * * ",
"* * * * * * * * * * * * * * * * * * * * * * * * * * * * * * * * * * * * * * * * * * * * * * * * * * * * * * * * * * * # * f l f d f f f d d d a a d d d d d d d d d d f p E 2.1.1.1.1.1.2.1.1.1.2.2.1.1.<.<.;.;.h.ZXVXMXNXNXMXCXbXi.d.s.d.d.% o * * * * * * * * * * * * * * & *   A 8X<X1X1X2X<X*XGXPXPXPXPXPXPXPXPXPXPXPXPXPXPXPXPXPXPXPXPX0Xl.c.x.x.x.c.c.c.c.c.c.c.c.c.c.c.[.c.c.v._.b.H.S.H.H.R.J.# $ * & & & * * * * * * * * * * * * * * * * * * * * * * * * * * * * * * * * * * * * * * * * * * * * * * * * * * * * * * * ",
"* * * * * * * * * * * * * * * * * * * * * * * * * * * * * * * * * * * * * * * * * * * * * * * * * * * * * * * * * * * * + 4 x p l d d f d d d a a d d d d d d d d d d d a l 3.1.1.1.1.1.1.1.1.1.1.2.1.1.<.<.<.1.-.g.AXCXMXNXNXNXAXbXp.s.p.zXK   * * * * * * * * * * * * * * * @ > 1X3X<X1X2X*X,XKXPXPXPXPXPXPXPXPXPXPXPXPXPXPXPXPXPXPXPXPXJXk.z.x.x.x.x.c.c.c.c.c.c.c.c.c.c.c.c.c.z.c._.x.H.S.H.G.W.w   - & & & & * * * * * * * * * * * * * * * * * * * * * * * * * * * * * * * * * * * * * * * * * * * * * * * * * * * * * * * ",
"* * * * * * * * * * * * * * * * * * * * * * * * * * * * * * * * * * * * * * * * * * * * * * * * * * * * * * * * * * * * * O M c p l d f d a a d d d d d d d d d d d d d l p E 2.,.1.1.2.1.1.1.1.<.1.1.2.1.1.1.1.2.-.4.nXZXNXNXVXVXAXbXi.d.s.d.; o : * * * * * * * * * * * * *   S 8X,X<X2X*XoXLXPXPXPXPXPXPXPXPXPXPXPXPXPXPXPXPXPXPXPXPXPXoXl.c.c.c.c.c.c.c.c.c.c.c.c.c.c.c.c.c.c.c.c.[._.Y.S.G.R.F.$ & * * * * * * * * * * * * * * * * * * * * * * * * * * * * * * * * * * * * * * * * * * * * * * * * * * * * * * * * * * * * ",
"* * * * * * * * * * * * * * * * * * * * * * * * * * * * * * * * * * * * * * * * * * * * * * * * * * * * * * * * * * * * * O < &.d a l d d d a d d d d d d d d d d d d d d a l 2.1.1.1.1.2.2.1.1.1.1.2.2.1.1.1.1.1.<.;.-.h.AXVXNXVXNXCXvXi.p.zXL   * * * * * * * * * * * * * X 2 9X1X<X1XOXrXPXPXPXPXPXPXPXPXPXPXPXPXPXPXPXPXPXPXPXPXPXPXJXl.{.v.x.z.c.c.c.c.c.c.c.c.c.c.c.c.c.c.c.c.c.c._.Y.A.A.R.3 @ > * * * * * * * * * * * * * * * * * * * * * * * * * * * * * * * * * * * * * * * * * * * * * * * * * * * * * * * * * * * * ",
"* * * * * * * * * * * * * * * * * * * * * * * * * * * * * * * * * * * * * * * * * * * * * * * * * * * * * * * * * * * * * *   g =.d s l d d a a a d d d d a a d d d d d d d p *.2.1.1.2.1.1.<.1.1.1.1.1.1.1.1.1.2.2.<.1.-.g.AXZXVXNXVXCXf.i.d.vX1 o * * * * * * * * * * & &   n.9X2X1XOXlXPXPXPXPXPXPXPXPXPXPXPXPXPXPXPXPXPXPXPXPXPXLXHX#.A z.v.v.v.v.[.c.c.c.c.c.c.c.c.c.c.c.c.z.c.c.c.).U.G.R.t X * * * * * * * * * * * * * * * * * * * * * * * * * * * * * * * * * * * * * * * * * * * * * * * * * * * * * * * * * * * * * * ",
"* * * * * * * * * * * * * * * * * * * * * * * * * * * * * * * * * * * * * * * * * * * * * * * * * * * * * * * * * * * * * * % $ %.-.l p l d d a a d d d d a a d d d d d d l a c 3.1.1.1.1.1.1.1.1.2.1.1.1.2.2.1.2.1.<.1.2.;.4.BXZXNXNXNXNXf.p.cXP   * * * * * * * * & * :   5 8X1X1X*XFXPXPXPXPXPXPXPXPXPXPXPXPXPXPXPXPXPXPXPXPXHX0XqX>Xn j n F H J k.z.{.}.{.v.c.c.c.z.c.c.c.c.x.v.v.v.z.b.E.Q., $ * # * * * * * * * * * * * * * & & * * * * * * * * * * * * * * * * * * * * * * * * * * * * * * * * * * * * * * * * * * * * * ",
"* * * * * * * * * * * * * * * * * * * * * * * * * * * * * * * * * * * * * * * * * * * * * * * * * * * * * * * * * * * * * * *   7 ;.E l a f d d d a a a a d d d d d d d d f l p *.2.<.2.1.1.1.1.1.2.1.1.1.1.2.1.1.1.1.<.1.<.;.-.h.ZXVXMXVXAXf.a.vX4   * * * * * * * & * &   n.3X*X*XHXPXPXPXPXPXPXPXPXPXPXPXPXPXPXPXPXPXPXKXDXqX=X>XuX=Xj F N M n n M N F J J _.[.v.v.[.v.x.x.c.x.v.v.v.z.v.W.r @ * * * & * * * * * * * * * * * * * * * * * * * * * * * * * * * * * * * * * * * * * * * * * * * * * * * * * * * * * * * * * * * ",
"* * * * * * * * * * * * * * * * * * * * * * * * * * * * * * * * * * * * * * * * * * * * * * * * * * * * * * * * * * * * * * * * X M =.} c s l f d a d d a d d d d d d d d d l p T 3.1.1.1.1.1.1.1.2.1.1.1.1.1.1.1.1.1.<.1.1.<.1.-.g.CXZXVXAXCXf.d.6.  * * * * * * * * >   e 9XOX.XJXPXPXPXPXPXPXPXPXPXPXPXPXPXPXPXPXLXGXuX>X>XwXeXeXuXH j D N N F F F N M M M n D H J k.z.{.{.{.v.v.c.x.z.{.F.@ & * * * * * * * * * * * * * * * * * * * * * * * * * * * * * * * * * * * * * * * * * * * * * * * * * * * * * * * * * * * * * * * ",
"* * * * * * * * * * * * * * * * * * * * * * * * * * * * * * * * * * * * * * * * * * * * * * * * * * * * * * * * * * * * * * * * O < *.&.&.l p f a a a a a a a d d d d d d d l s s ,.2.,.<.1.<.1.1.1.1.1.1.1.<.<.1.1.1.1.1.1.1.1.3.-.<.nXAXVXCXNXi.d.6 . : * * * & * * & @ oX&XoXLXPXPXPXPXPXPXPXPXPXPXPXPXPXPXPXGX0X>X>X>XyXyXwXeXyXuXD m F D N D m N N N D F F M M M n m H J J z.c.}.}.{.6Xq   * * * * * * * * * * * * * * * * * * * * * * * * * * * * * * * * * * * * * * * * * * * * * * * * * * * * * * * * * * * * * * * * ",
"* * * * * * * * * * * * * * * * * * * * * * * * * * * * * * * * * * * * * * * * * * * * * * * * * * * * * * * * * * * * * * * * *   j =.| %.l p f d a a a a a d d d d d d d l l p T 3.,.<.<.<.1.1.1.1.1.1.1.<.1.1.1.1.1.1.1.1.1.1.<.;.;.h.AXCXVXmXa.u.o * * * * & % *   e 3X0XPXPXPXPXPXPXPXPXPXPXPXPXPXPXJXDXqX=X>XeXyXeXyXeXeXeXuX=Xn F N N N N N N N N D N F F F F N N M M M M F H J  Xk.@ & & * * * * * * * * * * * * * * * * * * * * * * * * * * * * * * * * * * * * * * * * * * * * * * * * * * * * * * * * * * * * * * * ",
"* * * * * * * * * * * * * * * * * * * * * * * * * * * * * * * * * * * * * * * * * * * * * * * * * * * * * * * * * * * * * * * * * % = } %.| | x a f f f a a a a a d d d d d d d d l ,.2.1.1.1.1.1.1.1.1.1.2.1.1.1.1.1.1.1.1.1.1.1.1.<.2.-.4.BXCXVXmXzX9   * * * & * $ X '.DXPXPXPXPXPXPXPXPXPXPXPXPXLXGXuX>X>XwXeXeXeXeXeXeXeXeXeXuX#.n F F N N N N N N N N m N m F F F D D F D F N n n D < $ * * * * * * * * * * * * * * * * * * * * * * * * * * * * * * * * * * * * * * * * * * * * * * * * * * * * * * * * * * * * * * * * * ",
"* * * * * * * * * * * * * * * * * * * * * * * * * * * * * * * * * * * * * * * * * * * * * * * * * * * * * * * * * * * * * * * * * *   7 =.R %.*.c a l f a d d d a d d d d d d d d p T 3.1.1.2.1.1.1.1.2.1.1.2.1.1.1.1.2.2.1.1.1.1.1.1.1.2.;.,.nXAXAXMXu.X # * * % -   e FXPXPXPXPXPXPXPXPXPXPXPXHX0X>X=X>XeXyXeXeXeXeXeXeXeXeXeXyXyXm m N N m m N N N N N N N N N F N F D N N N F D F G 8   - * * * * * * * * * * * * * * * * * * * * * * * * * * * * * * * * * * * * * * * * * * * * * * * * * * * * * * * * * * * * * * * * * ",
"* * * * * * * * * * * * * * * * * * * * * * * * * * * * * * * * * * * * * * * * * * * * * * * * * * * * * * * * * * * * * * * * * * # O Y &.} %.*.x a f a d a a d d d d d d d d s a l 2.1.1.2.1.1.1.2.2.1.1.2.1.1.1.1.1.2.1.<.1.1.1.1.<.1.<.;.-.g.AXAXmX9   * & - # & JXPXLXPXPXPXPXPXPXPXJXDXyX>X>XeXyXeXeXeXeXeXyXeXeXeXeXeXeXuX$.j D D F N N F N m N N N N N D N F F N N N N D m D H * % * * * * * * * * * * * * * * * * * * * * * * * * * * * * * * * * * * * * * * * * * * * * * * * * * * * * * * * * * * * * * * * * * * ",
"* * * * * * * * * * * * * * * * * * * * * * * * * * * * * * * * * * * * * * * * * * * * * * * * * * * * * * * * * * * * * * * * * * * O 4 =.| R %.%.c p d a d d d d d d d d d d d d p E 3.1.1.1.1.1.2.2.1.1.2.2.2.2.2.1.2.1.1.1.1.1.1.<.2.2.1.2.-.4.BXAXbX& # * -   SXPXLXPXPXPXPXPXPXGXuX=X>XwXeXeXeXeXeXeXeXeXeXyXeXeXeXeXeXeXuXH n D D F N N N N N N N N F F D F N N N F N F F D O.8 X * * % * * * * * * * * * * * * * * * * * * * * * * * * * * * * * * * * * * * * * * * * * * * * * * * * * * * * * * * * * * * * * * * * ",
"* * * * * * * * * * * * * * * * * * * * * * * * * * * * * * * * * * * * * * * * * * * * * * * * * * * * * * * * * * * * * * * * * & * *   j =.R R %.*.c p a d d d d d a a d d d d d p x 3.1.1.1.1.<.1.2.1.1.2.2.1.1.2.2.1.1.1.1.1.1.1.1.1.1.2.1.2.;.-.h.AXK   - X # PXPXPXPXPXPXHXDXqX>XwXeXeXeXeXeXeXeXeXeXeXeXyXyXyXyXeXeXeXyXwXm N D N N F N N N N N N N N N N N N N N N D m D >.H X * * * * * * * * * * * * * * * * * * * * * * * * * * * * * * * * * * * * * * * * * * * * * * * * * * * * * * * * * * * * * * * * * * * * ",
"& * * * * * * * * * * * * * * * * * * * * * * * * * * * * * * * * * * * * * * * * * * * * * * * * * * * * * * * * * * * * * * * * * * * O ; %.%.R | | *.c p d d d d d d d d d d d d l p E 2.,.1.1.1.1.1.2.1.2.1.2.1.1.2.1.2.2.1.1.1.1.2.1.1.1.1.2.<.1.-.g.AX1 #   SXPXPXPXKXDXqX>X>XeXyXyXyXeXeXeXeXeXeXeXeXeXeXyXyXyXeXeXeXeXuX$.n D N N F F N N N N N N N N N N N N F F D m F @.>.< O * * * * * * * * * * * * * * * * * * * * * * * * * * * * * * * * * * * * * * * * * * * * * * * * * & * * * * * * * * * * * * * * * * * * ",
"* * * * * * * * * * * * * * * * * * * * * * * * * * * * * * * * * * * * * * * * * * * * * * * * * * * * * * * * * * * * * * * * * * * * *   8 =.R R R | *.T s a a a a d d d d d d d l p x <.,.,.1.1.1.1.2.1.1.2.1.1.2.2.1.1.2.1.1.1.1.2.1.1.1.1.2.2.<.3.-.g.I   > PXPXGX0XqX>XwXyXyXyXyXyXyXyXeXeXeXeXeXeXeXeXeXyXyXeXeXeXeXeXuXG n D N N F F F F N N N N N N N N N F F D m G X.>.A   * & & * * * * * * * * * * * * * * * * * * * * * * * * * * * * * * * * * * * * * * * * * * * * * * * * * * * * * * * * * * * * * * * * * * ",
"* * * * * * * * * * * * * * * * * * * * * * * * * * * * * * * * * * * * * * * * * * * * * * * * * * * * * * * * * * * * * * * * * * * * * % $ } &.R | | %.=.T a d a a d d d d d d d d l p / 2.1.1.1.1.1.2.1.2.1.1.1.1.2.1.1.2.1.1.1.1.1.1.2.1.1.2.2.1.<.<.;.3.4 SXHX=X-X>XeXuXyXyXyXyXyXyXyXyXeXeXeXeXeXeXeXeXeXeXeXeXeXeXeXuXqXn N N N N N m m F N N N N N N N N N F F m ] o.O.o.= $ * & * * * * * * * * * * * * * * * * * * * * * * * * * * * * * * * * * * * * * * * * * * * * * * * * * * * * * * * * * * * * * * * * * * * ",
"* * * * * * * * * * * * * * * * * * * * * * * * * * * & * * * * * * * * * * * * * * * * * * * * * * * * * * * * * * * * * * * * * * * * * *   4 &.| | | | | *.c a a a d d d d d d d d f p x 3.1.1.1.1.1.2.1.2.1.1.1.1.2.1.2.2.1.1.1.1.1.1.1.1.1.2.2.1.1.1.<.;.-XlX>XwXyXeXyXyXyXyXyXyXyXyXyXyXyXyXyXyXeXeXeXeXeXeXeXeXeXeXeXuX$.n D F N N N N N N N N N N N N N N F m m { O.X.:.5   * & & * * * * * * * * * * * * * * * * * * * * * * * * * * * * * * * * * * * * * * * & * * * * * * * * * * * * * * * * * * * * * * * * * * * ",
"* * * * * * * * * * * * * * * * * * * * * * * * * * * * * * * * * * * * * * * * * * * * * * * * * * * * * * * * * * * * * * * * * * * * * * #   M &.| | | } %.&.c p d d d d d d d d d d l p *.2.,.1.1.1.1.2.2.1.1.1.1.2.1.2.1.2.2.1.1.1.1.1.1.<.1.1.2.1.1.,.5.:XdX7XwXeXyXyXyXyXyXyXyXyXyXyXyXyXyXyXyXeXeXeXeXeXeXeXeXeXeXeXuXG n F N N N N N N N N N N N N N N F m D ..O.X.:.H X & & & * * * * * * * * * * * * * * * * * * * * * * * * * * * * * * * * * * * * * * * * & * * * * * * * * * * * * * * * * * * * * * * * * * * * ",
"* * * * * * * * * * * * * * * * * * * * * * * * * * * * * * * * * * * * * * * * * * * * * * * * * * * * * * * * * * * * * * * * * * * * * * * O ; *.%.} } R R } *.T p a d d d d d d d d f a c 2.;.1.2.1.1.2.1.1.1.1.2.1.2.2.2.2.1.1.1.1.1.1.1.<.1.<.1.1.,.5.@X;XdXpXrXwXyXyXyXyXyXyXyXyXyXyXyXyXyXeXeXyXeXeXeXeXeXeXeXeXeXuXqXn m N N N N N N N N N N N F N F F m G X.X...X.:.< X * & * * * * * * * * * * * * * * * * * * * * * * * * * * * * * * * * * * * * * * * * * * * * * * * * * * * * * * * * * * * * * * * * * * * * * ",
"* * * * * * * * * * * * * * * * * * * * * * * * * * * * * * * * * * * * * * * * * * * * * * * * * * * * * * * * * * * * * * * * * * * * * * * *   g =.} | | R | %.*.T a a d d d d d d d d a p ,.1.1.2.1.1.1.1.1.1.1.2.2.1.2.2.2.2.1.1.1.1.<.1.1.1.1.2.1.5.;X@X#XsXaXpXrXwXyXyXyXyXyXyXyXyXyXyXyXyXeXeXyXeXeXeXeXeXeXyXyXeXuX$.n F N N N N N N N N N N N N F N n H O.o.X...:.F   * & * * * * * * * * * * * * * * * * * * * * * * * * * * * * * * * * * * * * * * * * * * * * * * * * * * * * * * * * * * & * * * * * * * * * * * ",
"* * * * * * * * * * * * * * * * * * * * * * * * * * * * * * * * * * * * * * * * * * * * * * * * * * * * * * * * * * * * * * * * * * * * * * * * % # } &.| } | %.%.%.*.T p a d d d d d d d l p T 3.1.2.1.1.1.1.1.1.1.1.2.2.2.2.1.1.1.1.1.1.1.1.2.1.1.,.2.;X$X@X$XsXpXpXdXrXwXyXyXyXyXyXyXyXyXyXyXyXyXyXyXeXeXeXyXyXeXyXeXeXuXG n F N N N N F F N N N N N D N m ] @.X.X.X.o.+.: $ * * * * * * * * & * * * * * * * * * * * * * * * * * * * * * * * * * * * * * * * * * * * * * * * & * * * * * * * * * * * & * * * * * * * * * * * ",
"* * * * * * * * * * * * * * * * * * * * * * * * * * * * * * * * * * * * * * * * * * * * * * * * * * * * * * * * * * * * * * * * * * * * * * & & *   5 &.R R | | | %.R *.T p s d d d d d d d s s ,.1.1.1.1.1.1.1.1.1.1.2.1.2.2.1.1.1.1.1.1.1.1.2.2.1.2.-X$X;X@X#XsXpXsXpXpXtXwXyXeXeXeXeXeXeXeXyXyXeXeXyXyXeXeXeXeXeXyXeXuX=Xj N N N N m F N N N N N N N m N { O.X.X.X...:.8   * * * * * * * * * & * * * * * * * * * * * * * * * * * * * * * * * * * * * * * * * * * * * * * * * * * * * * * * * * * * * * * * * * * * * * * * * ",
"* * * * * * * * * * * * * * * * * * * * * * * * * * * * * * * * * * * * * * * * * * * * * * * * * * * * * * * * * * * * * * * * * * * * * * * * * * O V &.R | | | | R R *.T p a d d d d d d l p T 3.;.1.1.1.1.1.1.1.1.1.1.1.2.1.1.1.1.2.1.1.2.2.,.2.@X$X;X$X@X#XsXpXsXsXpXsXtXwXyXeXeXeXeXeXeXyXyXeXeXyXyXyXeXeXeXeXeXwXuX#.j F N N m D F N N m N F F m m ..O...X.o.X.:.H @ # * * * * * * * * * * * * * * * * * * * * * * * * * * * * * * * * * * * * * * * * * * * * * * * * * * * * * * * * * * * * * * * * * * * * * * * * * ",
"* * * * * * * * * * * * * * * * * * * * * * * * * * * * * * * * * * * * * * * * * * * * * * * * * * * * * * * * * * * * * * * * * * * * * * * * * * O 4 =.R | | | R | | | &.E p p d d d d d d a l 3.1.1.1.1.1.1.1.1.1.1.1.1.1.1.1.1.1.2.2.1.2.,.1.-X$X@X;X$X@X#XsXpXpXpXpXpXjXyXwXyXeXyXeXeXeXeXeXyXyXyXyXyXeXeXeXeXeXyXuXD m F N N N N N N N N N D m D X.O.X.X.X.X.o.:.5 X * * * * * * * * * * * * * * * * * * * * * * * * * * * * * * * * * * * * * * * * * * * * * * * * * * * * * * * * * * * * * * * * * * * * * * * * * * ",
"* * * * * * * * * * * * * * * * * * * * * * * * * * * * * * * * * * * * * * * * * * * * * * * * * * * * * * * * * * * * * * * * * * * * * * * * * * *   j =.} | | R | | %.%.*.T p a d d d a d f p E 3.1.1.1.1.1.1.1.1.1.1.1.1.2.1.2.2.1.1.1.,.1.-X$X$X$X;X$X@X#XsXpXpXpXpXpXpXiXeXwXyXyXyXeXeXeXeXyXyXyXyXyXeXeXeXeXeXuX=Xn F N N N N N N N N N N m G @.X.X.X.X.X.X.:.H X * * * * * * * * * * * * * * * * * * * * * * * * * * * * * * * * * * * * * * * * * * * * * * * * * * * * * * * * * * * * * * * * * * * * * * * * * * * ",
"* * * * * * * * * * * * * * * * * * * * * * * * * * * * * * & & * * * * * * * * * * * * * * * * * * * * * * * * * * * * * * * * * * * * * * * * * * * % : %.&.| | | | | | | R &.Y a p d d d d f s x 3.1.1.1.1.1.1.1.1.1.1.1.2.2.2.1.1.1.2.1.;.+X%X$X@X$X$X$X@X#XsXpXpXpXpXpXsXpXjXwXwXeXeXeXeXeXeXyXyXyXyXyXeXeXeXeXeXuX#.j F N N N N N N N N N n H O.X.X.X.X.X...o.O.< O * * * * * * * * * * * * * * * * * * * * * * * * * * * * * * * * * * * * * * * * * * * * * * * * * * * * * * * * * * * * * * * * * * * * * * * * * * * ",
"* * * * * * * * * * * * * * * * * * * * * * * * * * * * * * * * * * * * * * * * * * * * * * * * * * * * * * * * * * * * * * * * * * * * * * * * * * * *   8 =.| | | | | | | | | %.Y s s d d d d d p E 2.1.1.1.1.1.1.1.1.1.1.1.1.2.2.1.1.1.1.-X%X$X$X-X$X$X$X@X#XsXpXpXpXpXpXpXpXpXjXwXeXyXeXeXeXeXyXyXyXyXyXeXeXeXeXyXyXD n N N N F F F F N N m ] +.X.X.X.X.X.X...:.8   : * * * * * * * * * * * * * * * * * * * * * * * * * * * * * * * * * * * * * * * * * * * * * * * * * * * * * * * * * * * * * * * * * * * * * * * * * * * ",
"* * * * * * * * * * * * * * * * * * * * * * * * * * * * * * * * * * * * * * * * * * * * * * * * * * * * * * * * * * * * * * * * * * * * * * * * * * * * % $ Y &.} %.%.| | | | | R &.R l p l l d d p c 3.1.1.1.1.1.1.1.1.1.1.1.1.1.2.1.1.,.>.%X$X;X;X$X;X;X$X@X#XsXpXpXpXpXpXpXpXpX~.jXwXeXyXeXeXeXeXeXyXyXyXyXyXeXeXuX=Xj F N N N F F F F m m ] O.X.X.X.X.X.X.X.O...# % * * * * * * * * * * * * * * * * * * * * * * * * * * * * * * * * * * * * * * * * * * * * * * * * * * * * * * * * * * * * * * * * * * * * * * * * * * * * ",
"* * * * * * * * * * * * * * * * * * * * * * * * * * * * * * * * * * * * * * * * * * * * * * * * * * * * * * * * * * * * * * * * * * * * * * * * * * * * *   4 =.| %.%.| | | | | | | &.%.l s l d d d p *.3.1.2.1.1.1.1.1.1.1.1.1.1.2.2.,.>.%X$X$X;X;X$X;X;X;X@X#XsXpXpXpXpXpXpXpXpXsXpXlXwXwXeXeXeXeXeXyXyXyXyXyXeXwXuX#.n F F F F F N N m F ..@.X.X.X.X.X.X.X.X.>.5   * * * * * * * * * * * * * * * * * * * * * * * * * * * * * * * * * * * * * * * * * * * * * * * * * * * * * * * * * * * * * * * * * * * * * * * * * * * * * ",
"* * * * * * * * * * * * * * * * * * * * * * * * * * * * * * * * * * * * * * * * * * * * * * * * * * * * * * * * * * * * * * * * * * * * * * * * * * * * * *   M =.} | | | | | | | | | &.R l p f d f p c 3.1.1.2.1.1.1.1.1.1.1.1.1.2.,.5.%X$X$X$X;X;X$X;X;X;X@X#XsXpXpXpXpXpXpXpXpXsXpXpX7XwXeXeXeXeXeXeXeXyXeXeXeXyXeXm m F N F N F N n G X.o.X.X.X.X.X.X.X.X.:.H O * * * * * * * * * * * * * * * * * * * * * * * * * * * * * * * * * * * * * * * * * * * * * * * * * * * * * * * * * * * * * * * * * * * * * * * * * * * * * * ",
"* * * * * * * * * * * * * * * * * * * * * * * * * * * * * * * * * * * * * * * * * * * * * * * * * * * * * * * * * * * * * * * * * * * * * * * * * * * * * * O < &.%.| | | | | | | | | | &.R l a l l l s ,.2.1.2.2.1.1.1.1.1.1.1.1.,.5.$X$X$X$X$X;X$X$X;X;X;X@X#XsXpXpXpXpXpXpXpXpXpXpXpXpX7XwXeXeXeXeXeXeXyXeXeXeXuX$.j F F N m F m n G @.o.X.X.X.X.X.X.X.X.o.:.< O * * * * * * * * * * * * * * * * * * * * * * * * * * * * * * * * * * * * * * * * * * * * * * * * * * * * * * * * * * * * * * * * * * * * * * * * * * * * * * ",
"* * * * * * * * * * * * * * * * * * * * * * * * * * * * * * * * * * * * * * * * * * * * * * * * * * * * * * * * * * * * * * * * * * * * * * * * * * * * * * * O g &.R | | | | | | | | %.| &.| l l l l p T 2.1.2.2.2.1.1.1.1.1.1.,.5.$X$X@X$X$X$X$X$X$X$X;X;X@X#XsXpXpXpXpXpXpXpXpXpXpXpXpXpXrXwXyXeXeXyXeXeXeXeXeXuX#.n F D F F N m H O.o.X.X.X.X.X.X.o.o.X.:.A   * * * * * * * * * * * * * * * * * * * * * * * * * * * * * * * * * * * * * * * * * * * * * * * * * * * * * * * * * * * * * * * * * * * * * * * * * * * * * * * ",
"* * * * * * * * * * * * * * * * * * * * * * * * * * * * * * * * * * * * * * * * * * * * * * * * * * * * * * * * * * * * * * * * * * * * * * * * * * * * * * * % # } &.| | | | | | | | | %.| %.%.x p f a p 1.2.1.1.1.1.1.1.1.1.,.5.$X$X$X@X$X$X$X$X$X$X$X;X;X@X#XsXpXpXpXpXpXpXsXpXpXpXpXpXpXpXrXwXeXeXyXeXeXeXeXyXyXN N F F F m m { O.X.o.o.X.X.o.X.X.o.o.O.+.* % * * * * * * * * * * * * * * * * * * * * * * * * * * * * * * * * * * * * * * * * * * * * * * * * * * * * * * * * * * * * * * * * * * * * * * * * * * * * * * * ",
"* * * * * * * * * * * * * * * * * * * * * * * * * * * * * * * * * * * * * * * * * * * * * * * * * * * * * * * * * * * * * * * * * * * * * * * * * * * * * * * *   7 =.R | | | | | | | %.%.%.| %.%.l p f p T 3.1.1.1.1.1.1.1.,.2.$X$X$X$X$X$X$X$X$X$X$X$X;X;X@X#XsXpXpXpXpXpXpXsXpXpXpXpXpXsXpXdXrXwXyXeXeXeXeXeXuX$.j F N D m N ..O.X.X.X.X.X.X.o.X.o.o.X.>.8   * & * * * * * * * * * * * * * * * * * * * * * * * * * * * * * * * * * * * * * * * * * * * * & * * * * * * * * * * * * * * * * * * * * * * * * * * * * * * * * * ",
"* * * * * * * * * * * * * * * * * * * * * * * * * * * * * * * * * * * * * * * * * * * * * * * * * * * * * * * * * * * * * * * * * * * * * * * * * * * * * * * * # O C &.} | | | | | | | | %.%.| *.%.l a d x 3.1.1.1.1.1.1.,.2.;X$X$X$X$X$X$X$X$X$X$X$X$X;X;X@X#XsXpXpXpXpXpXpXsXpXpXpXpXpXpXpXpXdXrXwXeXwXeXeXyXuXH n D D m G X.X.X.X.X.X.X.X.X.X.X.o.o.:.H O & * * * * * * * * * * * * * * * * * * * * * * * * * * * * * * * * * * * * * * * * * * * * * * * * * * * * * * * * * * * * * * * * * * * * * * * * * * * * * * * * ",
"* * * * * * * * * * * * * * * * * * * * * * * * * * * * * * * * * * * * * * * * * * * * * * * * * * * * * * * * * * * * * * * * * * * * * * * * * * * * * * * * * O 4 =.%.| | | | | | | | | | %.| %.%.c s s E 3.1.1.1.1.,.;.@X%X$X$X$X$X$X$X$X$X$X$X$X$X@X$X@X#XsXpXpXpXpXpXsXsXsXsXpXpXpXpXpXsXpXsXtXwXyXeXeXuXeXn m F m G @.o.X.X.X.X.X.X.X.X.X.X.o.O.>.5   * * * * * * * * * * * * * * * * * * * * * * * * * * * * * * * * * * * * * * * * * * * * * * * * * * * * * * * * * * * * * * * * * * * * * * * * * * * * * * * * * ",
"* * * * * * * * * * * * * * * * * * * * * * * * * * * * * * * * * * * * * * * * * * * * * * * * * * * * * * * * * * * * * * * * * * * * * * * * * * * * * * * * * :   j =.} | | | | | | | | | %.| | %.*.c p l 2.1.1.1.1.1.@X$X$X$X$X$X$X$X$X$X$X$X$X$X$X;X$X@X#XsXpXpXpXpXpXpXpXpXsXpXpXpXpXpXpXsXpXsXqXwXyXwXuX$.j D m ] O.X.X.X.X.X.X.X.X.X.X.X.o.X.:.F   * * * * * * * * * * * * * * * * * * * * * * * * * * * * * * * * * * * * * * * * * * * * * * * * * * * * * * * * * * * * * * * * * * * * * * * * * * * * * * * * * * ",
"* * * * * * * * * * * * * * * * * * * * * * * * * * * * * * * * * * * * * * * * * * * * * * * * * * * * * * * * * * * * * * * * * * * * * * * * * * * * * * * * * * O ; | %.| | | | | | | | | | %.%.| %.*.x p / 2.1.1.1.@X%X$X$X$X$X$X$X$X$X$X$X$X$X$X$X;X;X@X#XsXpXpXpXpXpXpXpXpXpXsXsXpXpXpXpXpXpXpXjXyXwXeXuXH n N { O.X.X.X.X.X.X.X.X.X.X.X.X.X.O.@.: $ * * * * * * * * * * * * * * * * * * * * * * * * * * * * * * * * * * * * * * * * * * * * * * * * * * * * * * * * * * * * * * * * * * * * * * * * * * * * * * * * * * ",
"* * * * * * * * * * * * * * * * * * * * * * * * * * * * * * * * * * * * * * * * * * * * * * * * * * * * * * * * * * * * * * * * * * * * * * * * * * * * * * * * * * *   8 =.| | | | | | | | | | | | | | %.%.l l 2.1.1.@X%X$X$X$X$X$X$X$X$X$X$X$X$X$X$X$X$X$X@X#XsXpXpXpXpXpXpXpXpXpXsXsXpXpXpXpXpXpXsXpXjXwXwXwXn D X.O.X.X.X.X.X.X.X.X.X.X.X.X.X.X.>.8   : * * * * * * * * * * * * * * * * * * * * * * * * * * * * * * * * * * * * * * * * * * * * * * * * * * * * * * * * * * * * * * * * * * * * * * * * * * * * * * * * * * ",
"* * * * * * * * * * * * * * * * * * * * * * * * * * * * * * * * * * * * * * * * * * * * * * * * * * * * * * * * * * * * * * * * * * * * * * * * * * * * * * * * * * * # X Y &.| %.%.| | | | | | | | | | } | %.c *.2.+X%X$X$X$X$X$X$X$X$X$X$X$X$X;X;X;X$X$X$X@X#XsXpXpXpXpXpXpXpXpXpXsXpXsXpXpXpXpXpXpXpXpX5XyX$.m @.O.o.o.o.X.X.X.X.X.X.X.X.X.X.X.:...$ % * * * * * * * * * * * * * * * * * * * * * * * * * * * * * * * * * * * * * * * * * * * * * * * * * * * * * * * * * * * * * * * * * * * * * * * * * * * * * * * * * * * ",
"* * * * * * * * * * * * * * * * * * * * * * * * * * * * * * * * * * * * * * * * * * * * * * * * * * * * * * * * * * * * * * * * * * * * * * * * * * * * * * * * * * * : O 4 -.| | %.| | | | | | | | | | | } %.%.E -X%X$X$X$X$X$X$X$X$X$X$X$X$X$X$X$X$X$X$X$X@X#XsXpXpXpXpXpXpXpXpXpXsXsXsXsXpXpXpXsXsXpXpXpXjXH ] X.X.o.o.o.X.X.X.X.X.X.X.X.X.X.X.>.5   * * * * * * * * * * * * * * * * * * * * * * * * * * * * * * * * * * * * * * * * * * * * * * * * * * * * * * * * * * * * * * * * * * * * * * * * * * * * * * * * * * * * ",
"* * * * * * * * * * * * * * * * * * * * * * * * * * * * * * * * * * * * * * * * * * * * * * * * * * * * * * * * * * * * * * * * * * * * * * * * * * * * * * * * * * * * * O M =.} | | | | | | | | | | | | | } %.B @.%X$X@X@X$X$X$X$X$X$X$X$X$X$X$X$X$X$X;X$X@X#XsXpXpXpXpXpXpXpXpXsXsXpXpXpXpXpXpXpXpXpXpXdXQ.}.`.+.o.X.X.X.X.o.X.X.X.X.X.X.X...:.H   * # * * * * * * * * * * * * * * * * * * * * * * * * * * * * * * * * * * * * * * * * * * * * * * * * * * * * * * * * * * * * * * * * * * * * * * * * * * * * * * * * * * * ",
"* * * * * * * * * * * * * * * * * * * * * * * * * * * * * * * * * * * * * * * * * * * * * * * * * * * * * * * * * * * * * * * * * * * * * * * * * * * * * * * * * * * * * O < =.&.| | | | | | | | | | | | | } } z n O.;X$X@X$X$X$X$X$X$X$X$X$X$X$X$X$X$X;X$X@X#XsXpXpXpXpXpXpXpXpXpXpXpXpXpXpXpXpXpXpXpXsXT.C.T.|..X.X`.`.o...X.X.X.X.X.X.X.X.o.:.< O * * * * * * * * * * * * * * * * * * * * * * * * * * * * * * * * * * * * * * * * * * * * * * * * * * * * * * * * * * * * * * * * * * * * * * * * * * * * * * * * * * * * * ",
"* * * * * * * * * * * * * * * * * * * * * * * * * * * * * * * * * * * * * * * * * * * * * * * * * * * * * * * * * * * * * * * * * * * * * * * * * * * * * * * * * * * * * *   g =.} | | | | | | | | | | | } | } z b ' O.;X$X$X$X$X$X$X$X$X$X$X$X$X$X-X;X;X$X@X#XsXpXpXpXpXpXpXpXpXpXpXpXpXpXpXsXpXpXsXsXT.j.J.E.'. X.X.X.X.X'.`.+... .X.X.o.X.:.8   * * * * * * * * * * * * * * * * * * * * * * * * * * * * * * * * * * * * * * * * * * * * * * * * * * * * * * * * * * * * * * * * * * * * * * * * * * * * * * * * * * * * * * ",
"* * * * * * * * * * * * * * * * * * * * * * * * * * * * * * * * * * * * * * * * * * * * * * * * * * * * * * * * * * * * * * * * * * * * * * * * * * * * * * * * * * * * * * # $ R &.| | | | | | | | | | | | &.Y z z ' [  .;X%X$X$X$X$X$X$X$X$X$X$X$X$X$X;X$X@X#XsXpXpXpXpXpXpXpXpXpXsXpXpXsXsXsXpXsXdXI.m.P.H.S.{.'. X X X X.X.X.X'.`.+.X...O...$ % * * * * * * * * * * * * * * * * * * * * * * * * * * * * * * * * * * * * * * * * * * * * * * * * * * * * * * * * * * * * * * * * * * * * * * * * * * * * * * * * * * * * * * ",
"* * * * * * * * * * * * * * * * * * * * * * * * * * * * * * * * * * * * * * * * * * * * * * * * * * * * * * * * * * * * * * * * * * * * * * * * * * * * * * * * * * * * * * *   7 -.| | | | | | | | | | | %.%.b v z V X.'  .$X%X@X$X$X$X$X$X$X$X$X$X$X$X$X$X@X#XsXpXpXpXpXpXpXpXpXpXsXpXpXpXpXpXdXsXI.m.L.C.H.G.U.'. X X X X X X X.X.X.X|.`.+X8 X : * * * * * * * * * * * * * * * * * * * * * * * * * * * * * * * * * * * * * * * * * * * * * * * * * * * * * * * * * * * * * * * * * * * * * * * * * * * * * * * * * * * * * * ",
"* * * * * * * * * * * * * * * * * * * * * * * * * * * * * * * * * * * * * * * * * * * * * * * * * * * * * * * * * * * * * * * * * * * * * * * * * * * * * * * * * * * * * * * * O Y =.} | | | | | | | | | %.Y z v z b { { ' [ #X:X@X$X$X$X$X$X$X$X$X$X$X@X$X@X#XsXpXpXpXpXpXpXpXpXpXsXsXsXpXpXdX5XN.M.P.M.H.H.G.Y.|. X X X X X X X X X.X X6XS X * * * * * * * * * * * * * * * * * * * * * * * * * * * * * * * * * * * * * * * * * * * * * * * * * * * * * * * * * * * * * * * * * * * * * * * * * * * * * * * * * * * * * * * * ",
"* * * * * * * * * * * * * * * * * * * * * * * * * * * * * * * * * * * * * * * * * * * * * * * * * * * * * * * * * * * * * * * * * * * * * * * * * * * * * * * * * * * * * * * * O 4 *.| | | | | | | | | } %.B v b v z '  .{ [ [ +X%X@X$X$X$X$X$X$X$X$X@X@X$X@X#XsXpXpXpXpXpXpXpXpXpXpXpXpXpXdX5XM.M.P.K.N.G.H.G.J.}.|. X X X X X X X X X.X X= $ * * * * * * * * * * * * * * * * * * * * * * * * * * * * * * * * * * * * * * * * * * * * * * * * * * * * * * * * * * * * * * * * * * * * * * * * * * * * * * * * * * * * * * * * ",
"* * * * * * * * * * * * * * * * * * * * * * * * * * * * * * * * * * * * * * * * * * * * * * * * * * * * * * * * * * * * * * * * * * * * * * * * * * * * * * * * * * * * * * * * *   j =.} | | | | | | | | %.b v b v z B { [ ] ] ' >.;X$X$X$X$X$X$X$X$X$X$X$X@X#XsXpXpXpXpXpXpXpXpXsXsXsXpXdX!.m.M.P.P.K.C.G.S.S.G.U.'. X X X X X X X X X&Xe   > * * * * * * * * * * * * * * * * * * * * * * * * * * * * * * * * * * * * * * * * * * * * * * * * * * * * * * * * * * * * * * * * * * * * * * * * * * * * * * * * * * * * * * * * ",
"* * * * * * * * * * * * * * * * * * * * * * * * * * * * * * * * * * * * * * * * * * * * * * * * * * * * * * * * * * * * * * * * * * * * * * * * * * * * * * * * * * * * * * * * * O ; } %.} | | | | | | %.Y z v v b v v ' { [ { [ ' >.:X$X$X$X$X$X$X$X$X$X$X@X#XsXpXpXpXpXpXpXpXpXsXsXsXdX!.m.N.P.M.P.N.H.H.H.A.A.I.'. X X X X X X.X X&Xz.@ * - * * * * * * * * * * * * * * * * * * * * * * * * * * * * * * * * * * * * * * * * * * * * * * * * * * * * * * * * * * * * * * * * * * * * * * * * * * * * * * * * * * * * * * * * ",
"* * * * * * * * * * * * * * * * * * * * * * * * * * * * * * * * * * * * * * * * * * * * * * * * * * * * * * * * * * * * * * * * * * * * * * * * * * * * * * * * * * * * * * * * * *   8 =.R | | | | | | %.B z v v v v z V { [ [ { { ' :.:X$X$X$X$X$X$X$X$X$X@X#XsXpXiXpXpXpXpXpXpXsXsXdXT.m.L.L.N.M.L.C.J.H.H.G.A.R. X|. X X X X X X X&X5 X * * * * * * * * * * * * * * * * * * * * * * * * * * * * * * * * * * * * * * * * * * * * * * * * * * * * * * * * * * * * * * * * * * * * * * * * * * * * * * * * * * * * * * * * * * ",
"* * * * * * * * * * * * * * * * * * * * * * * * * * * * * * * * * * * * * * * * * * * * * * * * * * * * * * * * * * * * * * * * * * * * * * * * * * * * * * * * * * * * * * * * * * % $ Y &.} | | | | %.R h v v v v v z B  .{ [ { { { ' O.:X$X$X$X$X$X$X$X$X@X#XsXpXiXpXpXpXpXpXpXsXdXT.m.L.P.L.L.P.L.J.H.H.H.H.A.H.b.'. X X X X X X&XS   - * * * * * * * * * * * * * * * * * * * * * * * * * * * * * * * * * * * * * * * * * * * * * * * * * * * * * * * * * * * * * * * * * * * * * * * * * * * * * * * * * * * * * * * * * * ",
"* * * * * * * * * * * * * * * * * * * * * * * * * * * * * * * * * * * * * * * * * * * * * * * * * * * * * * * * * * * * * * * * * * * * * * * * * * * * * * * * * * * * * * * * * * *   4 =.| | | | R %.Y h v v v v v v v ' { { { [ [ { ' O.;X$X$X$X$X$X$X$X@X#XsXpXiXpXpXpXsXpXsXdXT.m.P.P.L.P.N.L.P.H.S.A.H.H.H.G.I.'. X X X X X.X.X, O - * * * * * * * * * * * * * * * * * * * * * * * * * * * * * * * * * * * * * * * * * * * * * * * * * * * * * * * * * * * * * * * * * * * * * * * * * * * * * * * * * * * * * * * * * * ",
"* * * * * * * * * * * * * * * * * * * * * * * * * * * * * * * * * * * * * * * * * * * * * * * * * * * * * * * * * * * * * * * * * * * * * * * * * * * * * * * * * * * * * * * * * * * *   V =.R | | | | B v b v v v v b v V  .[ { { { { { '  .;X:X$X$X$X$X$X@X#XsXpXiXpXpXpXsXdXsXI.m.L.L.P.P.N.L.L.C.A.S.A.H.H.H.G.E. X X X X X X&Xe   - * * * * * * * * * * * * * * * * * * * * * * * * * * * * * * * * * * * * * * * * * * * * * * * * * * * * * * * * * * * * * * * * * * * * * * * * * * * * * * * * * * * * * * * * * * * ",
"* * * * * * * * * * * * * * * * * * * * * * * * * * * * * * * * * * * * * * * * * * * * * * * * * * * * * * * * * * * * * * * * * * * * * * * * * * * * * * * * * * * * * * * * * * * * O < %.} R R %.R v b v v v v v v v v [ { { { { { { { ' [ $X%X$X$X;X;X@X#XsXpXiXpXsXpXdXsXN.m.L.L.L.L.L.L.L.L.H.A.A.A.H.H.H.G.J.}.'. X X X.X_.$ $ * * * * * * * * * * * * * * * * * * * * * * * * * * * * * * * * * * * * * * * * * * * * * * * * * * * * * * * * * * * * * * * * * * * * * * * * * * * * * * * * * * * * * * * * * * * * ",
"* * * * * * * * * * * * * * * * * * * * * * * * * * * * * * * * * * * * * * * * * * * * * * * * * * * * * * * * * * * * * * * * * * * * * * * * * * * * * * * * * * * * * * * * * * * * :   g =.R R *.Y v b v v v v v v b v G  .{ { { { { { { ' [ #X:X$X;X;X@X#XsXpXsXsXpXdX5XN.m.L.L.L.L.L.L.L.L.B.H.A.A.A.G.H.H.H.G.U.'. X X X&X5   > * & * * * * * * * * * * * * * * * * * * * * * * * * * * * * * * * * * * * * * * * * * * * * * * * * * * * * * * * * * * * * * * * * * * * * * * * * * * * * * * * * * * * * * * * * * * ",
"* * * * * * * * * * * * * * * * * * * * * * * * * * * * * * * * * * * * * * * * * * * * * * * * * * * * * * * * * * * * * * * * * * * * * * * * * * * * * * * * * * * * * * * * * * * * * % # } &.%.| v v v v v v v b b b z M { [ { { { { { { { [ [ +X:X-X;X@X#XsXpXsXpXdX5Xm.M.P.L.L.L.L.L.L.L.L.C.S.S.S.H.H.H.H.H.G.Y.). X_.&Xk.X * * * * * * * * * * * * * * * * * * * * * * * * * * * * * * * * * * * * * * * * * * * * * * * * * * * * * * * * * * * * * * * * * * * * * * * * * * * * * * * * * * * * * * * * * * * * * * ",
"* * * * * * * * * * * * * * * * * * * * * * * * * * * * * * * * * * * * * * * * * * * * * * * * * * * * * * * * * * * * * * * * * * * * * * * * * * * * * * * * * * * * * * * * * * * * * *   8 =.| Y v b b b b b b v v v v v [ { { { { { { { { [ [ [ +X:X$X@X#XsXpXsXdX!.m.M.L.L.L.L.L.L.L.L.L.L.H.S.S.S.H.H.H.H.H.H.S.}.'. X*X2 $ * * * # * * * * * * * * * * * * * * * * * * * * * * * * * * * * * * * * * * * * * * * * * * * * * * * * * * * * * * * * * * * * * * * * * * * * * * * * * * * * * * * * * * * * * * * * * * ",
"* * * * * * * * * * * * * * * * * * * * * * * * * * * * * * * * * * * * * * * * * * * * * * * * * * * * * * * * * * * * * * * * * * * * * * * * * * * * * * * * * * * * * * * * * * * * * * * X C &.b v b b v b v v b b b b z V  .{ { { { { { { { { [ ' >.:X@X#XsXpXdX!.m.N.L.L.L.L.L.L.L.L.L.K.C.H.A.G.H.H.H.H.H.H.H.G.U.'.&XS   > * * * * * * * * * * * * * * * * * * * * * * * * * * * * * * * * * * * * * * * * * * * * * * * * * * * * * * * * * * * * * * * * * * * * * * * * * * * * * * * * * * * * * * * * * * * * * * ",
"* * * * * * * * * * * * * * * * * * * * * * * * * * * * * * * * * * * * * * * * * * * * * * * * * * * * * * * * * * * * * * * * * * * * * * * * * * * * * * * * * * * * * * * * * * * * * * * O 4 %.v v v b b v v v v v v v h b  .{ { { { { { { { { {  .' O.:X;XsXdXT.m.N.L.L.L.L.L.L.L.L.L.L.L.Z.H.S.G.H.H.H.H.H.H.H.G.C.'. X= $ * * * * * * * * * * * * * * * * * * * * * * * * * * * * * * * * * * * * * * * * * * * * * * * * * * * * * * * * * * * * * * * * * * * * * * * * * * * * * * * * * * * * * * * * * * * * * * * ",
"* * * * * * * * * * * * * * * * * * * * * * * * * * * * * * * * * * * * * * * * * * * * * * * * * * * * * * * * * * * * * * * * * * * * * * * * * * * * * * * * * * * * * * * * * * * * * * * * o 8 B v v v b v v v v v v v b v ' { { { { { { { { { [ [ ] ' :.:XgXT.m.N.L.L.L.L.L.L.L.L.L.L.L.P.S.A.A.G.H.H.H.H.H.H.H.H.A.&Xe   > * * * * * * * * * * * * * * * * * * * * * * * * * * * * * * * * * * * * * * * * * * * * * * * * * * * * * * * * * * * * * * * * * * * * * * * * * * * * * * * * * * * * * * * * * * * * * * * ",
"* * * * * * * * * * * * * * * * * * * * * * * * * * * * * * * * * * * * * * * * * * * * * * * * * * * * * * * * * * * * * * * * * * * * * * * * * * * * * * * * * * * * * * * * * * * * * * * * % ; b b v v v v v v v v v v b v V { { { { { { { { { [ [ [ [ ' @.T.m.L.N.L.L.L.L.L.L.L.L.L.L.K.C.A.A.S.G.H.H.H.H.H.H.H.H.J.U.& & * * * * * * * * * * * * * * * * * * * * * * * * * * * * * * * * * * * * * * * * * * * * * * * * * * * * * * * * * * * * * * * * * * * * * * * * * * * * * * * * * * * * * * * * * * * * * * * * ",
"* * * * * * * * * * * * * * * * * * * * * * * * * * * * * * * * * * * * * * * * * * * * * * * * * * * * * * * * * * * * * * * * * * * * * * * * * * * * * * * * * * * * * * * * * * * * * * * * * O 4 B b v v v v v v v v v v v b ] { [ { [ { { { { { { { { [ ] m.N.L.L.L.L.L.L.L.L.L.L.L.L.L.S.A.A.A.H.G.H.H.H.H.H.H.H.W.3 X - * * * * * * * * * * * * * * * * * * * * * * * * * * * * * * * * * * * * * * * * * * * * * * * * * * * * * * * * * * * * * * * * * * * * * * * * * * * * * * * * * * * * * * * * * * * * * * * * ",
"* * * * * * * * * * * * * * * * * * * * * * * * * * * * * * * * * * * * * * * * * * * * * * * * * * * * * * * * * * * * * * * * * * * * * * * * * * * * * * * * * * * * * * * * * * * * * * * * * * O 7 B v v b v v b v v v v v v G { [ { { { { { { { { { { [ ] K.N.L.L.L.L.L.L.L.L.L.L.L.K.I.G.S.S.A.G.H.H.H.H.H.H.A.W.w   * * * * * * * * * * * * * * * * * * * * * * * * * * * * * * * * * * * * * * * * * * * * * * * * * * * * * * * * * * * * * * * * * * * * * * * * * * * * * * * * * * * * * * * * * * * * * * * * * * ",
"* * * * * * * * * * * * * * * * * * * * * * * * * * * * * * * * * * * * * * * * * * * * * * * * * * * * * * * * * * * * * * * * * * * * * * * * * * * * * * * * * * * * * * * * * * * * * * * * * * # # g b h v v b v v v v v v v b { { { { { { { { { { { { [ [ L.N.L.L.L.L.L.L.L.L.L.L.L.K.Z.G.A.S.S.A.G.H.H.H.H.G.R.u   * * * * * * * * * * * * * * * * * * * * * * * * * * * * * * * * * * * * * * * * * * * * * * * * * * * * * * * * * * * * * * * * * * * * * * * * * * * * * * * * * * * * * * * * * * * * * * * * * * * ",
"* * * * * * * * * * * * * * * * * * * * * * * * * * * * * * * * * * * * * * * * * * * * * * * * * * * * * * * * * * * * * * * * * * * * * * * * * * * * * * * * * * * * * * * * * * * * * * * * * * * O ; B b v v v v v b v v v b v '  .{ { { { { { { { { [ [ { P.N.L.L.L.L.L.L.L.L.L.L.L.I.H.G.S.S.S.G.G.H.H.H.G.H.E.= X - * * * * * * * * * * * * * * * * * * * * * * * * * * * * * * * * * * * * * * * * * * * * * * * * * * * * * * * * * * * * * * * * * * * * * * * * * * * * * * * * * * * * * * * * * * * * * * * * * * ",
"* * * * * * * * * * * * * * * * * * * * * * * * * * * * * * * * * * * * * * * * * * * * * * * * * * * * * * * * * * * * * * * * * * * * * * * * * * * * * * * * * * * * * * * * * * * * * * * * * * * * O 7 B b v v v v b v v v b z V  .{ { { [ { { { { { { [ { K.N.L.L.L.L.L.L.L.L.L.L.L.Y.G.A.G.H.H.H.G.S.S.H.S.W.q X - * * * * * * * * * * * * * * * * * * * * * * * * * * * * * * * * * * * * * * * * * * * * * * * * * * * * * * * * * * * * * * * * * * * * * * * * * * * * * * * * * * * * * * * * * * * * * * * * * * * ",
"* * * * * * * * * * * * * * * * * * * * * * * * * * * * * * * * * * * * * * * * * * * * * * * * * * * * * * * * * * * * * * * * * * * * * * * * * * * * * * * * * * * * * * * * * * * * * * * * * * * * & o 8 B v b v v v v v v b v b { { { [ [ { { { { [ { [ { K.N.L.L.L.L.L.L.L.L.L.L.L.H.H.A.H.H.H.H.G.S.S.A.R.r X * * * * * * * * * * * * * * * * * * * * * * * * * * * * * * * * * * * * * * * * * * * * * * * * * * * * * * * * * * * * * * * * * * * * * * * * * * * * * * * * * * * * * * * * * * * * * * * * * * * * * ",
"* * * * * * * * * * * * * * * * * * * * * * * * * * * * * * * * * * * * * * * * * * * * * * * * * * * * * * * * * * * * * * * * * * * * * * * * * * * * * * * * * * * * * * * * * * * * * * * * * * * * * % # h b v v v v v v v b b v ' { [ { { { { { [ [ { { [ K.N.L.L.L.L.L.L.L.L.L.L.B.H.H.H.H.H.H.H.G.A.A.R.D.@ & - * & * * * * * * * * * * * * * * * * * * * * * * * * * * * * * * * * * * * * * * * * * * * * * * * * * * * * * * * * * * * * * * * * * * * * * * * * * * * * * * * * * * * * * * * * * * * * * * * * * * ",
"* * * * * * * * * * * * * * * * * * * * * * * * * * * * * * * * * * * * * * * * * * * * * * * * * * * * * * * * * * * * * * * * * * * * * * * * * * * * * * * * * * * * * * * * * * * * * * * * * * * & * * O < B v v v v v v b b b v V  .{ { { [ { { { [ { { ] K.N.L.L.L.L.L.L.L.L.L.K.C.G.H.H.H.H.H.H.H.S.S.E.2 X - * * & * * * * * * * * * * * * * * * * * * * * * * * * * * * * * * * * * * * * * * * * * * * * * * * * * * * * * * * * * * * * * * * * * * * * * * * * * * * * * * * * * * * * * * * * * * * * * * * * * * ",
"* * * * * * * * * * * * * * * * * * * * * * * * * * * * * * * * * * * * * * * * * * * * * * * * * * * * * * * * * * * * * * * * * * * * * * * * * * * * * * * * * * * * * * * * * * * * * * * * * * * * & * * O 7 B v v v v v v b b b v ] { { { [ [ { { { { [ [ K.N.L.L.L.L.L.L.P.P.L.L.S.A.S.H.H.S.H.H.H.S.W.w X - * * * * * * * * * * * * * * * * * * * * * * * * * * * * * * * * * * * * * * * * * * * * * * * * * * * * * * * * * * * * * * * * * * * * * * * * * * * * * * * * * * * * * * * * * * * * * * * * * * * * * * ",
"* * * * * * * * * * * * * * * * * * * * * * * * * * * * * * * * * * * * * * * * * * * * * * * * * * * * * * * * * * * * * * * * * * * * * * * * * * * * * * * * * * * * * * * * * * * * * * * * * * * * * * * % $ g b v v v v v v v b v G { [ { { { { { [ { [ { K.N.L.L.L.L.L.L.P.P.L.I.H.A.G.H.H.H.H.H.A.R.t X * * * * * * * * * * * * * * * * * * * * * * * * * * * * * * * * * * * * * * * * * * * * * * * * * * * * * * * * * * * * * * * * * * * * * * * * * * * * * * * * * * * * * * * * * * * * * * * * * * * * * * * * ",
"* * * * * * * * * * * * * * * * * * * * * * * * * * * * * * * * * * * * * * * * * * * * * * * * * * * * * * * * * * * * * * * * * * * * * * * * * * * * * * * * * * * * * * * * * * * * * * * * * * * * * * * * # ; b b v v v v v v v v M { ] [ [ { { [ [ { [ [ K.N.L.L.L.L.L.L.P.L.L.Z.G.H.H.H.H.H.H.G.H.J.% $ : * * * * * * * * * * * * * * * * * * * * * * * * * * * * * * * * * * * * * * * * * * * * * * * * * * * * * * * * * * * * * * * * * * * * * * * * * * * * * * * * * * * * * * * * * * * * * * * * * * * * * * * ",
"* * * * * * * * * * * * * * * * * * * * * * * * * * * * * * * * * * * * * * * * * * * * * * * * * * * * * * * * * * * * * * * * * * * * * * * * * * * * * * * * * * * * * * * * * * * * * * * * * * * * * * * * * O 4 B v v v v v v v v v ] { [ [ [ { { [ { [ { L.N.L.L.L.L.L.L.P.L.P.H.G.H.H.H.H.H.H.S.W.3 X * & * * * * * * * * * * * * * * * * * * * * * * * * * * * * * * * * * * * * * * * * * * * * * * * * * * * * * * * * * * * * * * * * * * * * * * * * * * * * * * * * * * * * * * * * * * * * * * * * * * * * * * * ",
"* * * * * * * * * * * * * * * * * * * * * * * * * * * * * * * * * * * * * * * * * * * * * * * * * * * * * * * * * * * * * * * * * * * * * * * * * * * * * * * * * * * * * * * * * * * * * * * * * * * * * * * * * * O 7 B v v v v v v b v V  .[ [ [ { [ [ { [ { K.N.L.L.L.L.L.L.P.L.C.G.H.H.H.H.H.H.S.W.r X * * * * * * * * * * * * * * * * * * * * * * * * * * * * * * * * * * * * * * * * * * * * * * * * * * * * * * * * * * * * * * * * * * * * * * * * * * * * * * * * * * * * * * * * * * * * * * * * * * * * * * * * * * ",
"* * * * * * * * * * * * * * * * * * * * * * * * * * & * * * * * * * * * * * * * * * * * * * * * * * * * * * * * * * * * * * * * * * * * * * * * * * * * * * * * * * * * * * * * * * * * * * * * * * * * * * * * * * % # h B v v v v v v v v ] [ [ [ [ [ { { [ { K.N.L.L.L.L.L.L.L.L.H.G.H.H.H.H.H.A.R.D.X & * * * * * * * * * * * * * * * * * * * * * * * * * * * * * * * * * * * * * * * * * * * * * * * * * * * * * * * * * * * * * * * * * * * * * * * * * * * * * * * * * * * * * * * * * * * * * * * * * * * * * * * * * * ",
"* * * * * * * * * * * * * * * * * * * * * * * * * * & * * * * * * * * * * * * * * * * * * * * * * * * * * * * * * * * * * * * * * * * * * * * * * * * * * * * * * * * * * * * * * * * * * * * * * * * * * * * * * * * O < b b v v v v v v v G { [ [ [ [ { { [ { K.N.L.L.L.L.L.P.L.I.G.G.H.H.H.H.H.S.E., @ - & * * * * * * * * * * * * * * * * * * * * * * * * * * * * * * * * * * * * * * * * * * * * * * * * * * * * * * * * * * * * * * * * * * * * * * * * * * * * * * * * * * * * * * * * * * * * * * * * * * * * * * * * * ",
"* * * * * * * * * * * * * * * * * * * * * * * * * * * * * * * * * * * * * * * * * * * * * * * * * * * * * * * * * * * * * * * * * * * * * * * * * * * * * * * * * * * * * * * * * * * * * * * * * * * * * * * * * * * * O 4 B v b b v v b v V { [ [ [ [ { { [ ] K.N.L.L.L.L.L.L.L.Y.H.H.H.H.H.H.G.W.w   - & & * * * * * * * * * * * * * * * * * * * * * * * * * * * * * * * * * * * * * * * * * * * * * * * * * * * * * * * * * * * * * * * * * * * * * * * * * * * * * * * * * * * * * * * * * * * * * * * * * * * * * * * * * ",
"* * * * * * * * * * * * * * * * * * * * * * * * * * * * * * * * * * * * * * * * * * * * * * * * * * * * * * * * * * * * * * * * * * * * * * * * * * * * * * * * * * * * * * * * * * * * * * * * * * * * * * * * * * * * # O g B v b b b v v b ] { [ [ [ { { [ ] K.N.L.L.L.L.L.L.L.H.H.H.H.S.H.G.E.u X * * & * * * * * * * * * * * * * * * * * * * * * * * * * * * * * * * * * * * * * * * * * * * * * * * * * * * * * * * * * * * * * * * * * * * * * * * * * * * * * * * * * * * * * * * * * * * * * * * * * * * * * * * * * * ",
"* * * * * * * * * * * * * * * * * * * * * * * * * * * * * * * * * * * * * * * * * * * * * * * * * * * * * * * * * * * * * * * * * * * * * * * * * * * * * * * * * * * * * * * * * * * * * * * * * * * * * * & * * * * * * % ; v b b v b v v v G { [ [ [ [ { [ ] L.N.L.L.L.L.L.L.I.H.H.H.H.H.G.R.J.# X * * * * * * * * * * * * * * * * * * * * * * * * * * * * * * * * * * * * * * * * * * * * * * * * * * * * * * * * * * * * * * * * * * * * * * * * * * * * * * * * * * * * * * * * * * * * * * * * * * * * * * * * * * * * * ",
"* * * * * * * * * * * * * * * * * * * * * * * * * * * * * * * * * * * * * * * * * * * * * * * * * * * * * * * * * * * * * * * * * * * * * * * * * * * * * * * * * * * * * * * * * * * * * * * * * * * * * * * * * * * * * * O 4 B b v v b v v M ] [ [ [ [ { [ ] L.N.L.L.L.L.L.K.Z.H.H.H.H.H.H.W.3 X * & * * * * * * * * * * * * * * * * * * * * * * * * * * * * * * * * * * * * * * * * * * * * * * * * * * * * * * * * * * * * * * * * * * * * * * * * * * * * * * * * * * * * * * * * * * * * * * * * * * * * * * * * * * * * ",
"* * * * * * * * * * * * * * * * * * * * * * * * * * * * * * * * * * * * * * * * * * * * * * * * * * * * * * * * * * * * * * * * * * * * * * * * * * * * * * * * * * * * * * * * * * * * * * * * * * * * * * * * * * * * * * * o 7 B v v v v v v ] { [ [ [ { [ ] K.N.L.L.L.L.L.L.S.S.H.H.H.G.W.r   - * & * * * * * * * * * * * * * * * * * * * * * * * * * * * * * * * * * * * * * * * * * * * * * * * * * * * * * * * * * * * * * * * * * * * * * * * * * * * * * * * * * * * * * * * * * * * * * * * * * * * * * * * * * * * * ",
"* * * * * * * * * * * * * * * * * * * * * * * * * * * * * * * * * * * * * * * * * * * * * * * * * * * * * * * * * * * * * * * * * * * * * * * * * * * * * * * * * * * * * * * * * * * * * * * * * * * * * * * * * * * * * * * % # h b v v v v z G { [ [ [ { [ { K.N.L.L.L.L.K.C.H.S.H.H.G.R.F.@ & * * * * * * * * * * * * * * * * * * * * * * * * * * * * * * * * * * * * * * * * * * * * * * * * * * * * * * * * * * * * * * * * * * * * * * * * * * * * * * * * * * * * * * * * * * * * * * * * * * * * * * * * * * * * * * * ",
"* * * * * * * * * * * * * * * * * * * * * * * * * * * * * * * * * * * * * * * * * * * * * * * * * * * * * * * * * * * * * * * * * * * * * * * * * * * * * * * * * * * * * * * * * * * * * * * * * * * * * * * * * * * * * * * * O ; b v v v v v b { [ [ [ { { { K.N.L.L.L.L.L.Z.G.G.G.G.S.E., X - * * * * * * * * * * * * * * * * * * * * * * * * * * * * * * * * * * * * * * * * * * * * * * * * * * * * * * * * * * * * * * * * * * * * * * * * * * * * * * * * * * * * * * * * * * * * * * * * * * * * * * * * * * * * * * * ",
"* * * * * * * * * * * * * * * * * * * * * * * * * * * * * * * * * * * * * * & & * * * * * * * * * * * * * * * * * * * * * * * * * * * * * * * * * * * * * * * * * * * * * * * * * * * * * * * * * * * * * * * * * * * * * * * * * O 4 B v v v v z ' { [ [ [ [ { K.N.L.L.L.K.I.H.G.G.G.A.W.w   - * * * * * * * * * * * * * * * * * * * * * * * * * * * * * * * * * * * * * * * * * * * * * * * * * * * * * * * * * * * * * * * * * * * * * * * * * * * * * * * * * * * * * * * * * * * * * * * * * * * * * * * * * * * * * * * * ",
"* * * * * * * * * * * * * * * * * * * * * * * * * * * * * * * * * * * * * * * * * * * * * * * * * * * * * * * * * * * * * * * * * * * * * * * * * * * * * * * * * * * * * * * * * * * * * * * * * * * * * * * * * * * * * * * * * * o g b v v v h V { [ [ { [ ] K.N.L.L.L.K.C.H.S.G.G.W.t   * * * * * * * * * * * * * * * * * * * * * * * * * * * * * * * * * * * * * * * * * * * * * * * * * * * * * * * * * * * * * * * * * * * * * * * * * * * * * * * * * * * * * * * * * * * * * * * * * * * * * * * * * * * * * * * * * * ",
"* * * * * * * * * * * * * * * * * * * * * * * * * * * * * * * * * * * * * * * * * * * * * * * * * * * * * * * * * * * * * * * * * * * * * * * * * * * * * * * * * * * * * * * * * * * * * * * * * * * * * * * * * * * * * * * * * * % ; b b v v h b ] [ [ { [ ] K.N.L.L.L.M.Z.S.S.G.H.J.% $ * & * * * * * * * * * * * * * * * * * * * * * * * * * * * * * * * * * * * * * * * * * * * * * * * * * * * * * * * * * * * * * * * * * * * * * * * * * * * * * * * * * * * * * * * * * * * * * * * * * * * * * * * * * * * * * * * * ",
"* * * * * * * * * * * * * * * * * * * * * * * * * * * * * * * * * * * * * * * * * * * * * * * * * * * * * * * * * * * * * * * * * * * * * * * * * * * * * * * * * * * * * * * * * * * * * * * * * * * * * * * * * * * * * * * * * * * O 4 B v v h v G { [ { [ ] K.N.L.L.L.B.H.S.S.G.W.3 X - * * * * * * * * * * * * * * * * * * * * * * * * * * * * * * * * * * * * * * * * * * * * * * * * * * * * * * * * * * * * * * * * * * * * * * * * * * * * * * * * * * * * * * * * * * * * * * * * * * * * * * * * * * * * * * * * * * ",
"* * * * * * * * * * * * * * * * * * * * * * * * * * * * * * * * * * * * * * * * * * * * * * * * * * * * * * * * * * * * * * * * * * * * * * * * * * * * * * * * * * * * * * * * * * * * * * * * * * * * * * * * * * * * * * * * * * * * O 7 B h v v M { [ [ [ ] K.N.L.L.L.C.H.H.A.W.r X - * * * * * * * * * * * * * * * * * * * * * * * * * * * * * * * * * * * * * * * * * * * * * * * * * * * * * * * * * * * * * * * * * * * * * * * * * * * * * * * * * * * * * * * * * * * * * * * * * * * * * * * * * * * * * * * * * * * ",
"* * * * * * * * * * * * * * * * * * * * * * * * * * * * * * * * * * * * * * * * * * * * * * * * * * * * * * * * * * * * * * * * * * * * * * * * * * * * * * * * * * * * * * * * * * * * * * * * * * * * * * * * * * * * * * * * * * * * # # h b h v v ] { [ { ] K.N.L.M.M.S.H.H.R.F.X $ * & * * * * * * * * * * * * * * * * * * * * * * * * * * * * * * * * * * * * * * * * * * * * * * * * * * * * * * * * * * * * * * * * * * * * * * * * * * * * * * * * * * * * * * * * * * * * * * * * * * * * * * * * * * * * * * * * * * ",
"* * * * * * * * * * * * * * * * * * * * * * * * * * * * * * * * * * * * * * * * * * * * * * * * * * * * * * * * * * * * * * * * * * * * * * * * * * * * * * * * * * * * * * * * * * * * * * * * * * * * * * * * * * * * * * * * * * * * * O < b v v v G { [ [ ] K.N.L.K.B.G.H.H.E.2 @ - * * * * * * * * * * * * * * * * * * * * * * * * * * * * * * * * * * * * * * * * * * * * * * * * * * * * * * * * * * * * * * * * * * * * * * * * * * * * * * * * * * * * * * * * * * * * * * * * * * * * * * * * * * * * * * * * * * * * ",
"* * * * * * * * * * * * * * * * * * * * * * * * * * * * * * * * * * * * * * * * * * * * * * * * * * * * * * * * * * * * * * * * * * * * * * * * * * * * * * * * * * * * * * * * * * * * * * * * * * * * * * * * * * * * * * * * * * * * * * O 4 B v v M { ] [ ] K.N.L.L.C.G.A.W.w   - * * * * * * * * * * * * * * * * * * * * * * * * * * * * * * * * * * * * * * * * * * * * * * * * * * * * * * * * * * * * * * * * * * * * * * * * * * * * * * * * * * * * * * * * * * * * * * * * * * * * * * * * * * * * * * * * * * * * * ",
"* * * * * * * * * * * * * * * * * * * * * * * * * * * * * * * * * * * * * * * * * * * * * * * * * * * * * * * * * * * * * * * * * * * * * * * * * * * * * * * * * * * * * * * * * * * * * * * * * * * * * * * * * * * * * * * * * * * * * * # o g B v v [ { ] ] K.N.L.I.J.G.R.t   & * * * * * * * * * * * * * * * * * * * * * * * * * * * * * * * * * * * * * * * * * * * * * * * * * * * * * * * * * * * * * * * * * * * * * * * * * * * * * * * * * * * * * * * * * * * * * * * * * * * * * * * * * * * * * * * * * * * * * * ",
"* * * * * * * * * * * * * * * * * * * * * * * * * * * * * * * * * * * * * * * * * * * * * * * * * * * * * * * * * * * * * * * * * * * * * * * * * * * * * * * * * * * * * * * * * * * * * * * * * * * * * * * * * * * * * * * * * * * * * * * % ; b b z V { ] { P.N.K.C.G.R.J.= O - * * * * * * * * * * * * * * * * * * * * * * * * * * * * * * * * * * * * * * * * * * * * * * * * * * * * * * * * * * * * * * * * * * * * * * * * * * * * * * * * * * * * * * * * * * * * * * * * * * * * * * * * * * * * * * * * * * * * * * ",
"* * * * * * * * * * * * * * * * * * * * * * * * * * * * * * * * * * * * * * * * * * * * * * * * * * * * * * * * * * * * * * * * * * * * * * * * * * * * * * * * * * * * * * * * * * * * * * * * * * * * * * * * * * * * * * * * * * * * * * * * O 4 B v v ] [ ..I.N.K.Z.A.W.q X > * * * * * * * * * * * * * * * * * * * * * * * * * * * * * * * * * * * * * * * * * * * * * * * * * * * * * * * * * * * * * * * * * * * * * * * * * * * * * * * * * * * * * * * * * * * * * * * * * * * * * * * * * * * * * * * * * * * * * * * ",
"* * * * * * * * * * * * * * * * * * * * * * * * * * * * * * * * * * * * * * * * * * * * * * * * * * * * * * * * * * * * * * * * * * * * * * * * * * * * * * * * * * * * * * * * * * * * * * * * * * * * * * * * * * * * * * * * * * * * * * * * * O 7 b h G { { P.N.N.Z.R.y X > * - # * * * * * * * * * * * * * * * * * * * * * * * * * * * * * * * * * * * * * * * * * * * * * * * * * * * * * * * * * * * * * * * * * * * * * * * * * * * * * * * * * * * * * * * * * * * * * * * * * * * * * * * * * * * * * * * * * * * * * ",
"* * * * * * * * * * * * * * * * * * * * * * * * * * * * * * * * * * * * * * * * * * * * * * * * * * * * * * * * * * * * * * * * * * * * * * * * * * * * * * * * * * * * * * * * * * * * * * * * * * * * * * * * * * * * * * * * * * * * * * * & & % # g z D { ] K.N.C.R.D.X & - * * * * * * * * * * * * * * * * * * * * * * * * * * * * * * * * * * * * * * * * * * * * * * * * * * * * * * * * * * * * * * * * * * * * * * * * * * * * * * * * * * * * * * * * * * * * * * * * * * * * * * * * * * * * * * * * * * * * * * * * ",
"* * * * * * * * * * * * * * * * * * * * * * * * * * * * * * * * * * * * * * * * * * * * * * * * * * * * * * * * * * * * * * * * * * * * * * * * * * * * * * * * * * * * * * * * * * * * * * * * * * * * * * * * * * * * * * * * * * * * * * * * * * O < B n ] ] K.N.W.Q.2 X * & * * * * * * * * * * * * * * * * * * * * * * * * * * * * * * * * * * * * * * * * * * * * * * * * * * * * * * * * * * * * * * * * * * * * * * * * * * * * * * * * * * * * * * * * * * * * * * * * * * * * * * * * * * * * * * * * * * * * * * * * ",
"* * * * * * * * * * * * * * * * * * * * * * * * * * * * * * * * * * * * * * * * * * * * * * * * * * * * * * * * * * * * * * * * * * * * * * * * * * * * * * * * * * * * * * * * * * * * * * * * * * * * * * * * * * * * * * * * * * * * * * * * * * * O 7 B G ] j.N.W.r @ - & * * * * * * * * * * * * * * * * * * * * * * * * * * * * * * * * * * * * * * * * * * * * * * * * * * * * * * * * * * * * * * * * * * * * * * * * * * * * * * * * * * * * * * * * * * * * * * * * * * * * * * * * * * * * * * * * * * * * * * * * * ",
"* * * * * * * * * * * * * * * * * * * * * * * * * * * * * * * * * * * * * * * * * * * * * * * * * * * * * * * * * * * * * * * * * * * * * * * * * * * * * * * * * * * * * * * * * * * * * * * * * * * * * * * * * * * * * * * * * * * * * * * * * * * * # g Y ..m.R.D.@ : * # * * * * * * * * * * * * * * * * * * * * * * * * * * * * * * * * * * * * * * * * * * * * * * * * * * * * * * * * * * * * * * * * * * * * * * * * * * * * * * * * * * * * * * * * * * * * * * * * * * * * * * * * * * * * * * * * * * * * * * * * * ",
"* * * * * * * * * * * * * * * * * * * * * * * * * * * * * * * * * * * * * * * * * * * * * * * * * * * * * * * * * * * * * * * * * * * * * * * * * * * * * * * * * * * * * * * * * * * * * * * * * * * * * * * * * * * * * * * * * * * * * * * * * * * * O ; B O.I.E.= @ * * * * * * * * * * * * * * * * * * * * * * * * * * * * * * * * * * * * * * * * * * * * * * * * * * * * * * * * * * * * * * * * * * * * * * * * * * * * * * * * * * * * * * * * * * * * * * * * * * * * * * * * * * * * * * * * * * * * * * * * * * * * ",
"* * * * * * * * * * * * * * * * * * * * * * * * * * * * * * * * * * * * * * * * * * * * * * * * * * * * * * * * * * * * * * * * * * * * * * * * * * * * * * * * * * * * * * * * * * * * * * * * * * * * * * * * * * * * * * * * * * * * * * * * * * * * & o 4 [ 5Xw X - & * * * * * * * * * * * * * * * * * * * * * * * * * * * * * * * * * * * * * * * * * * * * * * * * * * * * * * * * * * * * * * * * * * * * * * * * * * * * * * * * * * * * * * * * * * * * * * * * * * * * * * * * * * * * * * * * * * * * * * * * * * * ",
"* * * * * * * * * * * * * * * * * * * * * * * * * * * * * * * * * * * * * * * * * * * * * * * * * * * * * * * * * * * * * * * * * * * * * * * * * * * * * * * * * * * * * * * * * * * * * * * * * * * * * * * * * * * * * * * * * * * * * * * * * * * * & *   e j.X * * & * * * * * * * * * * * * * * * * * * * * * * * * * * * * * * * * * * * * * * * * * * * * * * * * * * * * * * * * * * * * * * * * * * * * * * * * * * * * * * * * * * * * * * * * * * * * * * * * * * * * * * * * * * * * * * * * * * * * * * * * * * * ",
"* * * * * * * * * * * * * * * * * * * * * * * * * * * * * * * * * * * * * * * * * * * * * * * * * * * * * * * * * * * * * * * * * * * * * * * * * * * * * * * * * * * * * * * * * * * * * * * * * * * * * * * * * * * * * * * * * * * * * * * * * * * * * * $ > * @ * * * * * * * * * * * * * * * * * * * * * * * * * * * * * * * * * * * * * * * * * * * * * * * * * * * * * * * * * * * * * * * * * * * * * * * * * * * * * * * * * * * * * * * * * * * * * * * * * * * * * * * * * * * * * * * * * * * * * * * * * * * * * * ",
"* * * * * * * * * * * * * * * * * * * * * * * * * * * * * * * * * * * * * * * * * * * * * * * * * * * * * * * * * * * * * * * * * * * * * * * * * * * * * * * * * * * * * * * * * * * * * * * * * * * * * * * * * * * * * * * * * * * * * * * * * * * * * * * % % * * * * * * * * * * * * * * * * * * * * * * * * * * * * * * * * * * * * * * * * * * * * * * * * * * * * * * * * * * * * * * * * * * * * * * * * * * * * * * * * * * * * * * * * * * * * * * * * * * * * * * * * * * * * * * * * * * * * * * * * * * * * * * * ",
"* * * * * * * * * * * * * * * * * * * * * * * * * * * * * * * * * * * * * * * * * * * * * * * * * * * * * * * * * * * * * * * * * * * * * * * * * * * * * * * * * * * * * * * * * * * * * * * * * * * * * * * * * * * * * * * * * * * * * * * * * * * * * * * * * * * * * * * * * * * * * * * * * * * * * * * * * * * * * * * * * * * * * * * * * * * * * * * * * * * * * * * * * * * * * * * * * * * * * * * * * * * * * * * * * * * * * * * * * * * * * * * * * * * * * * * * * * * * * * * * * * * * * * * * * * * * * * * * ",
"* * * * * * * * * * * * * * * * * * * * * * * * * * * * * * * * * * * * * * * * * * * * * * * * * * * * * * * * * * * * * * * * * * * * * * * * * * * * * * * * * * * * * * * * * * * * * * * * * * * * * * * * * * * * * * * * * * * * * * * * * * * * * * * * * * * * * * * * * * * * * * * * * * * * * * * * * * * * * * * * * * * * * * * * * * * * * * * * * * * * * * * * * * * * * * * * * * * * * * * * * * * * * * * * * * * * * * * * * * * * * * * * * * * * * * * * * * * * * * * * * * * * * * * * * * * * * * * * ",
"* * * * * * * * * * * * * * * * * * * * * * * * * * * * * * * * * * * * * * * * * * * * * * * * * * * * * * * * * * * * * * * * * * * * * * * * * * * * * * * * * * * * * * * * * * * * * * * * * * * * * * * * * * * * * * * * * * * * * * * * * * * * * * * * * * * * * * * * * * * * * * * * * * * * * * * * * * * * * * * * * * * * * * * * * * * * * * * * * * * * * * * * * * * * * * * * * * * * * * * * * * * * * * * * * * * * * * * * * * * * * * * * * * * * * * * * * * * * * * * * * * * * * * * * * * * * * * * * ",
"* * * * * * * * * * * * * * * * * * * * * * * * * * * * * * * * * * * * * * * * * * * * * * * * * * * * * * * * * * * * * * * * * * * * * * * * * * * * * * * * * * * * * * * * * * * * * * * * * * * * * * * * * * * * * * * * * * * * * * * * * * * * * * * * * * * * * * * * * * * * * * * * * * * * * * * * * * * * * * * * * * * * * * * * * * * * * * * * * * * * * * * * * * * * * * * * * * * * * * * * * * * * * * * * * * * * * * * * * * * * * * * * * * * * * * * * * * * * * * * * * * * * * * * * * * * * * * * * ",
"* * * * * * * * * * * * * * * * * * * * * * * * * * * * * * * * * * * * * * * * * * * * * * * * * * * * * * * * * * * * * * * * * * * * * * * * * * * * * * * * * * * * * * * * * * * * * * * * * * * * * * * * * * * * * * * * * * * * * * * * * * * * * * * * * * * * * * * * * * * * * * * * * * * * * * * * * * * * * * * * * * * * * * * * * * * * * * * * * * * * * * * * * * * * * * * * * * * * * * * * * * * * * * * * * * * * * * * * * * * * * * * * * * * * * * * * * * * * * * * * * * * * * * * * * * * * * * * * ",
"* * * * * * * * * * * * * * * * * * * * * * * * * * * * * * * * * * * * * * * * * * * * * * * * * * * * * * * * * * * * * * * * * * * * * * * * * * * * * * * * * * * * * * * * * * * * * * * * * * * * * * * * * * * * * * * * * * * * * * * * * * * * * * * * * * * * * * * * * * * * * * * * * * * * * * * * * * * * * * * * * * * * * * * * * * * * * * * * * * * * * * * * * * * * * * * * * * * * * * * * * * * * * * * * * * * * * * * * * * * * * * * * * * * * * * * * * * * * * * * * * * * * * * * * * * * * * * * * ",
"* * * * * * * * * * * * * * * * * * * * * * * * * * * * * * * * * * * * * * * * * * * * * * * * * * * * * * * * * * * * * * * * * * * * * * * * * * * * * * * * * * * * * * * * * * * * * * * * * * * * * * * * * * * * * * * * * * * * * * * * * * * * * * * * * * * * * * * * * * * * * * * * * * * * * * * * * * * * * * * * * * * * * * * * * * * * * * * * * * * * * * * * * * * * * * * * * * * * * * * * * * * * * * * * * * * * * * * * * * * * * * * * * * * * * * * * * * * * * * * * * * * * * * * * * * * * * * * * ",
"* * * * * * * * * * * * * * * * * * * * * * * * * * * * * * * * * * * * * * * * * * * * * * * * * * * * * * * * * * * * * * * * * * * * * * * * * * * * * * * * * * * * * * * * * * * * * * * * * * * * * * * * * * * * * * * * * * * * * * * * * * * * * * * * * * * * * * * * * * * * * * * * * * * * * * * * * * * * * * * * * * * * * * * * * * * * * * * * * * * * * * * * * * * * * * * * * * * * * * * * * * * * * * * * * * * * * * * * * * * * * * * * * * * * * * * * * * * * * * * * * * * * * * * * * * * * * * * * ",
"* * * * * * * * * * * * * * * * * * * * * * * * * * * * * * * * * * * * * * * * * * * * * * * * * * * * * * * * * * * * * * * * * * * * * * * * * * * * * * * * * * * * * * * * * * * * * * * * * * * * * * * * * * * * * * * * * * * * * * * * * * * * * * * * * * * * * * * * * * * * * * * * * * * * * * * * * * * * * * * * * * * * * * * * * * * * * * * * * * * * * * * * * * * * * * * * * * * * * * * * * * * * * * * * * * * * * * * * * * * * * * * * * * * * * * * * * * * * * * * * * * * * * * * * * * * * * * * * ",
"* * * * * * * * * * * * * * * * * * * * * * * * * * * * * * * * * * * * * * * * * * * * * * * * * * * * * * * * * * * * * * * * * * * * * * * * * * * * * * * * * * * * * * * * * * * * * * * * * * * * * * * * * * * * * * * * * * * * * * * * * * * * * * * * * * * * * * * * * * * * * * * * * * * * * * * * * * * * * * * * * * * * * * * * * * * * * * * * * * * * * * * * * * * * * * * * * * * * * * * * * * * * * * * * * * * * * * * * * * * * * * * * * * * * * * * * * * * * * * * * * * * * * * * * * * * * * * * * ",
"* * * * * * * * * * * * * * * * * * * * * * * * * * * * * * * * * * * * * * * * * * * * * * * * * * * * * * * * * * * * * * * * * * * * * * * * * * * * * * * * * * * * * * * * * * * * * * * * * * * * * * * * * * * * * * * * * * * * * * * * * * * * * * * * * * * * * * * * * * * * * * * * * * * * * * * * * * * * * * * * * * * * * * * * * * * * * * * * * * * * * * * * * * * * * * * * * * * * * * * * * * * * * * * * * * * * * * * * * * * * * * * * * * * * * * * * * * * * * * * * * * * * * * * * * * * * * * * * ",
"* * * * * * * * * * * * * * * * * * * * * * * * * * * * * * * * * * * * * * * * * * * * * * * * * * * * * * * * * * * * * * * * * * * * * * * * * * * * * * * * * * * * * * * * * * * * * * * * * * * * * * * * * * * * * * * * * * * * * * * * * * * * * * * * * * * * * * * * * * * * * * * * * * * * * * * * * * * * * * * * * * * * * * * * * * * * * * * * * * * * * * * * * * * * * * * * * * * * * * * * * * * * * * * * * * * * * * * * * * * * * * * * * * * * * * * * * * * * * * * * * * * * * * * * * * * * * * * * ",
"* * * * * * * * * * * * * * * * * * * * * * * * * * * * * * * * * * * * * * * * * * * * * * * * * * * * * * * * * * * * * * * * * * * * * * * * * * * * * * * * * * * * * * * * * * * * * * * * * * * * * * * * * * * * * * * * * * * * * * * * * * * * * * * * * * * * * * * * * * * * * * * * * * * * * * * * * * * * * * * * * * * * * * * * * * * * * * * * * * * * * * * * * * * * * * * * * * * * * * * * * * * * * * * * * * * * * * * * * * * * * * * * * * * * * * * * * * * * * * * * * * * * * * * * * * * * * * * * ",
"* * * * * * * * * * * * * * * * * * * * * * * * * * * * * * * * * * * * * * * * * * * * * * * * * * * * * * * * * * * * * * * * * * * * * * * * * * * * * * * * * * * * * * * * * * * * * * * * * * * * * * * * * * * * * * * * * * * * * * * * * * * * * * * * * * * * * * * * * * * * * * * * * * * * * * * * * * * * * * * * * * * * * * * * * * * * * * * * * * * * * * * * * * * * * * * * * * * * * * * * * * * * * * * * * * * * * * * * * * * * * * * * * * * * * * * * * * * * * * * * * * * * * * * * * * * * * * * * ",
"* * * * * * * * * * * * * * * * * * * * * * * * * * * * * * * * * * * * * * * * * * * * * * * * * * * * * * * * * * * * * * * * * * * * * * * * * * * * * * * * * * * * * * * * * * * * * * * * * * * * * * * * * * * * * * * * * * * * * * * * * * * * * * * * * * * * * * * * * * * * * * * * * * * * * * * * * * * * * * * * * * * * * * * * * * * * * * * * * * * * * * * * * * * * * * * * * * * * * * * * * * * * * * * * * * * * * * * * * * * * * * * * * * * * * * * * * * * * * * * * * * * * * * * * * * * * * * * * ",
"* * * * * * * * * * * * * * * * * * * * * * * * * * * * * * * * * * * * * * * * * * * * * * * * * * * * * * * * * * * * * * * * * * * * * * * * * * * * * * * * * * * * * * * * * * * * * * * * * * * * * * * * * * * * * * * * * * * * * * * * * * * * * * * * * * * * * * * * * * * * * * * * * * * * * * * * * * * * * * * * * * * * * * * * * * * * * * * * * * * * * * * * * * * * * * * * * * * * * * * * * * * * * * * * * * * * * * * * * * * * * * * * * * * * * * * * * * * * * * * * * * * * * * * * * * * * * * * * ",
"* * * * * * * * * * * * * * * * * * * * * * * * * * * * * * * * * * * * * * * * * * * * * * * * * * * * * * * * * * * * * * * * * * * * * * * * * * * * * * * * * * * * * * * * * * * * * * * * * * * * * * * * * * * * * * * * * * * * * * * * * * * * * * * * * * * * * * * * * * * * * * * * * * * * * * * * * * * * * * * * * * * * * * * * * * * * * * * * * * * * * * * * * * * * * * * * * * * * * * * * * * * * * * * * * * * * * * * * * * * * * * * * * * * * * * * * * * * * * * * * * * * * * * * * * * * * * * * * ",
"* * * * * * * * * * * * * * * * * * * * * * * * * * * * * * * * * * * * * * * * * * * * * * * * * * * * * * * * * * * * * * * * * * * * * * * * * * * * * * * * * * * * * * * * * * * * * * * * * * * * * * * * * * * * * * * * * * * * * * * * * * * * * * * * * * * * * * * * * * * * * * * * * * * * * * * * * * * * * * * * * * * * * * * * * * * * * * * * * * * * * * * * * * * * * * * * * * * * * * * * * * * * * * * * * * * * * * * * * * * * * * * * * * * * * * * * * * * * * * * * * * * * * * * * * * * * * * * * ",
"* * * * * * * * * * * * * * * * * * * * * * * * * * * * * * * * * * * * * * * * * * * * * * * * * * * * * * * * * * * * * * * * * * * * * * * * * * * * * * * * * * * * * * * * * * * * * * * * * * * * * * * * * * * * * * * * * * * * * * * * * * * * * * * * * * * * * * * * * * * * * * * * * * * * * * * * * * * * * * * * * * * * * * * * * * * & * * * * * * * * * * * * * * * * * * * * * * * * * * * * * * * * * * * * * * * * * * * * * * * * * * * * * * * * * * * * * * * * * * * * * * * * * * * * * * * * * * * * ",
"* * * * * * * * * * * * * * * * * * * * * * * * * * * * * * * * * * * * * * * * * * * * * * * * * * * * * * * * * * * * * * * * * * * * * * * * * * * * * * * * * * * * * * * * * * * * * * * * * * * * * * * * * * * * * * * * * * * * * * * * * * * * * * * * * * * * * * * * * * * * * * * * * * * * * * * * * * * * * * * * * * * * * * * * * * * * * * * * * * * * * * * * * * * * * * * * * * * * * * * * * * * * * * * * * * * * * * * * * * * * * * * * * * * * * * * * * * * * * * * * * * * * * * * * * * * * * * * * ",
"* * * * * * * * * * * * * * * * * * * * * * * * * * * * * * * * * * * * * * * * * * * * * * * * * * * * * * * * * * * * * * * * * * * * * * * * * * * * * * * * * * * * * * * * * * * * * * * * * * * * * * * * * * * * * * * * * * * * * * * * * * * * * * * * * * * * * * * * * * * * * * * * * * * * * * * * * * * * * * * * * * * * * * * * * & * * * * * * * * * * * * * * * * * * * * * * * * * * * * * * * * * * * * * * * * * * * * * * * * * * * * * * * * * * * * * * * * * * * * * * * * * * * * * * * * * * * * * * ",
"* * * * * * * * * * * * * * * * * * * * * * * * * * * * * * * * * * * * * * * * * * * * * * * * * * * * * * * * * * * * * * * * * * * * * * * * * * * * * * * * * * * * * * * * * * * * * * * * * * * * * * * * * * * * * * * * * * * * * * * * * * * * * * * * * * * * * * * * * * * * * * * * * * * * * * * * * * * * * * * * * * * * * * * * * & * * * * * * * * * * * * * * * * * * * * * * * * * * * * * * * * * * * * * * * * * * * * * * * * * * * * * * * * * * * * * * * * * * * * * * * * * * * * * * * * * * * * * * ",
"* * * * * * * * * * * * * * * * * * * * * * * * * * * * * * * * * * * * * * * * * * * * * * * * * * * * * * * * * * * * * * * * * * * * * * * * * * * * * * * * * * * * * * * * * * * * * * * * * * * * * * * * * * * * * * * * * * * * * * * * * * * * * * * * * * * * * * * * * * * * * * * * * * * * * * * * * * * * * * * * * * * * * * * * * * * * * * * * * * * * * * * * * * * * * * * * * * * * * * * * * * * * * * * * * * * * * * * * * * * * * * * * * * * * * * * * * * * * * * * * * * * * * * * * * * * * * * * * ",
"* * * * * * * * * * * * * * * * * * * * * * * * * * * * * * * * * * * * * * * * * * * * * * * * * * * * * * * * * * * * * * * * * * * * * * * * * * * * * * * * * * * * * * * * * * * * * * * * * * * * * * * * * * * * * * * * * * * * * * * * * * * * * * * * * * * * * * * * * * * * * * * * * * * * * * * * * * * * * * * * * * * * * * * * * * * * * * * * * * * * * * * * * * * * * * * * * * * * * * * * * * * * * * * * * * * * * * * * * * * * * * * * * * * * * * * * * * * * * * * * * * * * * * * * * * * * * * * * ",
"* * * * * * * * * * * * * * * * * * * * * * * * * * * * * * * * * * * * * * * * * * * * * * * * * * * * * * * * * * * * * * * * * * * * * * * * * * * * * * * * * * * * * * * * * * * * * * * * * * * * * * * * * * * * * * * * * * * * * * * * * * * * * * * * * * * * * * * * * * * * * * * * * * * * * * * * * * * * * * * * * * * * * * * * * * * * * * * * * * * * * * * * * * * * * * * * * * * * * * * * * * * * * * * * * * * * * * * * * * * * * * * * * * * * * * * * * * * * * * * * * * * * * * * * * * * * * * * * ",
"* * * * * * * * * * * * * * * * * * * * * * * * * * * * * * * * * * * * * * * * * * * * * * * * * * * * * * * * * * * * * * * * * * * * * * * * * * * * * * * * * * * * * * * * * * * * * * * * * * * * * * * * * * * * * * * * * * * * * * * * * * * * * * * * * * * * * * * * * * * * * * * * * * * * * * * * * * * * * * * * * * * * * * * * * * * * * * * * * * * * * * * * * * * * * * * * * * * * * * * * * * * * * * * * * * * * * * * * * * * * * * * * * * * * * * * * * * * * * * * * * * * * * * * * * * * * * * * * ",
"* * * * * * * * * * * * * * * * * * * * * * * * * * * * * * * * * * * * * * * * * * * * * * * * * * * * * * * * * * * * * * * * * * * * * * * * * * * * * * * * * * * * * * * * * * * * * * * * * * * * * * * * * * * * * * * * * * * * * * * * * * * * * * * * * * * * * * * * * * * * * * * * * * * * * * * * * * * * * * * * * * * * * * * * * * * * * * * * * * * * * * * * * * * * * * * * * * * * * * * * * * * * * * * * * * * * * * * * * * * * * * * * * * * * * * * * * * * * * * * * * * * * * * * * * * * * * * * * ",
"* * * * * * * * * * * * * * * * * * * * * * * * * * * * * * * * * * * * * * * * * * * * * * * * * * * * * * * * * * * * * * * * * * * * * * * * * * * * * * * * * * * * * * * * * * * * * * * * * * * * * * * * * * * * * * * * * * * * * * * * * * * * * * * * * * * * * * * * * * * * * * * * * * * * * * * * * * * * * * * * * * * * * * * * * * * * * * * * * * * * * * * * * * * * * * * * * * * * * * * * * * * * * * * * * * * * * * * * * * * * * * * * * * * * * * * * * * & * * * * * * * * * * * * * * * * * * * * * ",
"* * * * * * * * * * * * * * * * * * * * * * * * * * * * * * * * * * * * * * * * * * * * * * * * * * * * * * * * * * * * * * * * * * * * * * * * * * * * * * * * * * * * * * * * * * * * * * * * * * * * * * * * * * * * * * * * * * * * * * * * * * * * * * * * * * * * * * * * * * * * * * * * * * * * * * * * * * * * * * * * * * * * * * * * * * * * * * * * * * * * * * * * * * * * * * * * * * * * * * * * * * * * * * * * * * * * * * * * * * * * * * * * * * * * * * * * * * * * * * * * * * * * * * * * * * * * * * * * ",
"* * * * * * * * * * * * * * * * * * * * * * * * * * * * * * * * * * * * * * * * * * * * * * * * * * * * * * * * * * * * * * * * * * * * * * * * * * * * * * * * * * * * * * * * * * * * * * * * * * * * * * * * * * * * * * * * * * * * * * * * * * * * * * * * * * * * * * * * * * * * * * * * * * * * * * * * * * * * * * * * * * * * * * * * * * * * * * * * * * * * * * * * * * * * * * * * * * * * * * * * * * * * * * * * * * * * * * * * * * * * * * * * * * * * * * * * * * * * * * * * * * * * * * * * * * * * * * * * ",
"* * * * * * * * * * * * * * * * * * * * * * * * * * * * * * * * * * * * * * * * * * * * * * * * * * * * * * * * * * * * * * * * * * * * * * * * * * * * * * * * * * * * * * * * * * * * * * * * * * * * * * * * * * * * * * * * * * * * * * * * * * * * * * * * * * * * * * * * * * * * * * * * * * * * * * * * * * * * * * * * * * * * * * * * * * * * * * * * * * * * * * * * * * * * * * * * * * * * * * * * * * * * * * * * * * * * * * * * * * * * * * * * * * * * * * * * * * * * * * * * * * * * * * * * * * * * * * * * ",
"* * * * * * * * * * * * * * * * * * * * * * * * * * * * * * * * * * * * * * * * * * * * * * * * * * * * * * * * * * * * * * * * * * * * * * * * * * * * * * * * * * * * * * * * * * * * * * * * * * * * * * * * * * * * * * * * * * * * * * * * * * * * * * * * * * * * * * * * * * * * * * * * * * * * * * * * * * * * * * * * * * * * * * * * * * * * * * * * * * * * * * * * * * * * * * * * * * * * * * * * * * * * * * * * * * * * * * * * * * * * * * * * * * * * * * * * * * * * * * * * * * * * * * * * * * * * * * * * ",
"* * * * * * * * * * * * * * * * * * * * * * * * * * * * * * * * * * * * * * * * * * * * * * * * * * * * * * * * * * * * * * * * * * * * * * * * * * * * * * * * * * * * * * * * * * * * * * * * * * * * * * * * * * * * * * * * * * * * * * * * * * * * * * * * * * * * * * * * * * * * * * * * * * * * * * * * * * * * * * * * * * * * * * * * * * * * * * * * * * * * * * * * * * * * * * * * * * * * * * * * * * * * * * * * * * * * * * * * * * * * * * * * * * * * * * * * * * * * * * * * * * * * * * * * * * * * * * * * ",
"* * * * * * * * * * * * * * * * * * * * * * * * * * * * * * * * * * * * * * * * * * * * * * * * * * * * * * * * * * * * * * * * * * * * * * * * * * * * * * * * * * * * * * * * * * * * * * * * * * * * * * * * * * * * * * * * * * * * * * * * * * * * * * * * * * * * * * * * * * * * * * * * * * * * * * * * * * * * * * * * * * * * * * * * * * * * * * * * * * * * * * * * * * * * * * * * * * * * * * * * * * * * * * * * * * * * * * * * * * * * * * * * * * * * * * * * * * * * * * * * * * * * * * * * * * * * * * * * ",
"* * * * * * * * * * * * * * * * * * * * * * * * * * * * * * * * * * * * * * * * * * * * * * * * * * * * * * * * * * * * * * * * * * * * * * * * * * * * * * * * * * * * * * * * * * * * * * * * * * * * * * * * * * * * * * * * * * * * * * * * * * * * * * * * * * * * * * * * * * * * * * * * * * * * * * * * * * * * * * * * * * * * * * * * * * * * * * * * * * * * * * * * * * * * * * * * * * * * * * * * * * * * * * * * * * * * * * * * * * * * * * * * * * * * * * * * * * * * * * * * * * * * * * * * * * * * * * * * ",
"* * * * * * * * * * * * * * * * * * * * * * * * * * * * * * * * * * * * * * * * * * * * * * * * * * * * * * * * * * * * * * * * * * * * * * * * * * * * * * * * * * * * * * * * * * * * * * * * * * * * * * * * * * * * * * * * * * * * * * * * * * * * * * * * * * * * * * * * * * * * * * * * * * * * * * * * * * * * * * * * * * * * * * * * * * * * * * * * * * * * * * * * * * * * * * * * * * * * * * * * * * * * * * * * * * * * * * * * * * * * * * * * * * * * * * * * * * * * * * * * * * * * * * * * * * * * * * * * ",
"* * * * * * * * * * * * * * * * * * * * * * * * * * * * * * * * * * * * * * * * * * * * * * * * * * * * * * * * * * * * * * * * * * * * * * * * * * * * * * * * * * * * * * * * * * * * * * * * * * * * * * * * * * * * * * * * * * * * * * * * * * * * * * * * * * * * * * * * * * * * * * * * * * * * * * * * * * * * * * * * * * * * * * * * * * * * * * * * * * * * * * * * * * * * * * * * * * * * * * * * * * * * * * * * * * * * * * * * * * * * * * * * * * * * * * * * * * * * * * * * * * * * * * * * * * * * * * * * ",
"* * * * * * * * * * * * * * * * * * * * * * * * * * * * * * * * * * * * * * * * * * * * * * * * * * * * * * * * * * * * * * * * * * * * * * * * * * * * * * * * * * * * * * * * * * * * * * * * * * * * * * * * * * * * * * * * * * * * * * * * * * * * * * * * * * * * * * * * * * * * * * * * * * * * * * * * * * * * * * * * * * * * * * * * * * * * * * * * * * * * * * * * * * * * * * * * * * * * * * * * * * * * * * * * * * * * * * * * * * * * * * * * * * * * * * * * * * * * * * * * * * * * * * * * * * * * * * * * ",
"* * * * * * * * * * * * * * * * * * * * * * * * * * * * * * * * * * * * * * * * * * * * * * * * * * * * * * * * * * * * * * * * * * * * * * * * * * * * * * * * * * * * * * * * * * * * * * * * * * * * * * * * * * * * * * * * * * * * * * * * * * * * * * * * * * * * * * * * * * * * * * * * * * * * * * * * * * * * * * * * * * * * * * * * * * * * * * * * * * * * * * * * * * * * * * * * * * * * * * * * * * * * * * * * * * * * * * * * * * * * * * * * * * * * * * * * * * * * * * * * * * * * * * * * * * * * * * * * ",
"* * * * * * * * * * * * * * * * * * * * * * * * * * * * * * * * * * * * * * * * * * * * * * * * * * * * * * * * * * * * * * * * * * * * * * * * * * * * * * * * * * * * * * * * * * * * * * * * * * * * * * * * * * * * * * * * * * * * * * * * * * * * * * * * * * * * * * * * * * * * * * * * * * * * * * * * * * * * * * * * * * * * * * * * * * * * * * * * * * * * * * * * * * * * * * * * * * * * * * * * * * * * * * * * * * * * * * * * * * * * * * * * * * * * * * * * * * * * * * * * * * * * * * * * * * * * * * * * ",
"* * * * * * * * * * * * * * * * * * * * * * * * * * * * * * * * * * * * * * * * * * * * * * * * * * * * * * * * * * * * * * * * * * * * * * * * * * * * * * * * * * * * * * * * * * * * * * * * * * * * * * * * * * * * * * * * * * * * * * * * * * * * * * * * * * * * * * * * * * * * * * * * * * * * * * * * * * * * * * * * * * * * * * * * * * * * * * * * * * * * * * * * * * * * * * * * * * * * * * * * * * * * * * * * * * * * * * * * * * * * * * * * * * * * * * * * * * * * * * * * * * * * * * * * * * * * * * * * ",
"* * * * * * * * * * * * * * * * * * * * * * * * * * * * * * * * * * * * * * * * * * * * * * * * * * * * * * * * * * * * * * * * * * * * * * * * * * * * * * * * * * * * * * * * * * * * * * * * * * * * * * * * * * * * * * * * * * * * * * * * * * * * * * * * * * * * * * * * * * * * * * * * * * * * * * * * * * * * * * * * * * * * * * * * * * * * * * * * * * * * * * * * * * * * * * * * * * * * * * * * * * * * * * * * * * * * * * * * * * * * * * * * * * * * * * * * * * * * * * * * * * * * * * * * * * * * * * * * ",
"* * * * * * * * * * * * * * * * * * * * * * * * * * * * * * * * * * * * * * * * * * * * * * * * * * * * * * * * * * * * * * * * * * * * * * * * * * * * * * * * * * * * * * * * * * * * * * * * * * * * * * * * * * * * * * * * * * * * * * * * * * * * * * * * * * * * * * * * * * * * * * * * * * * * * * * * * * * * * * * * * * * * * * * * * * * * * * * * * * * * * * * * * * * * * * * * * * * * * * * * * * * * * * * * * * * * * * * * * * * * * * * * * * * * * * * * * * * * * * * * * * * * * * * * * * * * * * * * ",
"* * * * * * * * * * * * * * * * * * * * * * * * * * * * * * * * * * * * * * * * * * * * * * * * * * * * * * * * * * * * * * * * * * * * * * * * * * * * * * * * * * * * * * * * * * * * * * * * * * * * * * * * * * * * * * * * * * * * * * * * * * * * * * * * * * * * * * * * * * * * * * * * * * * * * * * * * * * * * * * * * * * * * * * * * * * * * * * * * * * * * * * * * * * * * * * * * * * * * * * * * * * * * * * * * * * * * * * * * * * * * * * * * * * * * * * * * * * * * * * * * * * * * * * * * * * * * * * * ",
"* * * * * * * * * * * * * * * * * * * * * * * * * * * * * * * * * * * * * * * * * * * * * * * * * * * * * * * * * * * * * * * * * * * * * * * * * * * * * * * * * * * * * * * * * * * * * * * * * * * * * * * * * * * * * * * * * * * * * * * * * * * * * * * * * * * * * * * * * * * * * * * * * * * * * * * * * * * * * * * * * * * * * * * * * * * * * * * * * * * * * * * * * * * * * * * * * * * * * * * * * * * * * * * * * * * * * * * * * * * * * * * * * * * * * * * * * * * * * * * * * * * * * * * * * * * * * * * * ",
"* * * * * * * * * * * * * * * * * * * * * * * * * * * * * * * * * * * * * * * * * * * * * * * * * * * * * * * * * * * * * * * * * * * * * * * * * * * * * * * * * * * * * * * * * * * * * * * * * * * * * * * * * * * * * * * * * * * * * * * * * * * * * * * * * * * * * * * * * * * * * * * * * * * * * * * * * * * * * * * * * * * * * * * * * * * * * * * * * * * * * * * * * * * * * * * * * * * * * * * * * * * * * * * * * * * * * * * * * * * * * * * * * * * * * * * * * * * * * * * * * * * * * * * * * * * * * * * * "
};
