/* XPM */
static const char *bitcoin128[] = {
/* columns rows colors chars-per-pixel */
"128 128 254 2 ",
"   c #020302",
".  c #0C0302",
"X  c #030802",
"o  c #090A05",
"O  c #00060B",
"+  c #0B040C",
"@  c #04090B",
"#  c #0A090D",
"$  c #010613",
"%  c #0C0613",
"&  c #060815",
"*  c #0C0914",
"=  c #07061A",
"-  c #0D0A1B",
";  c #110A1D",
":  c #0E0C21",
">  c #090728",
",  c #110B22",
"<  c #140A2A",
"1  c #100D38",
"2  c #2B0E32",
"3  c #48103E",
"4  c #140C51",
"5  c #310D52",
"6  c #142350",
"7  c #100E73",
"8  c #2E0A70",
"9  c #1A3069",
"0  c #531343",
"q  c #721653",
"w  c #521674",
"e  c #492C60",
"r  c #657558",
"t  c #961C6D",
"y  c #AB196E",
"u  c #C41F7F",
"i  c #040489",
"p  c #00038D",
"a  c #000594",
"s  c #06069C",
"d  c #08069A",
"f  c #06089D",
"g  c #08089E",
"h  c #1C029D",
"j  c #071E94",
"k  c #250788",
"l  c #27049C",
"z  c #32009D",
"x  c #15338B",
"c  c #0708A6",
"v  c #0A08A2",
"b  c #1E03A2",
"n  c #180BB6",
"m  c #1910B6",
"M  c #2403A4",
"N  c #2903AA",
"B  c #3404A6",
"V  c #3B04A4",
"C  c #3E05AA",
"Z  c #2A03B7",
"A  c #3807B7",
"S  c #0525B6",
"D  c #4E0E8A",
"F  c #4106AB",
"G  c #4508AC",
"H  c #4609B8",
"J  c #570CB5",
"K  c #720DAE",
"L  c #7421A0",
"P  c #1B409C",
"I  c #224792",
"U  c #2755B1",
"Y  c #4F7BB4",
"T  c #001ED0",
"R  c #290BC6",
"E  c #360BC8",
"W  c #2714C7",
"Q  c #3B0CD7",
"!  c #3719DA",
"~  c #0325CC",
"^  c #0024D3",
"/  c #032BD6",
"(  c #032BD9",
")  c #0532DD",
"_  c #103EDF",
"`  c #3D1CE4",
"'  c #022EE7",
"]  c #0330E9",
"[  c #0231F4",
"{  c #043EFB",
"}  c #4B06C4",
"|  c #530AC5",
" . c #560AC6",
".. c #550ACC",
"X. c #5A0BCD",
"o. c #501ACE",
"O. c #410DDD",
"+. c #4E08D9",
"@. c #5C0BD1",
"#. c #620DCD",
"$. c #650DD3",
"%. c #6B0ED8",
"&. c #6A16D5",
"*. c #712BD6",
"=. c #470EE7",
"-. c #4A12EB",
";. c #480DF3",
":. c #4B0EFC",
">. c #4E13FA",
",. c #5216F4",
"<. c #5116FB",
"1. c #730DEA",
"2. c #7615F0",
"3. c #4D29F1",
"4. c #4B22FA",
"5. c #5423FC",
"6. c #5B25FF",
"7. c #5A28FE",
"8. c #6126FE",
"9. c #7120FB",
"0. c #2C66D3",
"q. c #1751EC",
"w. c #0749F6",
"e. c #094BF5",
"r. c #0642FC",
"t. c #0A46FC",
"y. c #0A49FC",
"u. c #1657FA",
"i. c #1E62F8",
"p. c #3070EB",
"a. c #256DFC",
"s. c #2869F9",
"d. c #2C76FB",
"f. c #2D74FC",
"g. c #3176FC",
"h. c #337BFD",
"j. c #3D7BF9",
"k. c #5A41F8",
"l. c #5A61FB",
"z. c #6869F9",
"x. c #890DB9",
"c. c #9400B5",
"v. c #9603BA",
"b. c #9D10BE",
"n. c #A211BE",
"m. c #AB12BF",
"M. c #B013B9",
"N. c #8C2BB5",
"B. c #C50E98",
"V. c #C3139D",
"C. c #CB149D",
"Z. c #D4179D",
"A. c #FF118D",
"S. c #E91B9C",
"D. c #FC1D94",
"F. c #F91E98",
"G. c #CA2286",
"H. c #EB2490",
"J. c #FD2295",
"K. c #FC2299",
"L. c #F82699",
"P. c #CC16A2",
"I. c #C916A4",
"U. c #D518A3",
"Y. c #D11AB3",
"T. c #EC1CAB",
"R. c #CF24AD",
"E. c #FF24A3",
"W. c #FA28A1",
"Q. c #FF25AB",
"!. c #FF29AD",
"~. c #F133AF",
"^. c #FF27B1",
"/. c #FF44BD",
"(. c #FA4ABD",
"). c #FE56BD",
"_. c #960EC6",
"`. c #9911C4",
"'. c #8F0FD6",
"]. c #990EDA",
"[. c #A312C1",
"{. c #AC11C5",
"}. c #A711D4",
"|. c #972CCE",
" X c #A028D4",
".X c #851CF8",
"XX c #8E1DFD",
"oX c #921EFB",
"OX c #9A1DFC",
"+X c #A608E7",
"@X c #AB15E8",
"#X c #B314EE",
"$X c #8B2BF8",
"%X c #9621FE",
"&X c #9038F5",
"*X c #AA29EA",
"=X c #B12CE6",
"-X c #B326EC",
";X c #B52DEC",
":X c #B733EA",
">X c #B632EC",
",X c #A827F4",
"<X c #BC2FF5",
"1X c #DC22DE",
"2X c #C833F7",
"3X c #C634FF",
"4X c #CC32FF",
"5X c #B84FCD",
"6X c #8E4BFF",
"7X c #9748F7",
"8X c #9846FA",
"9X c #9E4BFA",
"0X c #B64BEF",
"qX c #A045FF",
"wX c #A14CFA",
"eX c #A853FD",
"rX c #B673F0",
"tX c #DA44DA",
"yX c #FC44C6",
"uX c #F54DC5",
"iX c #FC4FC3",
"pX c #FD46C8",
"aX c #FF4CCC",
"sX c #F652C2",
"dX c #FD51C5",
"fX c #FF52CA",
"gX c #FD5AC9",
"hX c #EF47D1",
"jX c #C36AD6",
"kX c #FC60D7",
"lX c #C64DE7",
"zX c #C66AEA",
"xX c #3583FF",
"cX c #3983FF",
"vX c #3789FF",
"bX c #3A8BFF",
"nX c #4883FA",
"mX c #568CFA",
"MX c #6E89FA",
"NX c #6396F9",
"BX c #6A96FB",
"VX c #6B9AFC",
"CX c #729EFC",
"ZX c #6AA6FD",
"AX c #74A7FC",
"SX c #78B2FF",
"DX c #95A2FB",
"FX c #CA8CF1",
"GX c #D7ADF1",
"HX c #E3BEEF",
"JX c #EDD3F4",
"KX c #F7E9F9",
"LX c #F8F4F9",
"PX c #FEFEFE",
/* pixels */
"- - - - - - - - - - - - - - - - - - - - - - - - - - - - - - - - - - - - - - - - - - - - - - - - - - - - - - - - - - - - - - - - - - - - - - - - - - - - - - - - - - - - - - - - - - - - - - - - - - - - - - - - - - - - - - - - - - - - - - - - - - - - - - - - ",
"- - - - - - - - - - - - - - - - - - - - - - - - - - - - - - - - - - - - - - - - - - - - - - - - - - - - - - - - - - - - - - - - - - - - - - - - - - - - - - - - - - - - - - - - - - - - - - - - - - - - - - - - - - - - - - - - - - - - - - - - - - - - - - - - ",
"- - - - - - - - - - - - - - - - - - - - - - - - - - - - - - - - - - - - - - - - - - - - - - - - - - - - - - - - - - - - - - - - - - - - - - - - - - - - - - - - - - - - - - - - - - - - - - - - - - - - - - - - - - - - - - - - - - - - - - - - - - - - - - - - ",
"- - - - - - - - - - - - - - - - - - - - - - - - - - - - - - - - - - - - - - - - - - - - - - - - - - - - - - - - - - - - - - - - - - - - - - - - - - - - - - - - - - - - - - - - - - - - - - - - - - - - - - - - - - - - - - - - - - - - - - - - - - - - - - - - ",
"- - - - - - - - - - - - - - - - - - - - - - - - - - - - - - - - - - - - - - - - - - - - - - - - - - - - - - - - - - - - - - - - - - - - - - - - - - - - - - - - - - - - - - - - - - - - - - - - - - - - - - - - - - - - - - - - - - - - - - - - - - - - - - - - ",
"- - - - - - - - - - - - - - - - - - - - - - - - - - - - - - - - - - - - - - - - - - - - - - - - - - - - - - - - - - - - - - - - - - - - - - - - - - - - - - - - - - - - - - - - - - - - - - - - - - - - - - - - - - - - - - - - - - - - - - - - - - - - - - - - ",
"- - - - - - - - - - - - - - - - - - - - - - - - - - - - - - - - - - - - - - - - - - - - - - - - - - - - - - - - - - - - - - - - - - - - - - - - - - - - - - - - - - - - - - - - - - - - - - - - - - - - - - - - - - - - - - - - - - - - - - - - - - - - - - - - ",
"- - - - - - - - - - - - - - - - - - - - - - - - - - - - - - - - - - - - - - - - - - - - - - - - - - - - - - - - - - - - - - - - - - - - - - - - - - - - - - - - - - - - - - - - - - - - - - - - - - - - - - - - - - - - - - - - - - - - - - - - - - - - - - - - ",
"- - - - - - - - - - - - - - - - - - - - - - - - - - - - - - - - - - - - - - - - - - - - - - - - - - - - - - - - - - - - - - - - - - - - - - - - - - - - - - - - - - - - - - - - - - - - - - - - - - - - - - - - - - - - - - - - - - - - - - - - - - - - - - - - ",
"- - - - - - - - - - - - - - - - - - - - - - - - - - - - - - - - - - - - - - - - - - - - - - - - - - - - - - - - - - - - - - - - - - - - - - - - - - - - - - - - - - - - - - - - - - - - - - - - - - - - - - - - - - - - - - - - - - - - - - - - - - - - - - - - ",
"- - - - - - - - - - - - - - - - - - - - - - - - - - - - - - - - - - - - - - - - - - - - - - - - - - - - - - - - - - - - - - - - - - - - - - - - - - - - - - - - - - - - - - - - - - - - - - - - - - - - - - - - - - - - - - - - - - - - - - - - - - - - - - - - ",
"- - - - - - - - - - - - - - - - - - - - - - - - - - - - - - - - - - - - - - - - - - - - - - - - - - - - - - - - - - - - - - - - - - - - - - - - - - - - - - - - - - - - - - - - - - - - - - - - - - - - - - - - - - - - - - - - - - - - - - - - - - - - - - - - ",
"- - - - - - - - - - - - - - - - - - - - - - - - - - - - - - - - - - - - - - - - - - - - - - - - - - - - - - - - - - - - - - - - - - - - - - - - - - - - - - - - - - - - - - - - - - - - - - - - - - - - - - - - - - - - - - - - - - - - - - - - - - - - - - - - ",
"- - - - - - - - - - - - - - - - - - - - - - - - - - - - - - - - - - - - - - - - - - - - - - - - - - - - - - - - - - - - - - - - - - - - - - - - - - - - - - - - - - - - - - - - - - - - - - - - - - - - - - - - - - - - - - - - - - - - - - - - - - - - - - - - ",
"- - - - - - - - - - - - - - - - - - - - - - - - - - - - - - - - - - - - - - - - - - - - - - - - - - - - - - - - - - - - - - - - - - - - - - - - - - - - - - - - - - - - - - - - - - - - - - - - - - - - - - - - - - - - - - - - - - - - - - - - - - - - - - - - ",
"- - - - - - - - - - - - - - - - - - - - - - - - - - - - - - - - - - - - - - - - - - - - - - - - - - - - - - - - - - - - - - - - - - - - - - - - - - - - - - - - - - - - - - - - - - - - - - - - - - - - - - - - - - - - - - - - - - - - - - - - - - - - - - - - ",
"- - - - - - - - - - - - - - - - - - - - - - - - - - - - - - - - - - - - - - - - - - - - - - - - - - - - - - - - - - - - - - - - - - - - - - - - - - - - - - - - - - - - - - - - - - - - - - - - - - - - - - - - - - - - - - - - - - - - - - - - - - - - - - - - ",
"- - - - - - - - - - - - - - - - - - - - - - - - - - - - - - - - - - - - - - - - - - - - - - - - - - - - - - - - - - - - - - - - - - - - - - - - - - - - - - - - - - - - - - - - - - - - - - - - - - - - - - - - - - - - - - - - - - - - - - - - - - - - - - - - ",
"- - - - - - - - - - - - - - - - - - - - - - - - - - - - - - - - - - - - - - - - - - - - - - - - - - - - - - - - - - - - - - - - - - - - - - - - - - - - - - - - - - - - - - - - - - - - - - - - - - - - - - - - - - - - - - - - - - - - - - - - - - - - - - - - ",
"- - - - - - - - - - - - - - - - - - - - - - - - - - - - - - - - - - - - - - - - - - - - - - - - - - - - - - - - - - - - - - - - - - - - - - - - - - - - - - - - - - - - - - - - - - - - - - - - - - - - - - - - - - - - - - - - - - - - - - - - - - - - - - - - ",
"- - - - - - - - - - - - - - - - - - - - - - - - - - - - - - - - - - - - - - - - - - - - - - - - - - - - - - - - - - - - - - - - - - - - - - - - - - - - - - - - - - - - - - - - - - - - - - - - - - - - - - - - - - - - - - - - - - - - - - - - - - - - - - - - ",
"- - - - - - - - - - - - - - - - - - - - - - - - - - - - - - - - - - - - - - - - - - - - - - - - - - - - - - - - - - - - - - - - - - - - - - - - - - - - - - - - - - - - - - - - - - - - - - - - - - - - - - - - - - - - - - - - - - - - - - - - - - - - - - - - ",
"- - - - - - - - - - - - - - - % * * * * * * * * * * * * * * * * * * * * * * * * * * * * - - - - - - - - - - - - - - - - - - - - - - - - - - - - - - - - - - - - - - - - & & & & & & & & & & & & & & & & & & & & & & & & & & & & & - - - - - - - - - - - - - - - ",
"- - - - - - - - - - - - - - - - % + % % # % % % % % % % % % % % % % % % % % % % % % % * % - - - - - - - - - - - - - - - - - - - - - - - - - - - - - - - - - - - - - - O % $ $ $ $ $ $ $ $ $ $ $ $ $ $ $ $ $ $ $ $ $ $ $ $ $ $ $ - ; - - - - - - - - - - - - - - ",
"- - - - - - - - - - - - - * : q.i.e.r.w.e.e.e.e.w.w.e.e.w.w.e.e.e.e.e.e.e.e.e.e.e.w.w.u.x   : - - - - - - - - - - - - - - - - - - - - - - - - - - - - - - - - - - ; X 5 kX).(.sXsXsXsXsXsXsXsXsXsXsXsXsXsXsXsXsXsXsXsXsXsXgXgXgXiX2 $ - - - - - - - - - - - - - ",
"- - - - - - - - - - - - - - . 7 u.cXa.y.r.r.y.y.y.y.y.y.y.y.y.y.y.y.y.y.y.y.y.y.y.y.y.u.xX- % - - - - - - - - - - - - - - - - - - - - - - - - - - - - - - - - - - * O *X4XdXaXfXiXaXfXaXfXfXfXfXfXfXfXfXfXfXfXfXfXfXfXfXgXgX/.^.y O ; - - - - - - - - - - - - - ",
"- - - - - - - - - - - - - - * . ~ ' p.bXs.u.r.{ t.t.y.t.t.t.t.y.y.y.t.y.y.y.t.y.y.y.r.u.bXI   : - - - - - - - - - - - - - - - - - - - - - - - - - - - - - - - - ,   w 4X*XtX).(.iXiXiXiXiXiXiXiXiXiXiXiXiXiXiXsXiXdXgXdX(.L.D.K.& $ - - - - - - - - - - - - - - ",
"- - - - - - - - - - - - - - - . 4 ' T q.bXcXf.u.y.{ r.t.t.t.t.y.y.y.t.y.y.t.t.y.y.y.r.f.h.xX: + - - - - - - - - - - - - - - - - - - - - - - - - - - - - - - - - & - <X<X;X,XuX).iXdXdXdXdXdXdXuXiXiXiXiXiXdXiXdXgXgX/.L.D.D.!.q O ; - - - - - - - - - - - - - - ",
"- - - - - - - - - - - - - - - - . S ] T _ h.xXh.h.a.e.{ { t.t.y.y.t.t.y.y.t.y.y.y.r.u.h.f.xXP   - - - - - - - - - - - - - - - - - - - - - - - - - - - - - - - ,   L 4X=X;X*X:XdXdXdXdXdXdXdXdXdXiXiXsXdXdXiXdXgX(.W.D.J.K.E.H.O * - - - - - - - - - - - - - - - ",
"- - - - - - - - - - - - - - - - o 1 [ / ^ / s.cXf.h.h.f.u.t.{ r.y.y.y.t.y.y.y.y.y.r.a.h.g.g.xX< + - - - - - - - - - - - - - - - - - - - - - - - - - - - - - - O < 3X;X;X;X;X,XtX).dXdXdXdXdXdXdXdXdXdXiXgXgX(.W.D.D.K.K.K.!.3 O ; - - - - - - - - - - - - - - - ",
"- - - - - - - - - - - - - - - - - . j ] / ^ ^ q.cXg.f.h.h.g.s.y.r.r.t.y.y.y.y.y.y.y.f.h.g.f.xXU   - - - - - - - - - - - - - - - - - - - - - - - - - - - - - -   N.3X=X;X;X;X;X,XsXdXdXdXdXdXdXdXdXiXdXgXsXW.D.D.J.K.K.K.Q.u O - - - - - - - - - - - - - - - - - ",
"- - - - - - - - - - - - - - - - - % - ' ( ( / T q.h.h.f.g.h.h.h.s.u.r.r.t.y.y.y.r.u.h.f.g.f.f.vX1 . - - - - - - - - - - - - - - - - - - - - - - - - - - - ;   2 4X;X;X;X;X;X;X,X2XdXdXdXdXdXdXdXdXgXdX~.F.D.K.K.K.K.K.K.!.2 O - - - - - - - - - - - - - - - - - ",
"- - - - - - - - - - - - - - - - - - . 7 [ / / / T / f.cXf.f.f.f.h.h.f.u.y.r.r.y.r.a.h.f.g.g.f.xX0.  - - - - - - - - - - - - - - - - - - - - - - - - - - - -   |.3X=X;X;X;X;X;X;X,XtX).uXdXdXdXgXdX~.F.D.F.K.K.K.K.K.K.!.t   ; - - - - - - - - - - - - - - - - - ",
"- - - - - - - - - - - - - - - - - - * # / ' / ( ( ^ ^ i.cXf.f.f.f.f.h.h.h.s.u.r.r.g.g.g.g.g.f.f.vX6 . - - - - - - - - - - - - - - - - - - - - - - - - - ; X 5 4X=X;X;X;X;X;X;X;X;X*XuX).dXgXgX~.K.D.D.K.K.K.K.K.K.K.K.E.- $ - - - - - - - - - - - - - - - - - - ",
"- - - - - - - - - - - - - - - - - - - . 4 [ / ( / / / T q.h.h.f.f.f.f.f.g.h.h.f.s.g.f.g.g.g.g.g.h.0.  - - - - - - - - - - - - - - - - - - - - - - - - - - X  X3X=X;X;X;X;X;X;X;X;X,X2XgXgX~.K.D.K.K.K.K.K.K.K.K.K.K.!.q   ; - - - - - - - - - - - - - - - - - - ",
"- - - - - - - - - - - - - - - - - - - - . S ' / ( / / / T ) f.h.f.f.f.g.f.f.f.f.VXmXa.g.g.g.g.g.f.bX9   - - - - - - - - - - - - - - - - - - - - - - - ,   w 4X=X;X=X;X;X;X;X;X;X>X-X,XuXD.D.F.K.K.K.K.K.K.K.K.K.K.E.H.$ & - - - - - - - - - - - - - - - - - - - ",
"- - - - - - - - - - - - - - - - - - - - o 1 [ / / / / / ( ^ ^ s.cXg.f.g.f.g.f.g.CXAXnXa.h.h.h.g.g.h.p.. * - - - - - - - - - - - - - - - - - - - - - - * O =X<X;X;X;X;X;X;X;X;X>X-X@XGXR.A.K.K.K.K.K.K.K.K.K.K.K.K.!.3 O ; - - - - - - - - - - - - - - - - - - - ",
"- - - - - - - - - - - - - - - - - - - - - . j [ / ( ( / / / / T q.xXh.f.g.g.a.mXCXBXCXnXd.h.h.g.g.f.bX9   : - - - - - - - - - - - - - - - - - - - - ,   w 4X=X;X;X;X;X;X;X;X>X-X@XKXGXc.J.K.K.K.K.K.K.K.K.K.K.K.Q.G.O - - - - - - - - - - - - - - - - - - - - - ",
"- - - - - - - - - - - - - - - - - - - - - # - ' ( / / / / / / / T _ g.h.f.f.f.VXVXBXVXAXj.f.h.g.g.g.h.g.+ * - - - - - - - - - - - - - - - - - - - - & - <X<X;X;X;X;X;X;X;X:X@X*XLXPXc._.K.J.K.K.K.K.K.K.K.K.K.K.!.2 O ; - - - - - - - - - - - - - - - - - - - - ",
"- - - - - - - - - - - - - - - - - - - - - - . 7 [ / / / / / / / / ^ / s.cXf.nXCXBXVXVXVXCXj.f.h.h.g.f.bXI   : - - - - - - - - - - - - - - - - - - ;   L 3X=X;X;X;X;X;X;X>X+X0XPXPXjXv.`.W.J.K.K.K.K.K.K.K.F.K.!.t   ; - - - - - - - - - - - - - - - - - - - - - ",
"- - - - - - - - - - - - - - - - - - - - - - * # / ' / / / / / / / ( ^ T q.xXZXVXBXVXVXVXCXVXg.f.g.g.g.h.h.& % - - - - - - - - - - - - - - - - - ; O < 3X;X;X;X;X;X;X;X;X+XzXPXPXLXc.b._.U.J.K.K.K.K.K.K.K.K.K.E.& $ - - - - - - - - - - - - - - - - - - - - - - ",
"- - - - - - - - - - - - - - - - - - - - - - - . 4 [ / / ( / / / / / / ( T f z.SXVXBXVXVXVXVXVXg.f.h.h.g.bXI   - - - - - - - - - - - - - - - - - ;   L 3X=X;X;X;X;X>X;X+XFXPXPXPXjXv.[._.Y.J.K.K.K.K.K.K.K.K.!.q   ; - - - - - - - - - - - - - - - - - - - - - - ",
"- - - - - - - - - - - - - - - - - - - - - - - - . S ] / / / / / / / ) ~ s i R k.NXAXBXVXVXVXCXNXd.f.h.g.h.vX, + - - - - - - - - - - - - - - - ;   2 3X;X;X;X;X;X>X-X+XGXPXPXPXKXc.[.[._.M.J.K.K.K.K.K.K.K.E.H.O - - - - - - - - - - - - - - - - - - - - - - - - ",
"- - - - - - - - - - - - - - - - - - - - - - - - + 1 [ ( / / ( / / ' ~ d s s f >.7.MXAXVXVXVXVXCXNXd.f.h.g.bXU   - - - - - - - - - - - - - - - -   |.3X=X;X;X;X>X-X@XJXPXPXPXPXjXc.[.[.`.[.J.J.K.K.K.K.K.K.!.3 O ; - - - - - - - - - - - - - - - - - - - - - - - ",
"- - - - - - - - - - - - - - - - - - - - - - - - - . j [ / ( ( / ' ~ d d f g p ! 8.>.z.AXZXVXVXVXAXmXd.g.g.g.xX1 + - - - - - - - - - - - - - ; X 5 4X=X;X;X;X>X@X=XKXPXLXPXPXKXc.[.[.[.[.`.K.J.K.K.K.K.K.Q.y   - - - - - - - - - - - - - - - - - - - - - - - - - ",
"- - - - - - - - - - - - - - - - - - - - - - - - - # - ] ( ( ( ) ~ d d f d f a v 6.5.>.k.AXZXBXVXBXAXmXa.g.g.xXU . - - - - - - - - - - - - - -    X3X;X;X;X>X+X0XPXPXPXPXPXPX5Xv.[.[.[.[._.S.J.K.K.K.K.K.!.< $ - - - - - - - - - - - - - - - - - - - - - - - - - ",
"- - - - - - - - - - - - - - - - - - - - - - - - - - . 7 [ / ' ~ d d f s f s v p ! 7.5.<.5.MXAXVXBXBXAXmXa.g.g.bX6 . - - - - - - - - - - - , X w 4X=X;X;X>X+XzXPXPXPXPXPXPXKXc.[.[.[.[.[._.Y.J.K.K.K.K.^.t   ; - - - - - - - - - - - - - - - - - - - - - - - - - ",
"- - - - - - - - - - - - - - - - - - - - - - - - - - * o ~ ] ~ d d f s f d s v a n 7.5.5.<.>.z.AXVXBXVXAXnXa.g.xX0.  - - - - - - - - - - - & O =X<X=X;X;X+XFXPXPXPXPXPXPXPX5Xc.[.[.[.[.[._.Y.J.K.K.K.E.L.$ & - - - - - - - - - - - - - - - - - - - - - - - - - - ",
"- - - - - - - - - - - - - - - - - - - - - - - - - - - . 4 [ d s v s f s f s f f a 3.6.5.5.5.:.k.VXZXBXVXAXnXa.g.bX6 . - - - - - - - - - ,   w 4X=X>X-X+XGXPXPXPXPXPXPXPXJXc.n.[.[.[.[.[.`.m.J.K.K.K.^.0 O ; - - - - - - - - - - - - - - - - - - - - - - - - - - ",
"- - - - - - - - - - - - - - - - - - - - - - - - - - - - o i c f s f s f s s s v a m 8.5.5.5.5.>.5.MXAXVXVXAXj.a.xX0.  - - - - - - - - - @ - <X<X>X@X@XJXPXPXPXPXPXPXPXPX5Xc.n.[.[.n.[.[.`.n.K.J.F.Q.G.O - - - - - - - - - - - - - - - - - - - - - - - - - - - - ",
"- - - - - - - - - - - - - - - - - - - - - - - - - - - - # > c g g f d s f s s f s a 4.6.5.5.5.5.<.>.z.AXVXVXAXj.a.bX9   : - - - - - - ,   L 4X=X@X*XKXPXLXPXPXPXPXPXPXJXc.n.n.n.n.[.[.[.b.`.L.J.K.!.2 O ; - - - - - - - - - - - - - - - - - - - - - - - - - - - ",
"- - - - - - - - - - - - - - - - - - - - - - - - - - - - - o 7 c g g f s s s f s g p W 8.5.5.5.5.7.5.:.k.AXAXVXCXg.h.p.. * - - - - - - O < 3X>X@X:XLXPXPXPXPXPXPXPXPXPX5Xc.n.n.n.n.n.n.n.m._.U.J.!.y   ; - - - - - - - - - - - - - - - - - - - - - - - - - - - - ",
"- - - - - - - - - - - - - - - - - - - - - - - - - - - - - % ; n s g f s f s f s f d a 5.7.5.7.5.5.5.5.>.5.MXAXCXCXg.xX9   : - - - - ;   L 3X+XzXPXPXPXPXPXPXPXPXPXPXJXc.n.n.n.n.n.n.n.n.n._.Y.D.E.; $ - - - - - - - - - - - - - - - - - - - - - - - - - - - - - ",
"- - - - - - - - - - - - - - - - - - - - - - - - - - - - - - X 8 R a g d s f s f s g p W 8.5.5.5.5.5.5.7.<.>.z.SXAXBXf.g.% & - - - ;   2 4X+XzXPXPXPXPXPXPXPXPXPXPXPXN.c.m.M.{.m.m.n.n.b.n.`.M.!.q O ; - - - - - - - - - - - - - - - - - - - - - - - - - - - - - ",
"- - - - - - - - - - - - - - - - - - - - - - - - - - - - - - - X O.R a g s s f f s f a v 7.7.5.5.5.5.5.5.5.5.>.k.CXSXNXbXx   : - - - X x.#XGXPXPXPXPXPXPXPXPXPXHXrX&Xl V G K x.b.m.{.m.m.m.b.{.L.$ & - - - - - - - - - - - - - - - - - - - - - - - - - - - - - - ",
"- - - - - - - - - - - - - - - - - - - - - - - - - - - - - - - o 1 <.n a g s s f f s v a ! 7.5.5.5.5.5.5.5.5.5.<.5.MXDXVXa.& % - - X 5 #XHXPXPXLXPXPXPXPXJXFX7X$XqX*.z C B B B B G J K x.n.{.1X3 O ; - - - - - - - - - - - - - - - - - - - - - - - - - - - - - - ",
"- - - - - - - - - - - - - - - - - - - - - - - - - - - - - - - - X B <.n a g d d s f f a v 7.7.5.5.7.5.5.5.5.5.7.<.<.l.SXZXP   : -    XKXPXLXPXPXPXKXFXwX$X&X8X9XeXJ V F F F F C C B B B C J D O - - - - - - - - - - - - - - - - - - - - - - - - - - - - - - - - ",
"- - - - - - - - - - - - - - - - - - - - - - - - - - - - - - - - # - =.-.n a g s f f s f p ! 6.5.5.7.7.5.5.5.5.5.5.7.>.3.DXZX= %   e PXPXPXPXPXHXrX&X$X8XwXwX9XeX8XV C G C C C C F F F F V H > # - - - - - - - - - - - - - - - - - - - - - - - - - - - - - - - - ",
"- - - - - - - - - - - - - - - - - - - - - - - - - - - - - - - - - X 8 :.=.n p f s f s f a c 7.5.5.5.7.7.5.7.5.5.5.5.5.<.,.MXY     LXPXPXJXFX7X$X&X9XwX9XwXwX9XeX*.z G F C C C C C C C z @.D X - - - - - - - - - - - - - - - - - - - - - - - - - - - - - - - - - ",
"- - - - - - - - - - - - - - - - - - - - - - - - - - - - - - - - - * @ Q =.=.n a s f f s g a ` 6.5.5.7.5.5.5.5.5.5.5.5.7.5.>.z.$ r PXGXeX&X&X9XwXwX9X9X9XwX9X9XeXH B G F C C C C C C V | %.* & - - - - - - - - - - - - - - - - - - - - - - - - - - - - - - - - - ",
"- - - - - - - - - - - - - - - - - - - - - - - - - - - - - - - - - - X 4 :.O.-.R p f f s g a n 7.5.5.5.5.5.5.7.5.5.5.5.5.5.5.>.o.rX8X$X8XwXwXwXwXwX9X9X9X9X9XeX7XV C C C C C C C V V  .2.5 X - - - - - - - - - - - - - - - - - - - - - - - - - - - - - - - - - - ",
"- - - - - - - - - - - - - - - - - - - - - - - - - - - - - - - - - - - X B ;.Q =.Z a f f s f a -.6.5.5.5.5.7.5.7.5.5.5.5.5.5.4.%XpX8X9XwXwXwXwXwXwXwX9X9X9X9XeX*.z G C C C C F V C  .1.J X - - - - - - - - - - - - - - - - - - - - - - - - - - - - - - - - - - - ",
"- - - - - - - - - - - - - - - - - - - - - - - - - - - - - - - - - - - # < ;.O.Q -.R a s f f a m 6.5.5.5.5.7.7.5.5.5.5.5.5.5.XXoX/.uX9X9XwXwXwXwXwXwX9X9X9X9XeXH V G C C C F V F $.%.1.1 @ - - - - - - - - - - - - - - - - - - - - - - - - - - - - - - - - - - - ",
"- - - - - - - - - - - - - - - - - - - - - - - - - - - - - - - - - - - - X k :.O.O.=.R a f s s a 4.6.5.5.5.5.5.5.5.5.7.5.4.$XOXoXpX/.hX6X9XwX9XwXwXwXwX9X9XeX7Xz C C C C F V G $.$.1.D X - - - - - - - - - - - - - - - - - - - - - - - - - - - - - - - - - - - - ",
"- - - - - - - - - - - - - - - - - - - - - - - - - - - - - - - - - - - - * & O.=.O.Q -.R a s g p W 8.5.5.5.5.5.7.7.5.5.4..XOXXXXXpXyX/.hX6X9XwX9XwXwXwX9X9XeX*.z F V C V V H %.$.%.%.- * - - - - - - - - - - - - - - - - - - - - - - - - - - - - - - - - - - - - ",
"- - - - - - - - - - - - - - - - - - - - - - - - - - - - - - - - - - - - - X 4 :.Q O.O.-.R a s d s 5.5.5.5.5.5.7.5.7.4.9.OX%XXXXXyXyXyX/.tX6X9X9X9XwXwX9XwXeXG V F F V B J %.$.#.1.8 X - - - - - - - - - - - - - - - - - - - - - - - - - - - - - - - - - - - - - ",
"- - - - - - - - - - - - - - - - - - - - - - - - - - - - - - - - - - - - - - X A ;.O.O.Q -.E a f p W 8.5.5.5.5.5.5.4.9.OX%X%XXXoXyXyXyXyX/.tX6X9X9XwXwX9XeX&Xz F G C V  .%.$.$.1.J X - - - - - - - - - - - - - - - - - - - - - - - - - - - - - - - - - - - - - - ",
"- - - - - - - - - - - - - - - - - - - - - - - - - - - - - - - - - - - - - - o 1 :.O.O.=.O.-.E a a c 6.5.5.5.5.5.4.9.OXoXoX%XXXoXyXyXyXyXyX/.lX6X9X9XwX9XeX&.z G V C #.%.$.$.$.1.4 X - - - - - - - - - - - - - - - - - - - - - - - - - - - - - - - - - - - - - - ",
"- - - - - - - - - - - - - - - - - - - - - - - - - - - - - - - - - - - - - - - X l :.O.O.O.O.-.Q c p ! 8.5.5.5.4.9.OXoXoXoXoXXXoXyXyXyXyXyXyX/.lX6XwX9XwXeXG V V G $.%.$.$.$.1.D X - - - - - - - - - - - - - - - - - - - - - - - - - - - - - - - - - - - - - - - ",
"- - - - - - - - - - - - - - - - - - - - - - - - - - - - - - - - - - - - - - - # - =.=.O.O.=.O.-.Q p c 7.5.5.4.8.OXoXoXoXoXoXXXoXyXyXyXyXyXyXyXyXlX6X9XeX&Xz V H %.%.$.$.$.%.1.- @ - - - - - - - - - - - - - - - - - - - - - - - - - - - - - - - - - - - - - - - ",
"- - - - - - - - - - - - - - - - - - - - - - - - - - - - - - - - - - - - - - - - X 8 :.O.=.O.O.O.=.Q a ! 8.4.8.OXoXoXoXoXoXoXXXoXyXyXpXyXpXyXyXyXyX0X6XeXo.z | %.%.$.$.$.#.2.8 X - - - - - - - - - - - - - - - - - - - - - - - - - - - - - - - - - - - - - - - - ",
"- - - - - - - - - - - - - - - - - - - - - - - - - - - - - - - - - - - - - - - - * X E =.O.=.O.O.O.-.E v 5.6.OXoXoXoXoXoXoXoXXXXXyXyXyXyXyXpXyXyXyXyX0X6XV  .%.$.$.$.$.$.1.#.O * - - - - - - - - - - - - - - - - - - - - - - - - - - - - - - - - - - - - - - - - ",
"- - - - - - - - - - - - - - - - - - - - - - - - - - - - - - - - - - - - - - - - - X 4 :.O.O.O.O.=.O.=.E ,.,XoXoXoXoXoXoXoXoXXXXXyXyXyXyXyXpXpXyXpXyXaX|.} %.$.$.$.$.$.$.2.5 X - - - - - - - - - - - - - - - - - - - - - - - - - - - - - - - - - - - - - - - - - ",
"- - - - - - - - - - - - - - - - - - - - - - - - - - - - - - - - - - - - - - - - - - X A ;.O.O.O.=.O.O.Q A oXoXoXoXoXoXoXoXoXXXXXyXyXyXyXpXyXyXyXyXaX/.T.].'.%.$.@.$.#.1.J X - - - - - - - - - - - - - - - - - - - - - - - - - - - - - - - - - - - - - - - - - - ",
"- - - - - - - - - - - - - - - - - - - - - - - - - - - - - - - - - - - - - - - - - - # > ;.=.O.=.O.O.=.Q h ...XOXoXoXoXoXoX%XXXXXyXyXyXyXyXpXpXyXaXyXC.F.}.}.}.}.'.%.$.1.< @ - - - - - - - - - - - - - - - - - - - - - - - - - - - - - - - - - - - - - - - - - - ",
"- - - - - - - - - - - - - - - - - - - - - - - - - - - - - - - - - - - - - - - - - - - X k :.O.O.O.O.=.E h H ...X%XoXoXoXoXoXXXXXyXyXyXyXpXpXyXaX~.V.Z.J.{.].}.}.}.}.#XD X - - - - - - - - - - - - - - - - - - - - - - - - - - - - - - - - - - - - - - - - - - - ",
"- - - - - - - - - - - - - - - - - - - - - - - - - - - - - - - - - - - - - - - - - - - * * O.=.O.O.O.=.N h Z X.} 2.%XoXoXoXoXXXoXyXyXyXyXyXpXaX~.B.V.S.J.Y.].}.}.}.@X`.X - - - - - - - - - - - - - - - - - - - - - - - - - - - - - - - - - - - - - - - - - - - - ",
"- - - - - - - - - - - - - - - - - - - - - - - - - - - - - - - - - - - - - - - - - - - - X 4 :.O.O.=.Q b M b | X.} 1.%XoXoXoXXXoXyXyXyXyXpXaX~.B.I.U.K.J.F.].}.}.}.#X5 X , - - - - - - - - - - - - - - - - - - - - - - - - - - - - - - - - - - - - - - - - - - - ",
"- - - - - - - - - - - - - - - - - - - - - - - - - - - - - - - - - - - - - - - - - - - - - X E ;.Q =.Z h M h A $...} %.%XoXoXXXoXyXyXyXpXaXT.B.P.I.S.J.K.J.{.].}.#XK X - - - - - - - - - - - - - - - - - - - - - - - - - - - - - - - - - - - - - - - - - - - - - ",
"- - - - - - - - - - - - - - - - - - - - - - - - - - - - - - - - - - - - - - - - - - - - - o 1 ;.O.O.M M M M M X.....} %.%XoXXXoXyXyXpXaXU.B.P.P.I.F.D.K.J.Y.].}.@X< @ - - - - - - - - - - - - - - - - - - - - - - - - - - - - - - - - - - - - - - - - - - - - - ",
"- - - - - - - - - - - - - - - - - - - - - - - - - - - - - - - - - - - - - - - - - - - - - - X l >.E l M M M h } @...X.} $.%X%XXXyXpXaXU.B.P.P.P.U.D.D.K.J.T._.#Xw X ; - - - - - - - - - - - - - - - - - - - - - - - - - - - - - - - - - - - - - - - - - - - - - ",
"- - - - - - - - - - - - - - - - - - - - - - - - - - - - - - - - - - - - - - - - - - - - - - # : -.N l M M M b A @.......} @.XXoXaXpXU.B.P.P.P.I.S.D.K.K.K.J.}.].& * - - - - - - - - - - - - - - - - - - - - - - - - - - - - - - - - - - - - - - - - - - - - - - ",
"- - - - - - - - - - - - - - - - - - - - - - - - - - - - - - - - - - - - - - - - - - - - - - - X 8 Z M M M M M M X.X...X.X.| ..%XpXC.C.P.P.P.P.P.F.J.K.J.K.J.1X8 X ; - - - - - - - - - - - - - - - - - - - - - - - - - - - - - - - - - - - - - - - - - - - - - - ",
"- - - - - - - - - - - - - - - - - - - - - - - - - - - - - - - - - - - - - - - - - - - - - - - - @ l Z M M M M b H @.......X.} X.Z.C.P.P.P.P.I.Z.D.K.J.K.K.E.G.O - - - - - - - - - - - - - - - - - - - - - - - - - - - - - - - - - - - - - - - - - - - - - - - - ",
"- - - - - - - - - - - - - - - - - - - - - - - - - - - - - - - - - - - - - - - - - - - - - - - - # > N M M M M M N X.....X.X.....C.U.P.P.P.P.I.F.J.F.K.K.K.E.; $ ; - - - - - - - - - - - - - - - - - - - - - - - - - - - - - - - - - - - - - - - - - - - - - - - ",
"- - - - - - - - - - - - - - - - - - - - - - - - - - - - - - - - - - - - - - - - - - - - - - - - - X 4 Z M M M M M | @.....X.....U.Z.P.P.P.I.U.J.K.K.K.F.^.0   ; - - - - - - - - - - - - - - - - - - - - - - - - - - - - - - - - - - - - - - - - - - - - - - - - ",
"- - - - - - - - - - - - - - - - - - - - - - - - - - - - - - - - - - - - - - - - - - - - - - - - - - o 7 Z M M M b A $.....X.....P.Z.P.P.P.I.S.J.K.K.F.Q.y   - - - - - - - - - - - - - - - - - - - - - - - - - - - - - - - - - - - - - - - - - - - - - - - - - - ",
"- - - - - - - - - - - - - - - - - - - - - - - - - - - - - - - - - - - - - - - - - - - - - - - - - - * * l N M M M N X.X...X.....P.U.P.P.P.I.F.J.K.K.E.H.O & - - - - - - - - - - - - - - - - - - - - - - - - - - - - - - - - - - - - - - - - - - - - - - - - - - ",
"- - - - - - - - - - - - - - - - - - - - - - - - - - - - - - - - - - - - - - - - - - - - - - - - - - - # 1 Z M M M h H X...X.....P.C.P.P.I.U.J.K.K.K.Q.2 O ; - - - - - - - - - - - - - - - - - - - - - - - - - - - - - - - - - - - - - - - - - - - - - - - - - - ",
"- - - - - - - - - - - - - - - - - - - - - - - - - - - - - - - - - - - - - - - - - - - - - - - - - - - - o 4 Z M M b A X...X.....P.Z.P.P.I.S.J.K.K.^.q   ; - - - - - - - - - - - - - - - - - - - - - - - - - - - - - - - - - - - - - - - - - - - - - - - - - - - ",
"- - - - - - - - - - - - - - - - - - - - - - - - - - - - - - - - - - - - - - - - - - - - - - - - - - - - - X k Z M M M | X.X.....P.U.P.P.P.K.K.K.Q.G.  - - - - - - - - - - - - - - - - - - - - - - - - - - - - - - - - - - - - - - - - - - - - - - - - - - - - - ",
"- - - - - - - - - - - - - - - - - - - - - - - - - - - - - - - - - - - - - - - - - - - - - - - - - - - - - * = M N M b H X.......C.U.P.I.S.J.K.K.E.- $ - - - - - - - - - - - - - - - - - - - - - - - - - - - - - - - - - - - - - - - - - - - - - - - - - - - - - ",
"- - - - - - - - - - - - - - - - - - - - - - - - - - - - - - - - - - - - - - - - - - - - - - - - - - - - - - o 4 Z M M N X.......C.P.P.P.F.K.K.!.0   ; - - - - - - - - - - - - - - - - - - - - - - - - - - - - - - - - - - - - - - - - - - - - - - - - - - - - - ",
"- - - - - - - - - - - - - - - - - - - - - - - - - - - - - - - - - - - - - - - - - - - - - - - - - - - - - - - X 7 Z M M | X.....C.Z.P.U.F.K.!.t   ; - - - - - - - - - - - - - - - - - - - - - - - - - - - - - - - - - - - - - - - - - - - - - - - - - - - - - - ",
"- - - - - - - - - - - - - - - - - - - - - - - - - - - - - - - - - - - - - - - - - - - - - - - - - - - - - - - * # l N h A X.....P.Z.I.S.J.E.H.O & - - - - - - - - - - - - - - - - - - - - - - - - - - - - - - - - - - - - - - - - - - - - - - - - - - - - - - - ",
"- - - - - - - - - - - - - - - - - - - - - - - - - - - - - - - - - - - - - - - - - - - - - - - - - - - - - - - - # < Z M M X.....C.U.P.F.J.!.2 O ; - - - - - - - - - - - - - - - - - - - - - - - - - - - - - - - - - - - - - - - - - - - - - - - - - - - - - - - ",
"- - - - - - - - - - - - - - - - - - - - - - - - - - - - - - - - - - - - - - - - - - - - - - - - - - - - - - - - - o 4 Z l } ....C.P.Z.D.!.q   ; - - - - - - - - - - - - - - - - - - - - - - - - - - - - - - - - - - - - - - - - - - - - - - - - - - - - - - - - ",
"- - - - - - - - - - - - - - - - - - - - - - - - - - - - - - - - - - - - - - - - - - - - - - - - - - - - - - - - - - @ k N A @...P.I.S.Q.G.  - - - - - - - - - - - - - - - - - - - - - - - - - - - - - - - - - - - - - - - - - - - - - - - - - - - - - - - - - - ",
"- - - - - - - - - - - - - - - - - - - - - - - - - - - - - - - - - - - - - - - - - - - - - - - - - - - - - - - - - - * - M N .. .C.U.K.K.- $ ; - - - - - - - - - - - - - - - - - - - - - - - - - - - - - - - - - - - - - - - - - - - - - - - - - - - - - - - - - ",
"- - - - - - - - - - - - - - - - - - - - - - - - - - - - - - - - - - - - - - - - - - - - - - - - - - - - - - - - - - - o 4 Z H X.P.Z.!.0 O ; - - - - - - - - - - - - - - - - - - - - - - - - - - - - - - - - - - - - - - - - - - - - - - - - - - - - - - - - - - ",
"- - - - - - - - - - - - - - - - - - - - - - - - - - - - - - - - - - - - - - - - - - - - - - - - - - - - - - - - - - - - o 7 A #.I.Q.y O ; - - - - - - - - - - - - - - - - - - - - - - - - - - - - - - - - - - - - - - - - - - - - - - - - - - - - - - - - - - - ",
"- - - - - - - - - - - - - - - - - - - - - - - - - - - - - - - - - - - - - - - - - - - - - - - - - - - - - - - - - - - - * * M | U.L.$ $ - - - - - - - - - - - - - - - - - - - - - - - - - - - - - - - - - - - - - - - - - - - - - - - - - - - - - - - - - - - - ",
"- - - - - - - - - - - - - - - - - - - - - - - - - - - - - - - - - - - - - - - - - - - - - - - - - - - - - - - - - - - - - # > +.^.2 O ; - - - - - - - - - - - - - - - - - - - - - - - - - - - - - - - - - - - - - - - - - - - - - - - - - - - - - - - - - - - - ",
"- - - - - - - - - - - - - - - - - - - - - - - - - - - - - - - - - - - - - - - - - - - - - - - - - - - - - - - - - - - - - - X 8 t X ; - - - - - - - - - - - - - - - - - - - - - - - - - - - - - - - - - - - - - - - - - - - - - - - - - - - - - - - - - - - - - ",
"- - - - - - - - - - - - - - - - - - - - - - - - - - - - - - - - - - - - - - - - - - - - - - - - - - - - - - - - - - - - - - - * $ - - - - - - - - - - - - - - - - - - - - - - - - - - - - - - - - - - - - - - - - - - - - - - - - - - - - - - - - - - - - - - - ",
"- - - - - - - - - - - - - - - - - - - - - - - - - - - - - - - - - - - - - - - - - - - - - - - - - - - - - - - - - - - - - - - - - - - - - - - - - - - - - - - - - - - - - - - - - - - - - - - - - - - - - - - - - - - - - - - - - - - - - - - - - - - - - - - - ",
"- - - - - - - - - - - - - - - - - - - - - - - - - - - - - - - - - - - - - - - - - - - - - - - - - - - - - - - - - - - - - - - - - - - - - - - - - - - - - - - - - - - - - - - - - - - - - - - - - - - - - - - - - - - - - - - - - - - - - - - - - - - - - - - - ",
"- - - - - - - - - - - - - - - - - - - - - - - - - - - - - - - - - - - - - - - - - - - - - - - - - - - - - - - - - - - - - - - - - - - - - - - - - - - - - - - - - - - - - - - - - - - - - - - - - - - - - - - - - - - - - - - - - - - - - - - - - - - - - - - - ",
"- - - - - - - - - - - - - - - - - - - - - - - - - - - - - - - - - - - - - - - - - - - - - - - - - - - - - - - - - - - - - - - - - - - - - - - - - - - - - - - - - - - - - - - - - - - - - - - - - - - - - - - - - - - - - - - - - - - - - - - - - - - - - - - - ",
"- - - - - - - - - - - - - - - - - - - - - - - - - - - - - - - - - - - - - - - - - - - - - - - - - - - - - - - - - - - - - - - - - - - - - - - - - - - - - - - - - - - - - - - - - - - - - - - - - - - - - - - - - - - - - - - - - - - - - - - - - - - - - - - - ",
"- - - - - - - - - - - - - - - - - - - - - - - - - - - - - - - - - - - - - - - - - - - - - - - - - - - - - - - - - - - - - - - - - - - - - - - - - - - - - - - - - - - - - - - - - - - - - - - - - - - - - - - - - - - - - - - - - - - - - - - - - - - - - - - - ",
"- - - - - - - - - - - - - - - - - - - - - - - - - - - - - - - - - - - - - - - - - - - - - - - - - - - - - - - - - - - - - - - - - - - - - - - - - - - - - - - - - - - - - - - - - - - - - - - - - - - - - - - - - - - - - - - - - - - - - - - - - - - - - - - - ",
"- - - - - - - - - - - - - - - - - - - - - - - - - - - - - - - - - - - - - - - - - - - - - - - - - - - - - - - - - - - - - - - - - - - - - - - - - - - - - - - - - - - - - - - - - - - - - - - - - - - - - - - - - - - - - - - - - - - - - - - - - - - - - - - - ",
"- - - - - - - - - - - - - - - - - - - - - - - - - - - - - - - - - - - - - - - - - - - - - - - - - - - - - - - - - - - - - - - - - - - - - - - - - - - - - - - - - - - - - - - - - - - - - - - - - - - - - - - - - - - - - - - - - - - - - - - - - - - - - - - - ",
"- - - - - - - - - - - - - - - - - - - - - - - - - - - - - - - - - - - - - - - - - - - - - - - - - - - - - - - - - - - - - - - - - - - - - - - - - - - - - - - - - - - - - - - - - - - - - - - - - - - - - - - - - - - - - - - - - - - - - - - - - - - - - - - - ",
"- - - - - - - - - - - - - - - - - - - - - - - - - - - - - - - - - - - - - - - - - - - - - - - - - - - - - - - - - - - - - - - - - - - - - - - - - - - - - - - - - - - - - - - - - - - - - - - - - - - - - - - - - - - - - - - - - - - - - - - - - - - - - - - - ",
"- - - - - - - - - - - - - - - - - - - - - - - - - - - - - - - - - - - - - - - - - - - - - - - - - - - - - - - - - - - - - - - - - - - - - - - - - - - - - - - - - - - - - - - - - - - - - - - - - - - - - - - - - - - - - - - - - - - - - - - - - - - - - - - - ",
"- - - - - - - - - - - - - - - - - - - - - - - - - - - - - - - - - - - - - - - - - - - - - - - - - - - - - - - - - - - - - - - - - - - - - - - - - - - - - - - - - - - - - - - - - - - - - - - - - - - - - - - - - - - - - - - - - - - - - - - - - - - - - - - - ",
"- - - - - - - - - - - - - - - - - - - - - - - - - - - - - - - - - - - - - - - - - - - - - - - - - - - - - - - - - - - - - - - - - - - - - - - - - - - - - - - - - - - - - - - - - - - - - - - - - - - - - - - - - - - - - - - - - - - - - - - - - - - - - - - - ",
"- - - - - - - - - - - - - - - - - - - - - - - - - - - - - - - - - - - - - - - - - - - - - - - - - - - - - - - - - - - - - - - - - - - - - - - - - - - - - - - - - - - - - - - - - - - - - - - - - - - - - - - - - - - - - - - - - - - - - - - - - - - - - - - - ",
"- - - - - - - - - - - - - - - - - - - - - - - - - - - - - - - - - - - - - - - - - - - - - - - - - - - - - - - - - - - - - - - - - - - - - - - - - - - - - - - - - - - - - - - - - - - - - - - - - - - - - - - - - - - - - - - - - - - - - - - - - - - - - - - - ",
"- - - - - - - - - - - - - - - - - - - - - - - - - - - - - - - - - - - - - - - - - - - - - - - - - - - - - - - - - - - - - - - - - - - - - - - - - - - - - - - - - - - - - - - - - - - - - - - - - - - - - - - - - - - - - - - - - - - - - - - - - - - - - - - - ",
"- - - - - - - - - - - - - - - - - - - - - - - - - - - - - - - - - - - - - - - - - - - - - - - - - - - - - - - - - - - - - - - - - - - - - - - - - - - - - - - - - - - - - - - - - - - - - - - - - - - - - - - - - - - - - - - - - - - - - - - - - - - - - - - - ",
"- - - - - - - - - - - - - - - - - - - - - - - - - - - - - - - - - - - - - - - - - - - - - - - - - - - - - - - - - - - - - - - - - - - - - - - - - - - - - - - - - - - - - - - - - - - - - - - - - - - - - - - - - - - - - - - - - - - - - - - - - - - - - - - - ",
"- - - - - - - - - - - - - - - - - - - - - - - - - - - - - - - - - - - - - - - - - - - - - - - - - - - - - - - - - - - - - - - - - - - - - - - - - - - - - - - - - - - - - - - - - - - - - - - - - - - - - - - - - - - - - - - - - - - - - - - - - - - - - - - - ",
"- - - - - - - - - - - - - - - - - - - - - - - - - - - - - - - - - - - - - - - - - - - - - - - - - - - - - - - - - - - - - - - - - - - - - - - - - - - - - - - - - - - - - - - - - - - - - - - - - - - - - - - - - - - - - - - - - - - - - - - - - - - - - - - - ",
"- - - - - - - - - - - - - - - - - - - - - - - - - - - - - - - - - - - - - - - - - - - - - - - - - - - - - - - - - - - - - - - - - - - - - - - - - - - - - - - - - - - - - - - - - - - - - - - - - - - - - - - - - - - - - - - - - - - - - - - - - - - - - - - - ",
"- - - - - - - - - - - - - - - - - - - - - - - - - - - - - - - - - - - - - - - - - - - - - - - - - - - - - - - - - - - - - - - - - - - - - - - - - - - - - - - - - - - - - - - - - - - - - - - - - - - - - - - - - - - - - - - - - - - - - - - - - - - - - - - - "
};
