/* XPM */
static const char *bitcoin32[] = {
/* columns rows colors chars-per-pixel */
"32 32 180 2 ",
"   c #010402",
".  c #0C0303",
"X  c #020900",
"o  c #0A0A03",
"O  c #00060B",
"+  c #0A030C",
"@  c #030A0A",
"#  c #090A0A",
"$  c #040614",
"%  c #0C0614",
"&  c #030913",
"*  c #0C0914",
"=  c #01081A",
"-  c #0D0A1B",
";  c #1A0C16",
":  c #110A1D",
">  c #210D1B",
",  c #0D0B21",
"<  c #110A20",
"1  c #1E0B24",
"2  c #0F1121",
"3  c #0B0F35",
"4  c #110835",
"5  c #2D0D2E",
"6  c #400F30",
"7  c #12104D",
"8  c #270B4A",
"9  c #2E0F53",
"0  c #182A59",
"q  c #150560",
"w  c #050577",
"e  c #041375",
"r  c #290B6D",
"t  c #340A61",
"y  c #1A3069",
"u  c #1A397D",
"i  c #591345",
"p  c #65115D",
"a  c #481566",
"s  c #560C7E",
"d  c #5E207F",
"f  c #8D155D",
"g  c #B61D6A",
"h  c #00048E",
"j  c #04079A",
"k  c #1C0391",
"l  c #2D0D8A",
"z  c #25019C",
"x  c #31009B",
"c  c #1C3489",
"v  c #0708A6",
"b  c #1409B7",
"n  c #2604AC",
"m  c #370CAE",
"M  c #2301B5",
"N  c #3B06B8",
"B  c #0626B6",
"V  c #5F0093",
"C  c #560EAA",
"Z  c #4505B6",
"A  c #6F00A8",
"S  c #16428F",
"D  c #1D0ACF",
"F  c #001AC8",
"G  c #210FC0",
"H  c #3203C7",
"J  c #2D0ED0",
"K  c #380BDB",
"L  c #361AD9",
"P  c #0021CD",
"I  c #2E36CE",
"U  c #3809E7",
"Y  c #0835E4",
"T  c #002AF5",
"R  c #0231F3",
"E  c #003AFF",
"W  c #4506C6",
"Q  c #5A0BC9",
"!  c #490AD7",
"~  c #7314DF",
"^  c #6A26CA",
"/  c #4D0EF6",
"(  c #4D0DFB",
")  c #550FFF",
"_  c #431BFF",
"`  c #5A14FF",
"'  c #6B09E9",
"]  c #7514E9",
"[  c #7618F9",
"{  c #5425FF",
"}  c #5B25FE",
"|  c #6528FF",
" . c #6A3CFF",
".. c #0544FE",
"X. c #0949FF",
"o. c #1653FD",
"O. c #195CF9",
"+. c #1C64FF",
"@. c #3071EF",
"#. c #2B74FA",
"$. c #3378F6",
"%. c #317AFF",
"&. c #674AFF",
"*. c #6967F4",
"=. c #BF0C97",
"-. c #8100BD",
";. c #AE07BC",
":. c #D21E88",
">. c #C3129E",
",. c #F7098A",
"<. c #E51A87",
"1. c #E4169B",
"2. c #FF1B97",
"3. c #F62197",
"4. c #FE2398",
"5. c #D61CA9",
"6. c #EC19AD",
"7. c #FF1FB5",
"8. c #DE2CB4",
"9. c #E526AD",
"0. c #FF27A9",
"q. c #FF26B2",
"w. c #F837B2",
"e. c #FF3DBB",
"r. c #FF44AD",
"t. c #FF45BF",
"y. c #FF54BE",
"u. c #9305C2",
"i. c #910FCF",
"p. c #9F27C6",
"a. c #A126DC",
"s. c #800FEC",
"d. c #9F1DEC",
"f. c #8C1DFB",
"g. c #931CFD",
"h. c #9B1CFC",
"j. c #B410F6",
"k. c #812FFF",
"l. c #9A21FF",
"z. c #9D39FF",
"x. c #B537E9",
"c. c #A220FF",
"v. c #C516C0",
"b. c #F01FC2",
"n. c #CB36DF",
"m. c #C815FF",
"M. c #E117E5",
"N. c #CC35FF",
"B. c #D638FF",
"V. c #9B5CD6",
"C. c #9646F3",
"Z. c #B74DEA",
"A. c #A142FF",
"S. c #B942F2",
"D. c #A25BFA",
"F. c #B552FA",
"G. c #FE45C4",
"H. c #FF4ECA",
"J. c #FF54CB",
"K. c #FF58C9",
"L. c #FF5CD2",
"P. c #C34AF3",
"I. c #D055F2",
"U. c #FF4CE6",
"Y. c #C271E1",
"T. c #E676FF",
"R. c #3483FF",
"E. c #358AFF",
"W. c #4B98FF",
"Q. c #748DFE",
"!. c #609FFF",
"~. c #66A7FB",
"^. c #72A1F9",
"/. c #67B7FF",
"(. c #9A909B",
"). c #83AAFF",
"_. c #D799E0",
"`. c #F9B3FF",
"'. c #FDE2FF",
"]. c #FFFEFF",
/* pixels */
"- - - - - - - - - - - - - - - - - - - - - - - - - - - - - - - - ",
"- - - - - - - - - - - - - - - - - - - - - - - - - - - - - - - - ",
"- - - - - - - - - - - - - - - - - - - - - - - - - - - - - - - - ",
"- - - - - - - - - - - - - - - - - - - - - - - - - - - - - - - - ",
"- - - * % * * % % % * - - - - - - - - - - $ $ $ $ $ $ $ - - - - ",
"- - - - , $ % * * * % + - - - - - - - - O * $ $ $ $ & 2 : - - - ",
"- - * , o.+.....X...o.0 . , - - - - : X 9 U.y.H.J.K.J.e.1 & - - ",
"- - - . e o.%.+.X.E +.@.  - - - - - - X a.N.K.L.J.w.q.f O : - - ",
"- - - * . F Y $.R.O.#.E.y   , - - < X a B.d.n.r.3.2.3.& $ - - - ",
"- - - - . 7 T P O.W.^.%.#.. % - - * O x.j.S.Y.,.4.q.i O : - - - ",
"- - - - - . B R F I ).~.R.u   , <   d m.x.].p.1.0.:.O - - - - - ",
"- - - - - . 3 R j h { Q.~.#.+ % & * j.P.]._.-.9.0.5 O : - - - - ",
"- - - - - - o w v h J ` *./.S . X V T.].].;.u.b.g O : - - - - - ",
"- - - - - - * : b h v } ( &.!.@ % `.].].V.A i.v.; & - - - - - - ",
"- - - - - - , o r D w L | /  .c (.'.D.z.N z W r X - - - - - - - ",
"- - - - - - - - o ! b j } } _ [ I.k.A.C.x Z Q @ * - - - - - - - ",
"- - - - - - - - o 7 ) j L { } h.e.Z.D.^ x [ 8 X - - - - - - - - ",
"- - - - - - - - - X m ( G | g.g.G.t.F.N ' C X - - - - - - - - - ",
"- - - - - - - - - # , ( K ~ c.f.G.J.w.i.s., @ - - - - - - - - - ",
"- - - - - - - - - , X l U z ] l.H.8.<.M.s X < - - - - - - - - - ",
"- - - - - - - - - - * * n n W ] 9.=.4.5.& * - - - - - - - - - - ",
"- - - - - - - - - - - # 4 M W Q >.1.0.6 O : - - - - - - - - - - ",
"- - - - - - - - - - - - o q H Q >.q.f X : - - - - - - - - - - - ",
"- - - - - - - - - - - - - o k ! 6.<.O - - - - - - - - - - - - - ",
"- - - - - - - - - - - - - * = W 7.> & : - - - - - - - - - - - - ",
"- - - - - - - - - - - - - - X t p X : - - - - - - - - - - - - - ",
"- - - - - - - - - - - - - - - & & - - - - - - - - - - - - - - - ",
"- - - - - - - - - - - - - - - - - - - - - - - - - - - - - - - - ",
"- - - - - - - - - - - - - - - - - - - - - - - - - - - - - - - - ",
"- - - - - - - - - - - - - - - - - - - - - - - - - - - - - - - - ",
"- - - - - - - - - - - - - - - - - - - - - - - - - - - - - - - - ",
"- - - - - - - - - - - - - - - - - - - - - - - - - - - - - - - - "
};
