/* XPM */
static const char *bitcoin64[] = {
/* columns rows colors chars-per-pixel */
"64 64 235 2 ",
"   c #010302",
".  c #0B0202",
"X  c #030902",
"o  c #0A0A04",
"O  c #00060C",
"+  c #0C050D",
"@  c #03090B",
"#  c #0A0A0B",
"$  c #040715",
"%  c #0C0614",
"&  c #040814",
"*  c #0C0914",
"=  c #060F1C",
"-  c #0D0A1B",
";  c #110A1E",
":  c #010720",
">  c #0E0B21",
",  c #120B20",
"<  c #190B27",
"1  c #160938",
"2  c #0C103A",
"3  c #2D0D2A",
"4  c #44113A",
"5  c #12144C",
"6  c #180852",
"7  c #250D41",
"8  c #371052",
"9  c #142454",
"0  c #120E6B",
"q  c #300A70",
"w  c #142964",
"e  c #142F6D",
"r  c #6E1650",
"t  c #4F1970",
"y  c #73136C",
"u  c #961A66",
"i  c #BC1E7B",
"p  c #C2207F",
"a  c #000289",
"s  c #071B82",
"d  c #020593",
"f  c #04069B",
"g  c #06089D",
"h  c #08089F",
"j  c #1D029B",
"k  c #2F0888",
"l  c #28029D",
"z  c #31049C",
"x  c #0907A3",
"c  c #0907B4",
"v  c #1B0CB3",
"b  c #2803A6",
"n  c #3501A3",
"m  c #3904A2",
"M  c #3606AA",
"N  c #2903B8",
"B  c #390AB7",
"V  c #0623AB",
"C  c #510080",
"Z  c #621B86",
"A  c #75209F",
"S  c #4306AC",
"D  c #500CA1",
"F  c #4809B6",
"G  c #740DAE",
"H  c #1F4189",
"J  c #244C9E",
"K  c #2555B1",
"L  c #031FC5",
"P  c #001ED0",
"I  c #2F0EC9",
"U  c #390CD5",
"Y  c #3818DA",
"T  c #0522C5",
"R  c #0023D4",
"E  c #022BD4",
"W  c #032DD8",
"Q  c #0532DC",
"!  c #153CD6",
"~  c #0128E8",
"^  c #0331E7",
"/  c #012FF3",
"(  c #0234F7",
")  c #4A07C5",
"_  c #5308C4",
"`  c #540ACC",
"'  c #5C0BCE",
"]  c #4E08D2",
"[  c #420EDD",
"{  c #5C0BD0",
"}  c #620DC9",
"|  c #660CD6",
" . c #6C0FDA",
".. c #780ED0",
"X. c #6A12DD",
"o. c #6C25D1",
"O. c #440DE3",
"+. c #470EE9",
"@. c #470EF5",
"#. c #4B0DFB",
"$. c #4B14FD",
"%. c #5318FC",
"&. c #730EEA",
"*. c #7316E7",
"=. c #770DF5",
"-. c #4A20F0",
";. c #4E23FB",
":. c #5424FC",
">. c #5B26FF",
",. c #5B28FF",
"<. c #5634F9",
"1. c #6227FD",
"2. c #1647DD",
"3. c #2B5FC3",
"4. c #2763D4",
"5. c #0543FC",
"6. c #0B47FA",
"7. c #0A4AFD",
"8. c #1759FC",
"9. c #205BF0",
"0. c #1A64FF",
"q. c #2262E2",
"w. c #2669F9",
"e. c #2A71FB",
"r. c #2D73FC",
"t. c #3679F8",
"y. c #337BFD",
"u. c #5E57F9",
"i. c #6954FD",
"p. c #6D74FB",
"a. c #B7129D",
"s. c #8B00BE",
"d. c #9600B6",
"f. c #9A10BB",
"g. c #AB0BB9",
"h. c #A411BF",
"j. c #8723B5",
"k. c #C40E99",
"l. c #C3149E",
"z. c #CD159E",
"x. c #DF179D",
"c. c #F6138C",
"v. c #E81B99",
"b. c #FA1C93",
"n. c #F61E9B",
"m. c #E5218D",
"M. c #FF228E",
"N. c #FE2294",
"B. c #FD229A",
"V. c #F8259C",
"C. c #C616A5",
"Z. c #CB16A2",
"A. c #D619A3",
"S. c #C618B8",
"D. c #EA1AAC",
"F. c #DE23AA",
"G. c #FF22A3",
"H. c #FF26AC",
"J. c #FD2CA9",
"K. c #F331A9",
"L. c #E32CB2",
"P. c #FF24B4",
"I. c #FC4ABE",
"U. c #FF54BC",
"Y. c #930EC5",
"T. c #9911C4",
"R. c #9B0FD7",
"E. c #A514C2",
"W. c #B214C2",
"Q. c #B512D2",
"!. c #9827CA",
"~. c #AB36D2",
"^. c #9D10E1",
"/. c #8417F2",
"(. c #8E1DFC",
"). c #921EFC",
"_. c #991CFC",
"`. c #A706E8",
"'. c #AC17E8",
"]. c #AC11F2",
"[. c #8F3FEF",
"{. c #8B2FFB",
"}. c #9B22FF",
"|. c #993CFB",
" X c #A628E9",
".X c #B129E8",
"XX c #B52DEC",
"oX c #B734EB",
"OX c #D439CF",
"+X c #FF3EC3",
"@X c #C811FA",
"#X c #C02FFC",
"$X c #CC33FF",
"%X c #D335FF",
"&X c #B84DCD",
"*X c #984AF9",
"=X c #9751FF",
"-X c #B855EC",
";X c #A24CFA",
":X c #A855FD",
">X c #AF6EF4",
",X c #CC50D4",
"<X c #FE45C4",
"1X c #FD4FC5",
"2X c #F647CA",
"3X c #FF4DCE",
"4X c #FD52C4",
"5X c #FF52CB",
"6X c #FC5ACB",
"7X c #C65AEF",
"8X c #FF4FE3",
"9X c #CD74F6",
"0X c #2F81FF",
"qX c #3483FF",
"wX c #3886FF",
"eX c #3B8AFF",
"rX c #4783FB",
"tX c #5995F9",
"yX c #7181FF",
"uX c #6A99FB",
"iX c #729CFC",
"pX c #789EF8",
"aX c #71AAFD",
"sX c #6AB7FF",
"dX c #75B1FC",
"fX c #909A84",
"gX c #80A7FC",
"hX c #CC8DF6",
"jX c #D7A8F5",
"kX c #F8AAFF",
"lX c #EED4F5",
"zX c #EDD6F4",
"xX c #FAE6FC",
"cX c #F9F5FB",
"vX c #FFFFFE",
/* pixels */
"- - - - - - - - - - - - - - - - - - - - - - - - - - - - - - - - - - - - - - - - - - - - - - - - - - - - - - - - - - - - - - - - ",
"- - - - - - - - - - - - - - - - - - - - - - - - - - - - - - - - - - - - - - - - - - - - - - - - - - - - - - - - - - - - - - - - ",
"- - - - - - - - - - - - - - - - - - - - - - - - - - - - - - - - - - - - - - - - - - - - - - - - - - - - - - - - - - - - - - - - ",
"- - - - - - - - - - - - - - - - - - - - - - - - - - - - - - - - - - - - - - - - - - - - - - - - - - - - - - - - - - - - - - - - ",
"- - - - - - - - - - - - - - - - - - - - - - - - - - - - - - - - - - - - - - - - - - - - - - - - - - - - - - - - - - - - - - - - ",
"- - - - - - - - - - - - - - - - - - - - - - - - - - - - - - - - - - - - - - - - - - - - - - - - - - - - - - - - - - - - - - - - ",
"- - - - - - - - - - - - - - - - - - - - - - - - - - - - - - - - - - - - - - - - - - - - - - - - - - - - - - - - - - - - - - - - ",
"- - - - - - - - - - - - - - - - - - - - - - - - - - - - - - - - - - - - - - - - - - - - - - - - - - - - - - - - - - - - - - - - ",
"- - - - - - - - - - - - - - - - - - - - - - - - - - - - - - - - - - - - - - - - - - - - - - - - - - - - - - - - - - - - - - - - ",
"- - - - - - - - - - - - - - - - - - - - - - - - - - - - - - - - - - - - - - - - - - - - - - - - - - - - - - - - - - - - - - - - ",
"- - - - - - - % % * % % % * % % % % % % % * - - - - - - - - - - - - - - - - - - - - $ $ $ $ $ $ $ $ $ $ $ $ $ $ $ - - - - - - - ",
"- - - - - - * > - % * * * * * * * * * * * * + - - - - - - - - - - - - - - - - - - O * & & & & & & & & & & & & = , * - - - - - - ",
"- - - - - - o w 0.8.5.5.7.7.7.7.7.7.7.7.6.8.w . > - - - - - - - - - - - - - - ,   8 8XU.1X4X1X1X1X4X4X4X4X6X6X3Xr O ; - - - - - ",
"- - - - - - - . T w.y.8.5.5.5.7.7.7.7.7.5.0.t.. * - - - - - - - - - - - - - - -    X$X4X4X5X5X5X5X5X5X5X6XI.J.m.O - - - - - - - ",
"- - - - - - - o 2 ~ 2.wXy.8.6.( 5.6.6.6.5.w.eXe   > - - - - - - - - - - - - ,   t %X XOXU.4X4X1X1X4X6XI.V.b.H.4 O ; - - - - - - ",
"- - - - - - - - . V ~ E r.eXy.w.8.5.5.5.7.y.y.y.+ % - - - - - - - - - - - - $ O XXXXXX X2X4X1X4X6XI.J.b.b.H.p   - - - - - - - - ",
"- - - - - - - - + > / R R 9.wXy.y.r.8.5.8.y.r.wXH   > - - - - - - - - - - ,   Z %X.XXX.XoX4X6X4XJ.b.b.B.B.H.< O ; - - - - - - - ",
"- - - - - - - - - . s / E P 2.y.y.r.y.r.rXr.t.y.y.- + - - - - - - - - - - @ - #XXXXXXXoX_.,XJ.b.b.B.B.N.H.u   ; - - - - - - - - ",
"- - - - - - - - - * + W ^ W P Q r.qXe.t.gXrXe.t.wXJ   > - - - - - - - - ;   A $X.XXXoX`.9X,Xc.B.B.B.N.B.G.$ & - - - - - - - - - ",
"- - - - - - - - - - . 0 ( E W R R w.qXtXiXiXrXe.y.qX> + - - - - - - - - O < $XXXXXoX`.9XvXs.n.N.B.B.n.P.r   ; - - - - - - - - - ",
"- - - - - - - - - - - . V ^ E W E R ! iXaXuXiXt.e.eXK   - - - - - - - -   j.$XXXXX`.hXvX&Xs.K.N.B.B.G.m.O - - - - - - - - - - - ",
"- - - - - - - - - - - o 2 / E E ^ T a Y yXaXiXiXt.e.eX2 . - - - - - ;   7 $XoX.X`.jXvXlXd.Y.A.N.B.B.H.4 O ; - - - - - - - - - - ",
"- - - - - - - - - - - - . V / Q L d d x %.u.aXaXiXt.0X3.  - - - - - -   !.$X'.'.lXvXvX&Xd.T.S.N.V.H.i   ; - - - - - - - - - - - ",
"- - - - - - - - - - - - + > / T d g h a -.%.<.uXaXuXr.qX5 . - - - ,   8 %X'..XxXvXvXlXd.E.T.g.N.B.H.< & ; - - - - - - - - - - - ",
"- - - - - - - - - - - - - . 0 c f g h d v ,.$.%.p.dXuXy.4.. - - - -   ~.].oXvXvXcXvX&Xd.E.T.E.N.H.u   ; - - - - - - - - - - - - ",
"- - - - - - - - - - - - - * + g x g g g d -.,.%.#.u.dXuX0X9 . - ,   t @X-XvXvXcXvXlXd.h.f.f.Y.G.B.& $ - - - - - - - - - - - - - ",
"- - - - - - - - - - - - - - o 6 c d h h d v 1.:.:.#.<.pXsXq.  - * O `.9XvXvXvXvXvX~.d.W.W.h.Y.P.r   ; - - - - - - - - - - - - - ",
"- - - - - - - - - - - - - - - o B c d h g d ;.:.:.:.%.%.p.sXw .   C kXvXvXvXlXhX*Xl S G G f.Q.a.X - - - - - - - - - - - - - - - ",
"- - - - - - - - - - - - - - - o 1 @.f d x a I 1.:.:.:.%.#.i.tX  % xXvXcXjX:X{.|.o.z M n M n _ 1 @ - - - - - - - - - - - - - - - ",
"- - - - - - - - - - - - - - - - X z @.d d f f :.:.:.:.:.:.#.i.w fXvX>X|.{.|.;X:XF n S S m _ k X - - - - - - - - - - - - - - - - ",
"- - - - - - - - - - - - - - - - * * +.+.f f d I 1.:.:.:.:.:.$.1.7X{.|.;X;X*X:X*Xn M S m F  .- & - - - - - - - - - - - - - - - - ",
"- - - - - - - - - - - - - - - - > X 0 #.[ x d x >.:.:.:.:.;.:._.+X-X=X;X;X*X:Xo.z S m F =.q X - - - - - - - - - - - - - - - - - ",
"- - - - - - - - - - - - - - - - - - X I @.[ x a Y ,.:.:.;.>.).).<X<X;X=X;X;X:XF n m F &.} X - - - - - - - - - - - - - - - - - - ",
"- - - - - - - - - - - - - - - - - - o 7 #.O.+.g g ,.:.;.:.).).(.<X<X<X*X*X:X[.z m _  .=.7 X - - - - - - - - - - - - - - - - - - ",
"- - - - - - - - - - - - - - - - - - - X M @.[ +.f Y >.;.(._.(.).<X<X<X2X*X:Xo.z } | &.D X - - - - - - - - - - - - - - - - - - - ",
"- - - - - - - - - - - - - - - - - - - # > @.O.O.[ v :.(._.).(.(.<X<X2X<X2X=XB }  .| &.> @ - - - - - - - - - - - - - - - - - - - ",
"- - - - - - - - - - - - - - - - - - - > X q #.U O.U *.}.(.).).(.<X<X<X<X1XOX|  .' =.q X > - - - - - - - - - - - - - - - - - - - ",
"- - - - - - - - - - - - - - - - - - - - * @ [ +.O.U b /.}.).(.(.<X<X<X3XL.v.Q.R.^...@ * - - - - - - - - - - - - - - - - - - - - ",
"- - - - - - - - - - - - - - - - - - - - - X 6 #.O.N j _ *.}.(.(.<X<X3XL.k.M.S.R.@X8 X ; - - - - - - - - - - - - - - - - - - - - ",
"- - - - - - - - - - - - - - - - - - - - - - X B @.b j ) _ X.}.).<X3XL.a.A.N.A.].G X - - - - - - - - - - - - - - - - - - - - - - ",
"- - - - - - - - - - - - - - - - - - - - - - o 1 O.l j M | ) X.}.3XF.k.C.n.N.B.'.> @ - - - - - - - - - - - - - - - - - - - - - - ",
"- - - - - - - - - - - - - - - - - - - - - - - X 0 N l b ` ' ) X.F.k.C.Z.N.N.H.y   ; - - - - - - - - - - - - - - - - - - - - - - ",
"- - - - - - - - - - - - - - - - - - - - - - - * # l N j B | ` ` z.A.C.v.N.G.m.O - - - - - - - - - - - - - - - - - - - - - - - - ",
"- - - - - - - - - - - - - - - - - - - - - - - - # > N b b { ` ` Z.Z.C.n.B.G.< O ; - - - - - - - - - - - - - - - - - - - - - - - ",
"- - - - - - - - - - - - - - - - - - - - - - - - - o 6 N j ) { ` z.Z.A.N.P.r   ; - - - - - - - - - - - - - - - - - - - - - - - - ",
"- - - - - - - - - - - - - - - - - - - - - - - - - - X k N M { ` z.Z.v.H.i   - - - - - - - - - - - - - - - - - - - - - - - - - - ",
"- - - - - - - - - - - - - - - - - - - - - - - - - - * * b b ` ` Z.z.G.B.& & - - - - - - - - - - - - - - - - - - - - - - - - - - ",
"- - - - - - - - - - - - - - - - - - - - - - - - - - - # 1 N F ' l.x.H.3 O ; - - - - - - - - - - - - - - - - - - - - - - - - - - ",
"- - - - - - - - - - - - - - - - - - - - - - - - - - - - o 0 I ' l.H.u   ; - - - - - - - - - - - - - - - - - - - - - - - - - - - ",
"- - - - - - - - - - - - - - - - - - - - - - - - - - - - - # j ] D.m.O - - - - - - - - - - - - - - - - - - - - - - - - - - - - - ",
"- - - - - - - - - - - - - - - - - - - - - - - - - - - - - # : ] P.3 O ; - - - - - - - - - - - - - - - - - - - - - - - - - - - - ",
"- - - - - - - - - - - - - - - - - - - - - - - - - - - - - - X q y   ; - - - - - - - - - - - - - - - - - - - - - - - - - - - - - ",
"- - - - - - - - - - - - - - - - - - - - - - - - - - - - - - - * & - - - - - - - - - - - - - - - - - - - - - - - - - - - - - - - ",
"- - - - - - - - - - - - - - - - - - - - - - - - - - - - - - - - - - - - - - - - - - - - - - - - - - - - - - - - - - - - - - - - ",
"- - - - - - - - - - - - - - - - - - - - - - - - - - - - - - - - - - - - - - - - - - - - - - - - - - - - - - - - - - - - - - - - ",
"- - - - - - - - - - - - - - - - - - - - - - - - - - - - - - - - - - - - - - - - - - - - - - - - - - - - - - - - - - - - - - - - ",
"- - - - - - - - - - - - - - - - - - - - - - - - - - - - - - - - - - - - - - - - - - - - - - - - - - - - - - - - - - - - - - - - ",
"- - - - - - - - - - - - - - - - - - - - - - - - - - - - - - - - - - - - - - - - - - - - - - - - - - - - - - - - - - - - - - - - ",
"- - - - - - - - - - - - - - - - - - - - - - - - - - - - - - - - - - - - - - - - - - - - - - - - - - - - - - - - - - - - - - - - ",
"- - - - - - - - - - - - - - - - - - - - - - - - - - - - - - - - - - - - - - - - - - - - - - - - - - - - - - - - - - - - - - - - ",
"- - - - - - - - - - - - - - - - - - - - - - - - - - - - - - - - - - - - - - - - - - - - - - - - - - - - - - - - - - - - - - - - ",
"- - - - - - - - - - - - - - - - - - - - - - - - - - - - - - - - - - - - - - - - - - - - - - - - - - - - - - - - - - - - - - - - ",
"- - - - - - - - - - - - - - - - - - - - - - - - - - - - - - - - - - - - - - - - - - - - - - - - - - - - - - - - - - - - - - - - ",
"- - - - - - - - - - - - - - - - - - - - - - - - - - - - - - - - - - - - - - - - - - - - - - - - - - - - - - - - - - - - - - - - "
};
