/* XPM */
static const char *bitcoin16[] = {
/* columns rows colors chars-per-pixel */
"16 16 103 2 ",
"   c black",
".  c #000702",
"X  c #000707",
"o  c #0D0100",
"O  c #0F0500",
"+  c #000901",
"@  c #040900",
"#  c #000C04",
"$  c #0B0A00",
"%  c #080A04",
"&  c #000609",
"*  c #00070F",
"=  c #0B050F",
"-  c #060A0D",
";  c #0C090D",
":  c #000711",
">  c #020714",
",  c #040715",
"<  c #080213",
"1  c #0C0612",
"2  c #0C0714",
"3  c #000810",
"4  c #070A10",
"5  c #060815",
"6  c #090911",
"7  c #0D0813",
"8  c #0D0814",
"9  c #0B0718",
"0  c #010818",
"q  c #090819",
"w  c #0D0A1B",
"e  c #0D0A1C",
"r  c #130A1A",
"t  c #100A1D",
"y  c #1F0E19",
"u  c #0E0A20",
"i  c #0D0E24",
"p  c #100A20",
"a  c #110B2A",
"s  c #131024",
"d  c #351527",
"f  c #060B4D",
"g  c #380453",
"h  c #320A5E",
"j  c #00344C",
"k  c #0E2259",
"l  c #210B6A",
"z  c #31086A",
"x  c #2C0779",
"c  c #550D40",
"v  c #611159",
"b  c #522351",
"n  c #D51878",
"m  c #1F0A80",
"M  c #14018B",
"N  c #00009C",
"B  c #0018A8",
"V  c #3100BA",
"C  c #120AC2",
"Z  c #0C15C4",
"A  c #3605D6",
"S  c #3209D2",
"D  c #4104CD",
"F  c #4E02C8",
"G  c #500ADC",
"H  c #4908EF",
"J  c #411EF4",
"K  c #5319FF",
"L  c #4F2CE3",
"P  c #772DEA",
"I  c #154CD4",
"U  c #1245E1",
"Y  c #0449FF",
"T  c #0D49FF",
"R  c #1C64FF",
"E  c #357EFF",
"W  c #7C75FF",
"Q  c #A12ABD",
"!  c #D91982",
"~  c #DC1AB9",
"^  c #F31CB0",
"/  c #FF1DB4",
"(  c #FF20A9",
")  c #F432A4",
"_  c #FF48B9",
"`  c #B600C2",
"'  c #961FF9",
"]  c #9A1BFF",
"[  c #B02EE3",
"{  c #E91CD4",
"}  c #C731FF",
"|  c #AC72D1",
" . c #A361FF",
".. c #E746C1",
"X. c #FF52CB",
"o. c #FF43D9",
"O. c #FF58D8",
"+. c #3B8AEB",
"@. c #7A8AFF",
"#. c #4BA3FF",
"$. c #C187E8",
"%. c #EFCDFF",
"&. c white",
/* pixels */
"w w e e e w w w w w w e e e w w ",
"w w 1 8 7 w e w w w q , , , q w ",
"w w i < 9 = 2 w w 5 - 8 0 s w q ",
"w = U R Y I o w w . Q O.X.) > q ",
"e O f T E #.k o # g } ..( c & t ",
"w e O B Z @.+.    [ %.~ n X w w ",
"w e ; a N A W j b &.| ` d * t w ",
"w w e $ m C K L $. .V x + e w w ",
"w w e 6 r S J ] o.P F r 6 e w w ",
"w w w u @ l H ' _ { z + p w w w ",
"w w w w w % M G ^ ! X w w w w w ",
"w w w w e 7 0 D / y : t w w w w ",
"w w w w w e + h v . t w w w w w ",
"w w w w w w w 4 3 w w w w w w w ",
"w w w w w w w e e w w w w w w w ",
"w w w w w w w w w w w w w w w w "
};
